**kern	**dynam	**kern	**dynam	**kern	**dynam	**kern	**dynam	**mxhm
*part4	*part4	*part3	*part3	*part2	*part2	*part1	*part1	*part1
*staff4	*	*staff3	*	*staff2	*	*staff1	*	*
*I"Cello	*	*I"Viola	*	*I"2nd Violin	*	*I"1st Violin	*	*
*clefF4	*	*clefC3	*	*clefG2	*	*clefG2	*	*
*k[b-]	*	*k[b-]	*	*k[b-]	*	*k[b-]	*	*
*F:	*	*F:	*	*F:	*	*F:	*	*
*M3/8	*	*M3/8	*	*M3/8	*	*M3/8	*	*
=1	=1	=1	=1	=1	=1	=1	=1	=1
!	!	!	!	!	!	!LO:TX:a:B:t=Allegretto vivace e sempre scherzando.	!	!
16FF'LL	pp	4.r	.	4.r	.	4.r	.	.Bb.I
16FF'JJ	.	.	.	.	.	.	.	.
8FF'L	.	.	.	.	.	.	.	.
8FF'J	.	.	.	.	.	.	.	.
=2	=2	=2	=2	=2	=2	=2	=2	=2
16FF'LL	.	4.r	.	4.r	.	4.r	.	.
16FF'JJ	.	.	.	.	.	.	.	.
8FF'L	.	.	.	.	.	.	.	.
8FF'J	.	.	.	.	.	.	.	.
=3	=3	=3	=3	=3	=3	=3	=3	=3
16FFLL	.	4.r	.	4.r	.	4.r	.	.
16FF	.	.	.	.	.	.	.	.
16FF	.	.	.	.	.	.	.	.
16FF	.	.	.	.	.	.	.	.
16FF	.	.	.	.	.	.	.	.
16FFJJ	.	.	.	.	.	.	.	.
=4	=4	=4	=4	=4	=4	=4	=4	=4
4.FF	.	4.r	.	8r	pp	4.r	.	.
.	.	.	.	16r	.	.	.	.
.	.	.	.	16c'LL	.	.	.	.
.	.	.	.	16f'	.	.	.	.
.	.	.	.	16a'JJ	.	.	.	.
=5	=5	=5	=5	=5	=5	=5	=5	=5
4.r	.	4.r	.	16g'LL	.	4.r	.	V
.	.	.	.	16f'	.	.	.	.
.	.	.	.	16e'	.	.	.	.
.	.	.	.	16d'	.	.	.	.
.	.	.	.	16e'	.	.	.	.
.	.	.	.	16c'JJ	.	.	.	.
=6	=6	=6	=6	=6	=6	=6	=6	=6
4.r	.	4.r	.	16f'LL	.	4.r	.	I
.	.	.	.	16a'JJ	.	.	.	.
.	.	.	.	8.cc^L	.	.	.	.
.	.	.	.	16a'Jk	.	.	.	.
=7	=7	=7	=7	=7	=7	=7	=7	=7
4.r	.	4.r	.	16g'LL	.	4.r	.	V7/V
.	.	.	.	16e'	.	.	.	.
.	.	.	.	16f'	.	.	.	.
.	.	.	.	16d'	.	.	.	.
.	.	.	.	16g'	.	.	.	.
.	.	.	.	16B'JJ	.	.	.	.
=8	=8	=8	=8	=8	=8	=8	=8	=8
4.r	.	4.r	.	4.c	.	4.r	.	V\\
=9	=9	=9	=9	=9	=9	=9	=9	=9
4.r	.	16E-X'LL	pp	4.r	.	4.r	.	.bVII.I
.	.	16E-'JJ	.	.	.	.	.	.
.	.	8E-'L	.	.	.	.	.	.
.	.	8E-'J	.	.	.	.	.	.
=10	=10	=10	=10	=10	=10	=10	=10	=10
4.r	.	16E-X'LL	.	4.r	.	4.r	.	.
.	.	16E-'JJ	.	.	.	.	.	.
.	.	8E-'L	.	.	.	.	.	.
.	.	8E-'J	.	.	.	.	.	.
=11	=11	=11	=11	=11	=11	=11	=11	=11
4.r	.	16E-XLL	.	4.r	.	4.r	.	.
.	.	16E-	.	.	.	.	.	.
.	.	16E-	.	.	.	.	.	.
.	.	16E-	.	.	.	.	.	.
.	.	16E-	.	.	.	.	.	.
.	.	16E-JJ	.	.	.	.	.	.
=12	=12	=12	=12	=12	=12	=12	=12	=12
4.r	.	4.E-X	.	4.r	.	8r	pp	.
.	.	.	.	.	.	16r	.	.
.	.	.	.	.	.	16b-'LL	.	.
.	.	.	.	.	.	16ee-X'	.	.
.	.	.	.	.	.	16gg'JJ	.	.
=13	=13	=13	=13	=13	=13	=13	=13	=13
4.r	.	4.r	.	4.r	.	16ff'LL	.	V
.	.	.	.	.	.	16ee-X'	.	.
.	.	.	.	.	.	16dd'	.	.
.	.	.	.	.	.	16cc'	.	.
.	.	.	.	.	.	16dd'	.	.
.	.	.	.	.	.	16b-'JJ	.	.
=14	=14	=14	=14	=14	=14	=14	=14	=14
4.r	.	4.r	.	4.r	.	16ee-X'LL	.	I
.	.	.	.	.	.	16gg'JJ	.	.
.	.	.	.	.	.	8.bb-L	.	.
.	.	.	.	.	.	16ggJk	.	.
=15	=15	=15	=15	=15	=15	=15	=15	=15
4.r	.	4.r	.	4.r	.	16ff'LL	.	V7/V
.	.	.	.	.	.	16dd'	.	.
.	.	.	.	.	.	16ee-X'	.	.
.	.	.	.	.	.	16cc'	.	.
.	.	.	.	.	.	16ff'	.	.
.	.	.	.	.	.	16a'JJ	.	.
=16	=16	=16	=16	=16	=16	=16	=16	=16
4.r	.	4.r	.	4.r	.	4.b-	.	V\\
=17	=17	=17	=17	=17	=17	=17	=17	=17
!	!	!LO:TX:b:i:t=cresc.	!	!	!	!	!	!
!	!	!LO:TX:b:i:t=cresc.	!	!	!	!	!	!
16G-X'LL	.	16B-'LL	.	4.r	.	4.r	.	.bII.I
16G-'JJ	.	16B-'JJ	.	.	.	.	.	.
8G-'L	.	8B-'L	.	.	.	.	.	.
8G-'J	.	8B-'J	.	.	.	.	.	.
=18	=18	=18	=18	=18	=18	=18	=18	=18
!	!	!	!	!LO:TX:b:i:t=cresc.	!	!	!	!
16G-XLL	.	16B-LL	.	16g-X'LL	.	4.r	.	.
16G-JJ	.	16B-JJ	.	16g-'JJ	.	.	.	.
8G-L	.	8B-L	.	8g-'L	.	.	.	.
8G-J	.	8B-J	.	8g-'J	.	.	.	.
=19	=19	=19	=19	=19	=19	=19	=19	=19
!	!	!	!	!	!	!LO:TX:b:i:t=cresc.	!	!
16G-XLL	.	16B-LL	.	16g-XLL	.	16dd-X'LL	.	.
16G-JJ	.	16B-JJ	.	16g-JJ	.	16dd-'JJ	.	.
8G-L	.	8B-L	.	8g-L	.	8dd-'L	.	.
8G-J	.	8B-J	.	8g-J	.	8dd-'J	.	.
=20	=20	=20	=20	=20	=20	=20	=20	=20
16G-XLL	.	16B-LL	.	16g-XLL	.	16dd-XLL	.	.
16G-	.	16B-	.	16g-	.	16dd-	.	.
16G-	.	16B-	.	16g-	.	16dd-	.	.
16G-	.	16B-	.	16g-	.	16dd-	.	.
16G-	.	16B-	.	16g-	.	16dd-	.	.
16G-JJ	.	16B-JJ	.	16g-JJ	.	16dd-JJ	.	.
=21	=21	=21	=21	=21	=21	=21	=21	=21
[4.G	f >	[4.B-	f >	[4.e	f >	[4.cc	f >	I.V43
=22	=22	=22	=22	=22	=22	=22	=22	=22
4.G]	]]	4.B-]	]]	4.e]	]]	4.cc]	]]	.
=23	=23	=23	=23	=23	=23	=23	=23	=23
(8FL	p	(8cL	p	(8fL	p	(8aL	p	I
!LO:TX:b:i:t=dol.	!	!LO:TX:b:i:t=dol.	!	!LO:TX:b:i:t=dol.	!	!LO:TX:b:i:t=dol.	!	!
8C	.	8B-	.	8e	.	8g	.	V7
8DJ	.	8AJ	.	8dJ)	.	8fJ	.	vi
=24	=24	=24	=24	=24	=24	=24	=24	=24
8BB-L	.	16.DLL	.	(8dL	.	16.b-LL	.	ii6
.	.	32GJJk	.	.	.	32gJJk	.	.
8C	.	8AL	.	8c)	.	8fL	.	V(64)
8BB-J)	.	8GJ)	.	8cJ	.	8eJ)	.	V2
=25	=25	=25	=25	=25	=25	=25	=25	=25
(8AAL	.	(8FL	.	(8cL	.	(8ccL	.	I6
8GG	.	8E	.	8B-	.	8b-	.	viio6
8FFJ	.	8FJ	.	8AJ	.	8aJ	.	I
=26	=26	=26	=26	=26	=26	=26	=26	=26
8BBB-L	.	16.B-LL	.	16.dLL	.	16.ddLL	.	ii6
.	.	32GJJk	.	32B-JJk	.	32b-JJk	.	.
8CC	.	8FL	.	8AL	.	8aL	.	V(64)
8BBB-J)	.	8EJ)	.	8GJ)	.	8gJ)	.	viio64
=27	=27	=27	=27	=27	=27	=27	=27	=27
(16.AAALL	f	(16.FLL	f	16.cLL	f	(16.ccLL	f	I6
32FFJJk)	.	32AJJk)	.	32cJJk	.	32aJK)	.	.
8BB-'	.	8D'	.	8d'	.	8g'J	.	ii6
8r	.	8r	.	8r	.	8r	.	.
=28	=28	=28	=28	=28	=28	=28	=28	=28
8r	.	8r	.	8r	.	8r	.	.
8C'	p	8G'	p	8B-'	p	8e'	p	V7
8r	.	8r	.	8r	.	8r	.	.
=29	=29	=29	=29	=29	=29	=29	=29	=29
16FFLL	ff	16CLL	ff	16FLL 16A	ff	16ALL 16f	ff	I\\
16FFJJ	.	16CJJ	.	16FJJ 16A	.	16AJJ 16f	.	.
8FFL	.	8CL	.	8FL 8A	.	8AL 8f	.	I
8FFJ	.	8CJ	.	8FJ 8A	.	8AJ 8f	.	.
=30	=30	=30	=30	=30	=30	=30	=30	=30
16FFLL	.	16CLL	.	16FLL 16A	.	16ALL 16f	.	.
16FFJJ	.	16CJJ	.	16FJJ 16A	.	16AJJ 16f	.	.
8FFL	.	8CL	.	8FL 8A	.	8AL 8f	.	.
8FFJ	.	8CJ	.	8FJ 8A	.	8AJ 8f	.	.
=31	=31	=31	=31	=31	=31	=31	=31	=31
16FFLL	.	16CLL	.	16FLL 16A	.	16ALL 16f	.	.
16FF	.	16C	.	16F 16A	.	16A 16f	.	.
16FF	.	16C	.	16F 16A	.	16A 16f	.	.
16FF	.	16C	.	16F 16A	.	16A 16f	.	.
16FF	.	16C	.	16F 16A	.	16A 16f	.	.
16FFJJ	.	16CJJ	.	16FJJ 16A	.	16AJJ 16f	.	.
=32	=32	=32	=32	=32	=32	=32	=32	=32
4.F	sf	4.c	sf	4.f	sf	4.aa	sf	.
=33	=33	=33	=33	=33	=33	=33	=33	=33
16EELL	.	16C#XLL	.	16GLL 16A	.	16ALL 16g	.	V43/vi
16EE	.	16C#	.	16G 16A	.	16A 16g	.	.
16EE	.	16C#	.	16G 16A	.	16A 16g	.	.
16EE	.	16C#	.	16G 16A	.	16A 16g	.	.
16EE	.	16C#	.	16G 16A	.	16A 16g	.	.
16EEJJ	.	16C#JJ	.	16GJJ 16A	.	16AJJ 16g	.	.
=34	=34	=34	=34	=34	=34	=34	=34	=34
4.E	sf	4.c#X	sf	4.g	sf	4.aa	sf	.
=35	=35	=35	=35	=35	=35	=35	=35	=35
4.r	.	4.r	.	16dLL 16f	p	4.r	.	vi
.	.	.	.	16d 16f	.	.	.	.
.	.	.	.	16d 16f	.	.	.	.
.	.	.	.	16d 16f	.	.	.	.
.	.	.	.	16d 16f	.	.	.	.
.	.	.	.	16dJJ 16f	.	.	.	.
=36	=36	=36	=36	=36	=36	=36	=36	=36
4.r	.	4.r	.	4.r	.	16g#XLL 16b	p	viio43/iii
.	.	.	.	.	.	16g# 16b	.	.
.	.	.	.	.	.	16g# 16b	.	.
.	.	.	.	.	.	16g# 16b	.	.
.	.	.	.	.	.	16g# 16b	.	.
.	.	.	.	.	.	16g#JJ 16b	.	.
=37	=37	=37	=37	=37	=37	=37	=37	=37
4.r	.	16G#XLL 16B	p	4.r	.	4.r	.	.
.	.	16G# 16B	.	.	.	.	.	.
.	.	16G# 16B	.	.	.	.	.	.
.	.	16G# 16B	.	.	.	.	.	.
.	.	16G# 16B	.	.	.	.	.	.
.	.	16G#JJ 16B	.	.	.	.	.	.
=38	=38	=38	=38	=38	=38	=38	=38	=38
16EELL	p	4.r	.	4.r	.	4.r	.	V/iii
16EE	.	.	.	.	.	.	.	.
16EE	.	.	.	.	.	.	.	.
16EE	.	.	.	.	.	.	.	.
16EE	.	.	.	.	.	.	.	.
16EEJJ	.	.	.	.	.	.	.	.
=39	=39	=39	=39	=39	=39	=39	=39	=39
8AAA	fp	16ALL	fp	16cLL	fp	8A	fp	iii.i
.	.	16A	.	16c	.	.	.	.
8r	.	16A	.	16c	.	16r	.	.
.	.	16A	.	16c	.	16e'LL	.	.
8r	.	16A	.	16c	.	16a'	.	.
.	.	16AJJ	.	16cJJ	.	16cc'JJ	.	.
=40	=40	=40	=40	=40	=40	=40	=40	=40
4.r	.	16BLL	.	16dLL	.	(16ccLL	.	V43
.	.	16B	.	16d	.	16bJJ)	.	.
.	.	16B	.	16d	.	16.b'LL	.	.
.	.	16B	.	16d	.	.	.	.
.	.	.	.	.	.	32a'K	.	.
.	.	16B	.	16d	.	16.g#X'	.	.
.	.	16BJJ	.	16dJJ	.	.	.	.
.	.	.	.	.	.	32e'JJk	.	.
=41	=41	=41	=41	=41	=41	=41	=41	=41
16r	.	16cLL	.	16eLL	.	(8aL	.	i6
16E'LL	p	16c	.	16e	.	.	.	.
16C'	.	16c	.	16e	.	8cc	.	.
16AA'	.	16c	.	16e	.	.	.	.
16EE'	.	16c	.	16e	.	[8eeJ)	.	.
16CC'JJ	.	16cJJ	.	16eJJ	.	.	.	.
=42	=42	=42	=42	=42	=42	=42	=42	=42
8DDL	.	16BLL	.	16fLL	.	(16eeLL]	.	iio6
.	.	16B	.	16f	.	16ddJJ)	.	.
8D	.	16B	.	16f	.	16.dd'LL	.	.
.	.	16B	.	16f	.	.	.	.
.	.	.	.	.	.	32cc'K	.	.
8D#XJ	.	16B	.	16f#	.	16.b'	.	V6/V
.	.	16BJJ	.	16f#JJ	.	.	.	.
.	.	.	.	.	.	32a'JJk	.	.
=43	=43	=43	=43	=43	=43	=43	=43	=43
8E	.	8e	.	8B	.	(16aLL	.	V(4)
.	.	.	.	.	.	16g#XJJ)	.	V
8r	.	8r	.	8r	.	16g#'LL	.	.
.	.	.	.	.	.	16a'	.	.
8r	.	16r	.	16r	.	16b'	.	.
.	.	16A'	.	16c'	.	16f'JJ	.	VI6
=44	=44	=44	=44	=44	=44	=44	=44	=44
8r	.	8G#X	.	8B	.	(16fLL	.	V6
.	.	.	.	.	.	16eJJ)	.	.
8r	.	8r	.	8r	.	16e'LL	.	.
.	.	.	.	.	.	16d#X'	.	.
16r	.	16r	.	8r	.	16e'	.	.
16FF'	.	16AA'	.	.	.	16d#'JJ	.	iv6
=45	=45	=45	=45	=45	=45	=45	=45	=45
8EE	.	8GG#X	.	4.r	.	16e'LL	.	V
.	.	.	.	.	.	16f'	.	.
8r	.	8r	.	.	.	16e'	.	.
.	.	.	.	.	.	16f'	.	.
8r	.	8r	.	.	.	16e'	.	.
.	.	.	.	.	.	16f'JJ	.	.
=46	=46	=46	=46	=46	=46	=46	=46	=46
!LO:TX:a:i:t=cresc.	!	!	!	!LO:TX:b:i:t=cresc.	!	!LO:TX:b:i:t=cresc.	!	!
4.A	.	4.r	.	4.c	.	8e'L	.	i
.	.	.	.	.	.	(8e	.	.
.	.	.	.	.	.	8f#tJ	.	#viio6/VII
.	.	.	.	.	.	16qqe/LL	.	.
.	.	.	.	.	.	16qqf#/JJ)	.	.
=47	=47	=47	=47	=47	=47	=47	=47	=47
!	!	!LO:TX:b:i:t=cresc.	!	!	!	!	!	!
(8.GL	.	(8.GL	.	(8.BL	.	(8g'L	.	V7/III
.	.	.	.	.	.	8g'	.	.
16FL	.	16BL	.	16dL	.	.	.	.
16E	.	16A	.	16c	.	8g'J)	.	.
16DJJ)	.	16BJJ)	.	16fJJ)	.	.	.	.
=48	=48	=48	=48	=48	=48	=48	=48	=48
4C	f >	4c	f >	4e	f >	(8.gL	f >	III
.	.	.	.	.	.	16g#XL	.	.
(16CLL	.	(16cLL	.	(16dLL	.	16a	.	i6
16DJJ	]]	16AJJ)	]]	16cJJ)	]]	16fJJ)	]]	iv
=49	=49	=49	=49	=49	=49	=49	=49	=49
8.EL	p	(8G#X'L	p	(8B'L	p	(8e'L	p	V\\
.	.	8G#'	.	8B'	.	8e'	.	.
16DL	.	.	.	.	.	.	.	.
16C	.	8G#'J)	.	8B'J)	.	8e'J)	.	.
16BBJJ)	.	.	.	.	.	.	.	.
=50	=50	=50	=50	=50	=50	=50	=50	=50
!LO:TX:a:i:t=cresc.	!	!	!	!	!	!	!	!
!LO:TX:b:i:t=cresc.	!	!LO:TX:b:i:t=cresc.	!	!	!	!LO:TX:b:i:t=cresc.	!	!
4.AA	.	8A	.	4c	.	4e	.	i
.	.	(8EL	.	.	.	.	.	.
.	.	8F#tJ	.	8r	.	[8cc	.	#viio6/VII
.	.	16qqE/LL	.	.	.	.	.	.
.	.	16qqF#/JJ)	.	.	.	.	.	.
=51	=51	=51	=51	=51	=51	=51	=51	=51
(8.GGL	.	8G'L	.	8r	.	(16ccLL]	.	V7/III
.	.	.	.	.	.	16a	.	.
!	!	!	!	!LO:TX:b:i:t=cresc.	!	!	!	!
.	.	8G'	.	(8g'L	.	16b	.	.
16FFL	.	.	.	.	.	16dd	.	V2/III
16EE	.	8G'J	.	8g'J)	.	16cc	.	III6
16DDJJ)	.	.	.	.	.	16ffJJ	.	V43/III
=52	=52	=52	=52	=52	=52	=52	=52	=52
4CC	sf >	(8.GL	sf >	(8.gL	sf >	16eeLL	sf >	III
.	.	.	.	.	.	16b	.	.
.	.	.	.	.	.	16cc	.	.
.	.	8E	.	8e	.	16g#X	.	V(6)
(16CCLL	.	.	.	.	.	16a	.	i6
16DDJJ)	]]	16DJk)	]]	16AJk)	]]	16fJJ)	]]	iv
=53	=53	=53	=53	=53	=53	=53	=53	=53
!	!	!	!LO:DY:a	!	!	!	!	!
(8.EEL	p	(8.BBL	p p	8.G#XL	.	(8e'L	p	V
.	.	.	.	.	.	8e'	.	.
16DDL	.	16EJk)	.	(16G#L	.	.	.	.
16CC	.	(16ELL	.	16A	.	8e'J)	.	.
16BBBJJ)	.	16G#XJJ)	.	16BJJ)	.	.	.	.
=54	=54	=54	=54	=54	=54	=54	=54	=54
8.AAAL	pp	16A'LL	pp	16c'LL	pp	16e'LL	pp	i
.	.	16G#X'JJ	.	16B'JJ	.	16e'JJ	.	V
.	.	[4A	.	[4c	.	[4e	.	i
16EE'K	.	.	.	.	.	.	.	.
[8AAJ	.	.	.	.	.	.	.	.
=55	=55	=55	=55	=55	=55	=55	=55	=55
8AAL]	.	8AL]	.	8cL]	.	8eL]	.	.
16EE'L	.	16G#X'L	.	16B'L	.	16e'L	.	V
16AAA'JJ	.	16A'JJ	.	16c'JJ	.	16e'JJ	.	i
[8EE	.	[8G#	.	[8B	.	[8e	.	V
=56	=56	=56	=56	=56	=56	=56	=56	=56
8EE]	.	8G#]	.	8B]	.	8eL]	.	.
16AAA'LL	.	16A'LL	.	16A'LL	.	16E'L 16e	.	i
16EE'JJ	.	16G#X'JJ 16B	.	16d'JJ	.	16E'JJ 16e	.	V7
[8AA	.	[8A	.	[8c	.	[8E [8e	.	i
=57	=57	=57	=57	=57	=57	=57	=57	=57
8AA]	.	8A]	.	8cL]	.	8EL] 8e]	.	.
16EE'LL	.	16G#X'LL 16B	.	16d'L	.	16E'L 16e	.	V7
16AAA'JJ	.	16A'J	.	16c'JJ	.	16E'JJ 16e	.	i
8EE	.	8G#J	.	8B	.	[8E [8e	.	V
=58	=58	=58	=58	=58	=58	=58	=58	=58
!LO:TX:b:i:t=cresc.	!	!LO:TX:b:i:t=cresc.	!	!LO:TX:b:i:t=cresc.	!	!LO:TX:b:i:t=cresc.	!	!
(8AAA	.	(8A	.	(8c	.	(8E] 8e]	.	i
!	!	!	!LO:DY:a	!	!LO:DY:a	!	!	!
[4BBB-X)	sf > ]]	[4F)	sf sf > ]]	[4B-X)	sf > ]]	[4D) [4d	>]	.bII
=59	=59	=59	=59	=59	=59	=59	=59	=59
(8BBB-L]	p	(8FL]	p	(8B-L]	p	(8DL] 8d]	p	.
8EE	.	8D	.	8G#X	.	8B	.	V7
8AAAJ)	.	8CJ)	.	8AJ)	.	8cJ)	.	i
=60	=60	=60	=60	=60	=60	=60	=60	=60
!LO:TX:b:i:t=cresc.	!	!LO:TX:b:i:t=cresc.	!	!LO:TX:b:i:t=cresc.	!	!LO:TX:b:i:t=cresc.	!	!
(16.AALL	.	(16.AALL	.	(16.ALL	.	(16.ALL	.	.
32BB-XJJk)	.	32FJJk)	.	32DJJk)	.	32dJJk)	.	.bII
[4BB-	sf > ]]	[4F	sf > ]]	8DL	.	[4D [4d	sf > ]]	.
.	.	.	.	[8B-XJ	sf > ]]	.	.	.
=61	=61	=61	=61	=61	=61	=61	=61	=61
(8BB-L]	p	(8FL]	p	(8B-L]	p	(8DL] 8d]	p	.
8EE	.	8D	.	8G#X	.	8B	.	V7
8AAJ)	.	8CJ)	.	8AJ)	.	8cJ)	.	i
=62	=62	=62	=62	=62	=62	=62	=62	=62
16AAALL	pp	16AALL	pp	16ALL	pp	16ALL	pp	.
16AAAJJ	.	16AAJJ	.	16AJJ	.	16AJJ	.	.
8AAAL	.	8AAL	.	8AL	.	8AL	.	.
8AAAJ	.	8AAJ	.	8AJ	.	8AJ	.	.
=63	=63	=63	=63	=63	=63	=63	=63	=63
16AAALL	.	16AALL	.	16ALL	.	16ALL	.	.
16AAAJJ	.	16AAJJ	.	16AJJ	.	16AJJ	.	.
8AAAL	.	8AAL	.	8AL	.	8AL	.	.
8AAAJ	.	8AAJ	.	8AJ	.	8AJ	.	.
=64	=64	=64	=64	=64	=64	=64	=64	=64
16AAALL	.	16AALL	.	16ALL	.	16ALL	.	.
16AAA	.	16AA	.	16A	.	16A	.	.
16AAA	.	16AA	.	16A	.	16A	.	.
16AAA	.	16AA	.	16A	.	16A	.	.
16AAA	.	16AA	.	16A	.	16A	.	.
16AAAJJ	.	16AAJJ	.	16AJJ	.	16AJJ	.	.
=65	=65	=65	=65	=65	=65	=65	=65	=65
(4.AAA	.	(4.AA	.	(4.A	.	(4.A	.	i\\
=66	=66	=66	=66	=66	=66	=66	=66	=66
4.GGG	.	4.GG	.	4.G	.	4.G	.	vii
=67	=67	=67	=67	=67	=67	=67	=67	=67
4DD-X	>	4D-X	>	4d-X	>	4d-X	>	.biv
8CC)	]]	8C)	]]	8c)	]]	8c)	]]	V/VI
=68	=68	=68	=68	=68	=68	=68	=68	=68
!	!	!	!LO:DY:a	!	!LO:DY:a	!	!	!
16FFLL	pp	4F	pp pp	4F	pp	4F	.	I.I
16FFJJ	.	.	.	.	.	.	.	.
8FF'L	.	.	.	.	.	.	.	.
8FF'J	.	8r	.	8r	.	8r	.	.
=69	=69	=69	=69	=69	=69	=69	=69	=69
16FFLL	.	4.r	.	4.r	.	4.r	.	.
16FFJJ	.	.	.	.	.	.	.	.
8FF'L	.	.	.	.	.	.	.	.
8FF'J	.	.	.	.	.	.	.	.
=70	=70	=70	=70	=70	=70	=70	=70	=70
16FFLL	.	4.r	.	4.r	.	4.r	.	.
16FF	.	.	.	.	.	.	.	.
16FF	.	.	.	.	.	.	.	.
16FF	.	.	.	.	.	.	.	.
16FF	.	.	.	.	.	.	.	.
16FFJJ	.	.	.	.	.	.	.	.
=71	=71	=71	=71	=71	=71	=71	=71	=71
4.FF	.	4.r	.	4.r	.	4.r	.	.
=72	=72	=72	=72	=72	=72	=72	=72	=72
4.r	.	4.r	.	16c'LL	pp	4.r	.	V
.	.	.	.	16f'	.	.	.	.
.	.	.	.	16a'	.	.	.	.
.	.	.	.	16f'	.	.	.	.
.	.	.	.	16g'	.	.	.	.
.	.	.	.	16e'JJ	.	.	.	.
=73	=73	=73	=73	=73	=73	=73	=73	=73
4.r	.	4.r	.	8f'	.	4.r	.	I
.	.	.	.	4c	.	.	.	.
=74	=74	=74	=74	=74	=74	=74	=74	=74
4.r	.	16d'LL	pp	4.r	.	4.r	.	V
.	.	16c'	.	.	.	.	.	.
.	.	16B-'	.	.	.	.	.	.
.	.	16A'	.	.	.	.	.	.
.	.	16G'	.	.	.	.	.	.
.	.	16c'JJ	.	.	.	.	.	.
=75	=75	=75	=75	=75	=75	=75	=75	=75
4.r	.	8A'	.	4.r	.	4.r	.	I\\
.	.	4F	.	.	.	.	.	.
=76	=76	=76	=76	=76	=76	=76	=76	=76
!	!	!	!LO:DY:a	!	!	!	!	!
4.r	.	4.r	pp	16A'LL	.	4.r	.	.
.	.	.	.	16c'	.	.	.	.
.	.	.	.	16f'	.	.	.	.
.	.	.	.	16a'	.	.	.	.
.	.	.	.	16g'	.	.	.	.
.	.	.	.	16e'JJ	.	.	.	.
=77	=77	=77	=77	=77	=77	=77	=77	=77
4.r	.	4.r	.	16f'LL	.	4.r	.	.
.	.	.	.	16a'JJ	.	.	.	.
.	.	.	.	8.ccL	>	.	.	.
.	.	.	.	16ddJk	]	.	.	.
=78	=78	=78	=78	=78	=78	=78	=78	=78
!	!	!LO:TX:a:i:t=cresc.	!	!	!	!	!	!
4.r	.	16r	.	16cc'LL	.	16r	.	.
!	!	!LO:TX:b:i:t=cresc.	!	!	!	!	!	!
.	.	16DLL	.	16a'	.	16ALL 16c	.	vi7
!	!	!	!	!	!	!LO:TX:b:i:t=cresc.	!	!
.	.	16D	.	16f'	.	16A 16c	.	.
.	.	16DJ	.	16g'JJ	.	16AJJ 16c	.	.
.	.	(8DJ	.	8fT	.	8A 8c	.	.
.	.	.	.	16qqe/LL	.	.	.	.
.	.	.	.	16qqf/JJ	.	.	.	.
=79	=79	=79	=79	=79	=79	=79	=79	=79
!	!	!	!	!	!LO:DY:a	!	!	!
4.r	.	16ELL)	pp	[4.e	pp pp	[4.G#X [4.B	.	V/iii
.	.	16EJ	.	.	.	.	.	.
.	.	8E'	.	.	.	.	.	.
.	.	8E'J	.	.	.	.	.	.
=80	=80	=80	=80	=80	=80	=80	=80	=80
4.r	.	16ELL	.	4.e_	.	4.G#_ 4.B_	.	.
.	.	16EJ	.	.	.	.	.	.
.	.	8E'	.	.	.	.	.	.
.	.	8E'J	.	.	.	.	.	.
=81	=81	=81	=81	=81	=81	=81	=81	=81
4.r	.	16ELL	.	4.e_	.	4.G#_ 4.B_	.	.
.	.	16E	.	.	.	.	.	.
.	.	16E	.	.	.	.	.	.
.	.	16E	.	.	.	.	.	.
.	.	16E	.	.	.	.	.	.
.	.	16EJJ	.	.	.	.	.	.
=82	=82	=82	=82	=82	=82	=82	=82	=82
4.r	.	4.E	.	4.e]	.	4.G#] 4.B]	.	.
=83	=83	=83	=83	=83	=83	=83	=83	=83
4.r	.	4.r	.	4.r	.	16b'LL	.	VII.I
.	.	.	.	.	.	16ee'	.	.
.	.	.	.	.	.	16gg#X'	.	.
.	.	.	.	.	.	16ee'	.	.
.	.	.	.	.	.	16ff#'	.	V
.	.	.	.	.	.	16dd#X'JJ	.	.
=84	=84	=84	=84	=84	=84	=84	=84	=84
4.r	.	4.r	.	4.r	.	8ee'	.	I
.	.	.	.	.	.	4b	.	.
=85	=85	=85	=85	=85	=85	=85	=85	=85
4.r	.	4.r	.	16cc#X'LL	.	4.r	.	V
.	.	.	.	16b'	.	.	.	.
.	.	.	.	16a'	.	.	.	.
.	.	.	.	16g#X'	.	.	.	.
.	.	.	.	16f#'	.	.	.	.
.	.	.	.	16b'JJ	.	.	.	.
=86	=86	=86	=86	=86	=86	=86	=86	=86
4.r	.	4.r	.	8g#X'	.	4.r	.	I
.	.	.	.	4e	.	.	.	.
=87	=87	=87	=87	=87	=87	=87	=87	=87
!	!	!	!	!	!	!LO:TX:b:i:t=cresc.	!	!
4.r	.	4.r	.	4.r	.	16ccc'LL	.	iii.i
.	.	.	.	.	.	16bb'	.	.
.	.	.	.	.	.	16aa'	.	.
.	.	.	.	.	.	16gg'	.	.
.	.	.	.	.	.	16ff#'	.	V7/V
.	.	.	.	.	.	16aa'JJ	.	.
=88	=88	=88	=88	=88	=88	=88	=88	=88
4.r	.	4.r	.	4r	.	16dd#X'LL	.	.
.	.	.	.	.	.	16ff#'	.	.
.	.	.	.	.	.	16cc'	.	.
.	.	.	.	.	.	16b'	.	.
.	.	.	.	16f'LL	f	16ffX'	f	V7
.	.	.	.	16e'JJ	.	16ee'JJ	.	.
=89	=89	=89	=89	=89	=89	=89	=89	=89
4.r	.	4r	.	16d'LL	.	16dd'LL	.	.
.	.	.	.	16c'	.	16cc'	.	.
.	.	.	.	16B'	.	16b'	.	.
.	.	.	.	16A'	.	16a'	.	.
.	.	16G#XLL	.	16G#X'	.	16g#X'	.	.
.	.	16BJJ	.	16B'JJ	.	16b'JJ	.	.
=90	=90	=90	=90	=90	=90	=90	=90	=90
.	.	16qqG/	sf	.	.	16qqg/	sf	.
8r	.	(16FLL	.	4.r	.	(16fLL	.	.
.	.	16EJJ)	.	.	.	16eJJ)	.	.
16qqGG/	sf	.	.	.	.	8qqG/	sf	.
(16FFLL	.	8r	.	.	.	(16FLL	.	.
16EEJJ)	.	.	.	.	.	16EJJ)	.	.
16qqGG/	sf	.	.	.	.	8qqG/	sf	.
(16FFLL	.	8r	.	.	.	(16FLL	.	.
16EEJJ)	.	.	.	.	.	16EJJ)	.	.
=91	=91	=91	=91	=91	=91	=91	=91	=91
16AALL	f	4.r	.	4.r	.	16ALL 16ALL	ff	i[i
16AA	.	.	.	.	.	16AJJ 16AJJ	.	.
16AAJJ	.	.	.	.	.	8AL 8AL	.	.
16r	.	.	.	.	.	.	.	.
8r	.	.	.	.	.	8AJ 8AJ	.	.
=92	=92	=92	=92	=92	=92	=92	=92	=92
16GLL	f	16c#XLL	f	16b-XLL	f	16ALL 16ALL	.	#viio43/iv
16G	.	16c#	.	16b-	.	16AJJ 16AJJ	.	.
16GJJ	.	16c#JJ	.	16b-JJ	.	8AL 8AL	.	.
16r	.	16r	.	16r	.	.	.	.
8r	.	8r	.	8r	.	8AJ 8AJ	.	.
=93	=93	=93	=93	=93	=93	=93	=93	=93
16FLL	.	16dLL	.	16aLL	.	16ALL 16ALL	.	iv6
16F	.	16d	.	16a	.	16AJJ 16AJ	.	.
16FJJ	.	16dJJ	.	16aJJ	.	8AL 8A	.	.
16r	.	16r	.	8.ryy	.	.	.	.
8r	.	8r	.	.	.	8AJ 8AJ	.	.
=94	=94	=94	=94	=94	=94	=94	=94	=94
4.AA 4.F	sf	4.g#X	sf	4.dd	sf	16ALL 16ALL	sf	#viio2
.	.	.	.	.	.	16A 16A	.	.
.	.	.	.	.	.	16A 16A	.	.
.	.	.	.	.	.	16A 16A	.	.
.	.	.	.	.	.	16A 16A	.	.
.	.	.	.	.	.	16AJJ 16AJJ	.	.
=95	=95	=95	=95	=95	=95	=95	=95	=95
8AA 8E	.	8aL	.	8cc#X	.	16ALL 16a	.	V7/iv]
.	.	.	.	.	.	16AJJ 16a	.	.
8r	.	16c#XL	.	16eeLL	.	8AL 8a	.	.
.	.	16c#JJ	.	16eeJJ	.	.	.	.
16AALL	.	8r	.	8ryy	.	8AJ 8a	.	.
16AAJJ	.	.	.	.	.	.	.	.
=96	=96	=96	=96	=96	=96	=96	=96	=96
8r	.	16c#XLL	.	16eeLL	.	16ALL 16a	.	V2/iv
.	.	16c#JJ	.	16eeJJ	.	16AJJ 16a	.	.
16GGLL	.	8r	.	8r	.	8AL 8a	.	.
16GGJJ	.	.	.	.	.	.	.	.
8ryy	.	16c#LL	.	16eeLL	.	8AJ 8a	.	.
.	.	16c#JJ	.	16eeJJ	.	.	.	.
=97	=97	=97	=97	=97	=97	=97	=97	=97
16FFLL	.	8r	.	8r	.	16ALL 16a	.	iv6
16FFJJ	.	.	.	.	.	16AJJ 16a	.	.
8r	.	16dLL	.	16ffLL	.	8AL 8a	.	.
.	.	16dJJ	.	16ffJJ	.	.	.	.
16DDLL	.	8r	.	8ryy	.	8AJ 8a	.	iv
16DDJJ	.	.	.	.	.	.	.	.
=98	=98	=98	=98	=98	=98	=98	=98	=98
16DDLL 16AA	sf	16dLL 16f	sf	16bLL 16gg#X	sf	16ALL 16a	sf	#viio43(+2)
16DD 16AA	.	16d 16f	.	16b 16gg#	.	16A 16a	.	.
16DD 16AA	.	16d 16f	.	16b 16gg#	.	16A 16a	.	.
16DD 16AA	.	16d 16f	.	16b 16gg#	.	16A 16a	.	.
16DD 16AA	.	16d 16f	.	16b 16gg#	.	16A 16a	.	.
16DDJJ 16AA	.	16dJJ 16f	.	16bJJ 16gg#	.	16AJJ 16a	.	.
=99	=99	=99	=99	=99	=99	=99	=99	=99
!	!	!	!LO:DY:a	!	!	!	!	!
16AAALL	pp	16AALL	pp pp	16aa	.	8A 8a	pp	i
16AAA	.	16AA	.	16ALL	.	.	.	.
16AAA	.	16AA	.	16A	.	8r	.	.
16AAA	.	16AA	.	16A	.	.	.	.
16AAA	.	16AA	.	16A	.	8r	.	.
16AAAJJ	.	16AAJJ	.	16AJJ	.	.	.	.
=100	=100	=100	=100	=100	=100	=100	=100	=100
16GGGLL	.	16GGLL	.	16GLL	.	4r	.	@none
16GGG	.	16GG	.	16G	.	.	.	.
16DD-X	.	16D-X	.	16d-X	.	.	.	.
16DD-	.	16D-	.	16d-	.	.	.	.
16CC	.	16C	.	16c	.	16b-LL 16cc	.	I.V7
16CCJJ	.	16CJJ	.	16cJJ	.	16b-JJ 16cc	.	.
=101	=101	=101	=101	=101	=101	=101	=101	=101
!	!LO:DY:a	!	!	!	!	!	!	!
16FFLL 16AA	ff ff	16CLL 16c	.	16c'LL	ff	16cc'LL	ff	I[I
16FFJJ 16AA	.	16CJJ 16c	.	16f'	.	16ff'	.	.
8FFL 8AA	.	8CL 8c	.	16a'	.	16aa'	.	.
.	.	.	.	16f'	.	16ff'	.	.
8FFJ 8BB-	.	8CJ 8c	.	16g'	.	16gg'	.	V2
.	.	.	.	16e'JJ	.	16ee'JJ	.	.
=102	=102	=102	=102	=102	=102	=102	=102	=102
16FFLL 16AA	.	16CLL 16c	.	8f	.	8ff'	.	I6
16FF 16AA	.	16CJJ 16c	.	.	.	.	.	.
16FF 16AA	.	8CL 8c	.	4c	sf	4cc	sf	.
16FF 16AA	.	.	.	.	.	.	.	.
16FF 16AA	.	8CJ 8c	.	.	.	.	.	.
16FFJJ 16AA	.	.	.	.	.	.	.	.
=103	=103	=103	=103	=103	=103	=103	=103	=103
16FFLL 16BB-	.	16CLL 16c	.	16d'LL	.	16dd'LL	.	V2
16FF 16BB-	.	16C 16c	.	16c'	.	16cc'	.	.
16FF 16BB-	.	16C 16c	.	16B-'	.	16b-'	.	.
16FF 16BB-	.	16C 16c	.	16A'	.	16a'	.	.
16FF 16BB-	.	16C 16c	.	16G'	.	16g'	.	.
16FFJJ 16BB-	.	16CJJ 16c	.	16c'JJ	.	16cc'JJ	.	.
=104	=104	=104	=104	=104	=104	=104	=104	=104
16FFLL 16AA	.	16CLL 16c	.	8A'	.	8a'	.	I]
16C'JJ	.	16F'	.	.	.	.	.	.
16F'LL	.	16A'	.	4F	sf	4f	sf	.
16A'	.	16c'	.	.	.	.	.	.
16G'	.	16B-'	.	.	.	.	.	.
16E'JJ	.	16G'JJ	.	.	.	.	.	.
=105	=105	=105	=105	=105	=105	=105	=105	=105
16FLL	.	16ALL	.	16ALL	.	16aLL	.	I
16C	.	16F	.	16c	.	16cc	.	.
16AA	.	16C	.	16f	.	16ff	.	.
16FF	.	16AA	.	16a	.	16aa	.	.
16BB-	.	16C	.	16g	.	16gg	.	V2
16BB-JJ	.	16CJJ	.	16eJJ	.	16eeJJ	.	.
=106	=106	=106	=106	=106	=106	=106	=106	=106
16AALL	.	16C	.	16f'LL	.	16ff'LL	.	I6
16C	.	16FLL	.	16a'JJ	.	16aa'JJ	.	.
16F	.	16A	.	8.ccL	sf	8.cccL	sf	V43
16A	.	16c	.	.	.	.	.	.
16G	.	16B-	.	.	.	.	.	.
16EJJ	.	16GJJ	.	16ddJk	.	16dddJk	.	.
=107	=107	=107	=107	=107	=107	=107	=107	=107
16FLL	.	16ALL	.	16cc'LL	.	16ccc'LL	.	I
16FFJJ	.	16AA	.	16a'	.	16aa'	.	.
16FLL	.	16A	.	16f'	.	16ff'	.	.
16F	.	16AJJ	.	16g'JJ	.	16gg'JJ	.	.
16F	.	16ALL	.	8fT	.	8ffT	.	.
16FJJ	.	16AJJ	.	.	.	.	.	.
.	.	.	.	16qqe/LL	.	16qqee/LL	.	.
.	.	.	.	16qqf/JJ	.	16qqff/JJ	.	.
=108	=108	=108	=108	=108	=108	=108	=108	=108
16G#XLL	.	16BLL	.	4e	.	4ee	.	V6/iii
16G#	.	16B	.	.	.	.	.	.
16G#	.	16B	.	.	.	.	.	.
16G#	.	16B	.	.	.	.	.	.
16G#	p	16B	p	16ee'LL	p	8r	.	.
16G#JJ	.	16BJJ	.	16ff'JJ	.	.	.	.
=109	=109	=109	=109	=109	=109	=109	=109	=109
16ALL	.	16cLL	.	16eeLL	.	4.r	.	iii
16A	.	16c	.	16cc	.	.	.	.
16A	.	16c	.	16a	.	.	.	.
16A	.	16c	.	16bJJ	.	.	.	.
16A	.	16c	.	8aT	.	.	.	.
16AJJ	.	16cJJ	.	.	.	.	.	.
.	.	.	.	16qqg/LL	.	.	.	.
.	.	.	.	16qqa/JJ	.	.	.	.
=110	=110	=110	=110	=110	=110	=110	=110	=110
16BLL	.	16dLL	.	4g	.	4r	.	V6/V
16B	.	16d	.	.	.	.	.	.
16B	.	16d	.	.	.	.	.	.
16B	.	16d	.	.	.	.	.	.
16B	f	16d	f	16g'LL	f	16gg'LL	f	.
16BJJ	.	16dJJ	.	16a'JJ	.	16aa'JJ	.	.
=111	=111	=111	=111	=111	=111	=111	=111	=111
16c'LL	.	16e'LL	.	16g'LL	.	16gg'LL	.	V.I
(32CL	.	(32EL	.	16e'	.	16ee'	.	.
32DJJJ)	.	32FJJJ)	.	.	.	.	.	.
16E'LL	.	16G'LL	.	16c'	.	16cc'	.	.
16C'	.	16E'	.	16d'JJ	.	16dd'JJ	.	.
16F#'	.	16A'	.	8cT	.	8ccT	.	V65/V
16D'JJ	.	16F#'JJ	.	.	.	.	.	.
=112	=112	=112	=112	=112	=112	=112	=112	=112
8G	.	8B	.	16B'LL	sf	16b'LL	sf	V\\
.	.	.	.	16G'JJ	.	16g'JJ	.	.
!	!	!	!LO:DY:a	!	!	!	!	!
8r	.	8r	sf	16e'LL	.	8r	.	.
.	.	.	.	16d'JJ	.	.	.	.
8r	.	8r	.	8r	.	16B'LL	sf	.
.	.	.	.	.	.	16G'JJ	.	.
=113	=113	=113	=113	=113	=113	=113	=113	=113
!	!	!	!LO:DY:a	!	!	!	!	!
4r	.	8r	sf	16E'LL	.	4.r	.	.
.	.	.	.	16D'JJ	.	.	.	.
.	.	16BB'LL	sf	8r	.	.	.	.
.	.	16GG'JJ	.	.	.	.	.	.
16EE'LL	sf	8r	.	8r	.	.	.	.
16DD'JJ	.	.	.	.	.	.	.	.
=114	=114	=114	=114	=114	=114	=114	=114	=114
4.GGG	.	4.r	.	4.r	.	4.r	.	.
=115	=115	=115	=115	=115	=115	=115	=115	=115
4.r	.	4.r	.	4.r	.	(16.cLL	p	v.i
!	!	!	!	!	!	!LO:TX:b:i:t=cresc.	!	!
.	.	.	.	.	.	32dJJk	.	.
.	.	.	.	.	.	8e-XL	.	.
.	.	.	.	.	.	8fJ)	.	.
=116	=116	=116	=116	=116	=116	=116	=116	=116
!	!	!	!	!	!LO:DY:a	!	!	!
8r	.	8r	.	8r	f	4g	.	i[i
[4C	f	(4E-X	f	(4G	f	.	.	.
.	.	.	.	.	.	(8a-X	.	.
=117	=117	=117	=117	=117	=117	=117	=117	=117
4C]	.	4F	.	4A-X	.	16b-'LL)	.	iv
.	.	.	.	.	.	16a-X'	.	.
.	.	.	.	.	.	16g'	>	.
.	.	.	.	.	.	16f'JJ	.	.
[8C	>]	[8G)	>]	8B)	>]	16e-X'LL	.	V
.	.	.	.	.	.	16d'JJ	]]	.
=118	=118	=118	=118	=118	=118	=118	=118	=118
!	!LO:DY:a	!	!	!	!	!	!	!
8C]	p p	8G]	.	8c	p	16e-X'LL	p	i]
.	.	.	.	.	.	16d'	.	.
8r	.	8r	.	16r	.	16c'JJ	.	.
.	.	.	.	16a-X'LL	.	16r	.	.
8r	.	8r	.	16g'	.	8r	.	.
.	.	.	.	16f'JJ	.	.	.	.
=119	=119	=119	=119	=119	=119	=119	=119	=119
!	!	!	!	!LO:TX:b:i:t=cresc.	!	!LO:TX:b:i:t=cresc.	!	!
8r	.	4r	.	16e-X'LL	.	(16.ccLL	.	i6
.	.	.	.	16d'JJ	.	.	.	.
.	.	.	.	.	.	32ddJJk	.	.
16r	.	.	.	(8cL	.	8ee-XL	.	i
!LO:TX:b:i:t=cresc.	!	!	!	!	!	!	!	!
16A-X'LL	.	.	.	.	.	.	.	.
!	!	!LO:TX:b:i:t=cresc.	!	!	!	!	!	!
16G'	.	8c	.	8ccJ)	.	8ffJ)	.	.
16F'JJ	.	.	.	.	.	.	.	.
=120	=120	=120	=120	=120	=120	=120	=120	=120
16E-X'LL	.	4c	.	(8ccL	.	4gg	.	i
16D'	.	.	.	.	.	.	.	.
16C'	.	.	.	8e-X)	.	.	.	.
16BB-'	.	.	.	.	.	.	.	.
16AA-X'	sf	8c	sf	8e-J	sf	(8aa-X	f	VI
16GG'JJ	.	.	.	.	.	.	.	.
=121	=121	=121	=121	=121	=121	=121	=121	=121
(8FF	.	(8c	.	8.dL	.	16bb-'LL)	.	ii%65
.	.	.	.	.	.	16aa-X'	.	.
4GG)	sf	16B)	.	.	.	16gg'	.	V7
.	.	16D'LL	>	16f'L	>	16ff'	>	.
.	.	16G'	.	16e-X'	.	16ee-X'	.	.
.	.	16F'JJ	]]	16B'JJ 16g	]]	16dd'JJ	]]	.
=122	=122	=122	=122	=122	=122	=122	=122	=122
8CCL	p	8E-X'	p	8c'	p	8cc'	p	i\\
8CJ	.	8r	.	8r	.	8r	.	.
8r	.	(8C	.	(8E-X	.	(8e-X	.	.
=123	=123	=123	=123	=123	=123	=123	=123	=123
8GGG'L	.	(8BBL)	.	8DL)	.	16.dLL	.	V7
.	.	.	.	.	.	32cJJk	.	.
8GG'	.	8D	.	8F	.	8BL	.	.
8GG'J	.	8BBJ)	.	8FJ	.	8dJ)	.	.
=124	=124	=124	=124	=124	=124	=124	=124	=124
8C'L	<	4C	<	4E-X	<	(4c	<	i
(8CC	.	.	.	.	.	.	.	.
8AAAJ	[ > ]]	(8E-X	[ > ]]	(8G	[ > ]]	8g)	[ > ]]	.bVII.vii%7/V
=125	=125	=125	=125	=125	=125	=125	=125	=125
8BBB-XL)	.	(8DL)	.	8FL)	.	(16.fLL	.	V7
.	.	.	.	.	.	32e-XJJk	.	.
8BB-X'	.	8F	.	8A-X	.	8dL	.	.
8BB-X'J	.	8DJ)	.	8A-J	.	8fJ)	.	.
=126	=126	=126	=126	=126	=126	=126	=126	=126
8E-X'L	<	(4E-X	<	(4G	<	(4e-X	<	I
(8EE-X	.	.	.	.	.	.	.	.
8CC#XJ	[ > ]]	8G)	[ > ]]	8B-X)	[ > ]]	8b-)	[ > ]]	ii.#viio7/V
=127	=127	=127	=127	=127	=127	=127	=127	=127
8DDL)	.	(8F#L	.	(8AL	.	(16.aLL	.	V7
.	.	.	.	.	.	32gJJk	.	.
8D'	.	8A	.	8c	.	8f#L	.	.
8D'J	.	8cJ)	.	8f#J)	.	8aJ)	.	.
=128	=128	=128	=128	=128	=128	=128	=128	=128
!LO:TX:b:i:t=cresc.	!	!	!	!LO:TX:b:i:t=cresc.	!	!LO:TX:b:i:t=cresc.	!	!
(8GGL	.	8B-X	.	(16.gLL	.	8gL	.	i
.	.	.	.	32aJK	.	.	.	.
8G	.	8r	.	8b-	.	8gg	.	.
8AJ)	.	8r	.	8ccJ)	.	8ggJ	.	.
=129	=129	=129	=129	=129	=129	=129	=129	=129
4B-X	.	4.r	.	(4dd	.	4gg	.	i6
(8c	f	.	.	8ee-X	f	[8gg	f	iv
=130	=130	=130	=130	=130	=130	=130	=130	=130
16d'LL)	.	16r	.	16ffX'LL)	.	16gg'LL]	.	V43/iv
16c'	.	16G'LL	.	16ee-X'	.	16gg'	.	iv
16B-'	.	16g'	.	16dd'	.	16gg'	.	i6
16E-X'	.	16G'	.	16cc'	.	16gg'	.	iv6
16D'	.	16d'	.	16b-'	.	16gg'	.	V(64)
16DD'JJ	.	16c'JJ	.	16a'JJ	.	16ff#'JJ	.	V7
=131	=131	=131	=131	=131	=131	=131	=131	=131
16GG'	.	16B'LL	.	16g'LL	.	16gg'LL	.	I\\
16G'LL	.	16a-X'	.	16cc'	.	16ffX'	.	v.V7
16G'	.	16g'	.	16b-'	.	16ee-X'	.	.
16G'	.	16fX'	.	16a-X'	.	16dd'	.	.
16G'	.	16e-X'	.	16g'	.	16cc'	.	.
16G'JJ	.	16d'JJ	.	16f'JJ	.	16b'JJ	.	.
=132	=132	=132	=132	=132	=132	=132	=132	=132
8.c	.	(16.e-XLL	.	(16.gLL	.	(16.ccLL	.	i
.	.	32dJJk)	.	32fJJk)	.	32ddJJk	.	.
.	.	16cLL	.	16e-XLL	.	8ee-XL	.	.
16A-X'LL	.	16c	.	16cc	.	.	.	.
16G'	.	16c	.	16cc	.	8ffJ)	.	.
16F'JJ	.	16cJJ	.	16ccJJ	.	.	.	.
=133	=133	=133	=133	=133	=133	=133	=133	=133
16E-X'LL	.	16cLL	.	16ccLL	.	4gg	.	i6
16D'	.	16c	.	16e-X	.	.	.	.
16C'	.	16c	.	16e-	.	.	.	.
16BB-'	.	16c	.	16e-	.	.	.	.
!	!	!	!LO:DY:a	!	!	!	!	!
!	!	!	!LO:DY:a	!	!	!	!	!
16AA-X'	sf	16c	sf sf sf	16e-	.	(8aa-X	.	VI
16GG'JJ	.	16cJJ	.	16e-JJ	.	.	.	.
=134	=134	=134	=134	=134	=134	=134	=134	=134
(8FF	.	16cLL	.	16dLL	.	16bb-'LL)	.	ii%65
.	.	16c	.	16d	.	16aa-X'	.	.
4GG)	sf	16B	.	16d	.	16gg'	.	V7
.	.	16d	.	16B 16g	.	16ff'	.	.
.	.	16d	.	16B 16g	.	16ee-X'	.	.
.	.	16dJJ	.	16BJJ 16g	.	16dd'JJ	.	.
=135	=135	=135	=135	=135	=135	=135	=135	=135
8CC	.	8e-X	.	8c 8g	.	16ccLL	.	i\\
.	.	.	.	.	.	16G	p	.
8r	.	8r	.	8r	.	16G	.	.
.	.	.	.	.	.	16GJJ	.	.
!LO:TX:b:i:t=dol.	!	!	!	!	!	!	!	!
(8E-X	p	8r	.	8r	.	16GLL	.	i6
.	.	.	.	.	.	16GJJ	.	.
=136	=136	=136	=136	=136	=136	=136	=136	=136
16.DLL	.	4r	.	8r	.	16FLL	.	V65
.	.	.	.	.	.	16G	.	.
32CJK	.	.	.	.	.	.	.	.
8BB	.	.	.	8r	.	16D	.	.
.	.	.	.	.	.	16G	.	.
8DJ	.	(8F	p <	(8B	p <	16g	<	.
.	.	.	.	.	.	16gJJ	.	.
=137	=137	=137	=137	=137	=137	=137	=137	=137
4C)	<	16.E-XLL	.	16.cLL	.	16gLL	.	i
.	.	.	.	.	.	16g	[ >	.
.	.	32DJJk	[ >	32dJK	[ >	.	.	.
.	.	8C')	.	8e-X'J)	.	16g	.	.
.	.	.	.	.	.	16gJJ	.	.
(8G	>]	8r	]	8r	]	16B-LL	]	.
.	.	.	.	.	.	16B-JJ	.	.
=138	=138	=138	=138	=138	=138	=138	=138	=138
16.FLL	]	4r	.	8r	.	16A-XLL	.	V65/III
.	.	.	.	.	.	16B-	.	.
32E-XJK	.	.	.	.	.	.	.	.
8D	.	.	.	8r	.	16F	.	.
.	.	.	.	.	.	16B-JJ	.	.
8FJ	.	(8A-X	<	(8d	<	16b-LL	<	.
.	.	.	.	.	.	16b-JJ	.	.
=139	=139	=139	=139	=139	=139	=139	=139	=139
4E-X)	.	16.GLL	.	16.e-XLL	.	16b-LL	.	III
.	.	.	.	.	.	16b-	[ >	.
.	.	32FJJk	[ >	32fJJk	[ >	.	.	.
.	.	8E-X')	.	8g')	.	16b-	.	.
.	.	.	.	.	.	16b-JJ	]	.
*clefC4	*	*	*	*	*	*	*	*
(8B-	.	8r	]	8r	]	16dLL	.	.
.	.	.	.	.	.	16dJJ	.	.
=140	=140	=140	=140	=140	=140	=140	=140	=140
16.ALL	.	4r	.	8r	.	16cLL	.	V65/V
.	.	.	.	.	.	16d	.	.
32GJK	.	.	.	.	.	.	.	.
8F#	.	.	.	8r	.	16A	.	.
.	.	.	.	.	.	16dJJ	.	.
8AJ)	.	8c	.	8f#	.	16ddLL	.	.
.	.	.	.	.	.	16ddJJ	.	.
=141	=141	=141	=141	=141	=141	=141	=141	=141
!LO:TX:b:i:t=cresc.	!	!LO:TX:b:i:t=cresc.	!	!LO:TX:b:i:t=cresc.	!	!LO:TX:b:i:t=cresc.	!	!
(16.GLL	.	(16.B-LL	.	(16.gLL	.	16ddLL	.	v6
.	.	.	.	.	.	16ggJJ	.	.
32AJK	.	32cJK	.	32f#JK	.	.	.	.
8B-	.	8d	.	8g	.	16ggLL	.	.
.	.	.	.	.	.	16gg	.	.
8cJ	.	8e-XJ	.	8aJ	.	16gg	.	.
.	.	.	.	.	.	16ggJJ	.	.
=142	=142	=142	=142	=142	=142	=142	=142	=142
4d)	.	4f)	.	4b)	.	16ggLL	.	V2
.	.	.	.	.	.	16gg	.	.
.	.	.	.	.	.	16gg	.	.
.	.	.	.	.	.	16ggJJ	.	.
(8e-X	f	(8g	f	(8cc	f	16ggLL	f	i64
.	.	.	.	.	.	16ggJJ	.	.
=143	=143	=143	=143	=143	=143	=143	=143	=143
16f'LL)	.	16a-X'LL)	.	16dd'LL)	.	16ggLL	.	i6
16e-X'	.	16g'	.	16cc'	.	16gg	.	.
16d'	.	16f'	.	16b-'	.	16gg	.	.
16c'	.	16e-X'	.	16a'	.	16gg	.	.
16B-'	.	16d'	.	16g'	.	16gg	.	v65
16A'JJ	.	16c'JJ	.	16f#'JJ	.	16ggJJ	.	V2/V
=144	=144	=144	=144	=144	=144	=144	=144	=144
16B-'LL	.	16d'LL	.	16g'LL	.	16gg'LL	.	v6
16A-X'	.	16c'	.	16f'	.	16g'	.	.
16G'	.	16B-'	.	16e-X'	.	16g'	.	.
16F'	.	16A-X'	.	16d'	.	16g'	.	.
16E-X'	.	16G'	.	16c'	.	16a'	.	.
16D'JJ	.	16F'JJ	.	16B'JJ	.	16b'JJ	.	#viio6
=145	=145	=145	=145	=145	=145	=145	=145	=145
16E-XLL	.	16GLL	.	(16.cLL	.	(16.ccLL	.	i6
16D	.	16F	.	.	.	.	.	.
.	.	.	.	32dJJk	.	32ddJJk	.	.
16C	.	16E-X	.	8e-XL	.	8ee-XL	.	i
16A-X	.	16c	.	.	.	.	.	.
16G	.	16B-	.	8fJ)	.	8ffJ)	.	iv
16FJJ	.	16A-XJJ	.	.	.	.	.	.
=146	=146	=146	=146	=146	=146	=146	=146	=146
16E-XLL	.	16GLL	.	4g	.	4gg	.	i
16D	.	16F	.	.	.	.	.	.
16C	.	16E-X	.	.	.	.	.	.
16BB-	.	16D-X	.	.	.	.	.	.
16AA-X	sf	16C	sf	(8a-X	sf	(8aa-X	sf	VI
16GGJJ	.	16BB-JJ	.	.	.	.	.	.
=147	=147	=147	=147	=147	=147	=147	=147	=147
16FFLL	.	16AA-XLL	.	16b-'LL)	.	16bb-XLL)	.	iio7
16DD	.	16C	.	16a-X'	.	16aa-X'	.	.
16GG	>	16BB	>	16g'	>	16gg'	>	V7
16GGG	.	16D	.	16f'	.	16ff'	.	.
16AAA	.	16G	.	16e-X'	.	16ee-X'	.	.
16BBBJJ	]]	16GJJ	]]	16d'JJ	]]	16dd'JJ	]]	.
=148	=148	=148	=148	=148	=148	=148	=148	=148
!	!	!	!LO:DY:a	!	!	!	!	!
8CC	p	8C	p p	8e-X	.	16ee-X'LL	p	i\\
.	.	.	.	.	.	16dd'	.	.
8r	.	8r	.	16r	.	16cc'JJ	.	.
.	.	.	.	16a-X'LL	.	16r	.	.
8r	.	16r	.	16g'	.	8r	.	.
.	.	16G	.	16f'JJ	.	.	.	.
=149	=149	=149	=149	=149	=149	=149	=149	=149
8r	.	8c	.	16e-X'LL	.	4.r	.	V7
.	.	.	.	16d'	.	.	.	.
8r	.	16r	.	16c'JJ	.	.	.	.
.	.	16A-X'LL	.	16r	.	.	.	.
16r	.	16G'	.	8r	.	.	.	.
16GG	.	16F'JJ	.	.	.	.	.	.
=150	=150	=150	=150	=150	=150	=150	=150	=150
8C	.	16E-X'LL	.	8c	.	8r	.	i
.	.	16D'	.	.	.	.	.	.
16r	.	16C'JJ	.	8r	.	8r	.	.
16AA-X'LL	.	16r	.	.	.	.	.	.
16GG'	.	8r	.	8r	.	16r	.	.
16FF'JJ	.	.	.	.	.	16g	.	.
=151	=151	=151	=151	=151	=151	=151	=151	=151
!	!	!	!LO:DY:a	!	!	!	!	!
16EE-X'LL	pp	16GLL	pp pp	16E-XLL	.	16ccLL	pp	i6
16DD'J	.	16GJJ	.	16cJJ	.	16e-XJJ	.	.
8CC'	.	8GL	.	8cL	.	8e-L	.	i
8AA-X'J	.	8A-XJ	.	8cJ	.	8e-J	.	VI
=152	=152	=152	=152	=152	=152	=152	=152	=152
16FFLL	.	16A-XLL	.	16cLL	.	16dLL	.	ii%65
16FFJ	.	16A-J	.	16cJJ	.	16dJJ	.	.
8DD	.	8F	.	8cL	.	8dL	.	.
8GGJ	.	8FJ	.	8BJ	.	8dJ	.	V7
=153	=153	=153	=153	=153	=153	=153	=153	=153
!LO:TX:b:i:t=cresc.	!	!	!	!	!	!	!	!
16CLL	.	16GLL	.	16cLL	.	16e-XLL	.	i\\
!LO:TX:a:i:t=cresc.	!	!LO:TX:a:i:t=cresc.	!	!LO:TX:a:i:t=cresc.	!	!	!	!
16C	.	16G	.	16cc	.	16ee-X	.	.
16AA-X	.	16A-X	.	16cc	.	16ee-	.	VI
16AA-	.	16c	.	16a-XJJ	.	16ee-	.	.
16FF	.	16c	.	16a-LL	.	16ff	.	iv
16FFJJ	.	16cJJ	.	16a-JJ	.	16ffJJ	.	.
=154	=154	=154	=154	=154	=154	=154	=154	=154
16DD-XLL	.	16B-LL	.	16a-XLL	.	16ffLL	.	.bIII.IV
16DD-	.	16B-	.	16a-	.	16ff	.	.
16BBB-	.	16d-X	.	16a-	.	16ff	.	ii65
16BBB-	.	16d-	.	16a-JJ	.	16ff	.	.
16EE-X	.	16d-	.	16gLL	.	16ee-X	.	V7
16EE-JJ	.	16d-JJ	.	16gJJ	.	16ee-JJ	.	.
=155	=155	=155	=155	=155	=155	=155	=155	=155
16AAA-XLL	fp	16cLL	fp	8.a-X	fp	[4.ee-X	fp	I\\
16A-X	.	16c	.	.	.	.	.	.
16A-	.	16c	.	.	.	.	.	.
16A-	.	16c	.	16e-X'LL	.	.	.	.
16A-	.	16c	.	16a-'	.	.	.	.
16A-JJ	.	16cJJ	.	16cc'JJ	.	.	.	.
=156	=156	=156	=156	=156	=156	=156	=156	=156
16B-LL	.	16d-XLL	.	16b-'LL	.	8.ee-]	.	V43
16B-	.	16d-	.	16a-X'	.	.	.	.
16B-	.	16d-	.	16g'	.	.	.	.
16B-	.	16d-	.	16f'	.	16ee-X'LL	.	.
16B-	.	16d-	.	16g'	.	16bb-'	.	.
16B-JJ	.	16d-JJ	.	16e-X'JJ	.	16ddd-X'JJ	.	.
=157	=157	=157	=157	=157	=157	=157	=157	=157
8A-X	.	16e-X'	.	16a-X'LL	.	16ee-X'LL	.	I
.	.	16E-X'LL	.	16cc'	.	16aa-X'JJ	.	.
16r	.	16A-X'	.	16ee-X'JJ	.	16ccc'KL	.	.
16EE-X'LL	.	16c'JJ	.	16e-X'LL	.	8eee-X	.	.
16AA-X'	.	8r	.	16c'	.	.	.	.
16C'JJ	.	.	.	16A-X'JJ	.	[16eee-Jk	.	.
=158	=158	=158	=158	=158	=158	=158	=158	=158
16BB-'LL	.	16r	.	16G'LL	.	16eee-KL]	.	V43
16AA-X'	.	16E-X'LL	.	16B-'	.	8ddd-X	.	.
16GG'	.	16B-'	.	16E-X'	.	.	.	.
16FF'	.	16d-X'JJ	.	16b-'JJ	.	8ddd-	.	.
16GG'	.	16r	.	16B-'LL	.	.	.	.
16EE-X'JJ	.	16G	.	[16e-XJJ	.	[16ddd-Jk	.	.
=159	=159	=159	=159	=159	=159	=159	=159	=159
16AAA-X'LL	.	16A-XKL	.	16e-KL]	.	16ddd-KL]	.	I
16CC'	.	8A-J	.	8e-X	.	8ccc	.	.
16EE-X'JJ	.	.	.	.	.	.	.	.
16r	.	16AA-X'LL	.	8e-	.	8ccc	.	.
8r	.	16C'	.	.	.	.	.	.
.	.	16E-X'JJ	.	16e-Jk	.	[16cccJk	.	.
=160	=160	=160	=160	=160	=160	=160	=160	=160
4.r	.	4.r	.	16A-X'LL	.	16cccKL]	.	.
.	.	.	.	16c'	.	8cccJ	.	.
.	.	.	.	16e-X'	.	.	.	.
.	.	.	.	16a-X'JJ	.	16cc'LL	.	.
.	.	.	.	8r	.	16ee-X'	.	.
.	.	.	.	.	.	16aa-X'JJ	.	.
=161	=161	=161	=161	=161	=161	=161	=161	=161
16GGGLL	.	8r	.	16e-XKL 16g	.	16cccKL	.	iii64
16CC	.	.	.	8e- 8g	.	8ccc	.	.
16EE-XJJ	.	16r	.	.	.	.	.	.
8.r	.	16GGLL	.	8e- 8g	.	8ccc	.	.
.	.	16C	.	.	.	.	.	.
.	.	16E-XJJ	.	16e-Jk 16g	.	[16cccJk	.	.
=162	=162	=162	=162	=162	=162	=162	=162	=162
4.r	.	4.r	.	16GLL	.	16cccKL]	.	.
.	.	.	.	16c	.	8cccJ	.	.
.	.	.	.	16e-X	.	.	.	.
.	.	.	.	16gJJ	.	16ccLL	.	.
.	.	.	.	8r	.	16ee-X	.	.
.	.	.	.	.	.	16ggJJ	.	.
=163	=163	=163	=163	=163	=163	=163	=163	=163
16FF#LL	.	8r	.	16e-XKL 16a	.	16cccKL	.	#viio7/vii
16AA	.	.	.	8e- 8a	.	8ccc	.	.
16CJJ	.	16r	.	.	.	.	.	.
8.r	.	16F#LL	.	8e- 8a	.	8ccc	.	.
.	.	16A	.	.	.	.	.	.
.	.	16cJJ	.	16e-Jk 16a	.	[16cccJk	.	.
=164	=164	=164	=164	=164	=164	=164	=164	=164
4.r	.	4.r	.	16f#LL	.	16cccKL]	.	#viio7/vii
.	.	.	.	16a	.	8cccJ	.	.
.	.	.	.	16ccJJ	.	.	.	.
.	.	.	.	16r	.	16ccLL	.	.
.	.	.	.	8r	.	16ff#	.	.
.	.	.	.	.	.	16aaJJ	.	.
=165	=165	=165	=165	=165	=165	=165	=165	=165
!LO:TX:b:i:t=cresc.	!	!	!	!LO:TX:b:i:t=cresc.	!	!LO:TX:a:i:t=cresc.	!	!
16EE-XLL	.	8r	.	16aKL 16cc	.	16cccKL	.	#viio2/vii
16AA	.	.	.	8a 8cc	.	8ccc	.	.
16CJJ	.	16r	.	.	.	.	.	.
!	!	!LO:TX:a:i:t=cresc.	!	!	!	!	!	!
16r	.	16E-XLL	.	8a 8cc	.	8ccc	.	.
8r	.	16A	.	.	.	.	.	.
.	.	16cJJ	.	16aJk 16cc	.	[16cccJk	.	.
=166	=166	=166	=166	=166	=166	=166	=166	=166
4.r	.	4.r	.	16f#LL	.	16cccKL]	.	#viio7/ii
.	.	.	.	16a	.	8ccc	.	.
.	.	.	.	16ccJJ	.	.	.	.
.	.	.	.	16r	.	16ccL	.	.
.	.	.	.	8r	.	16ff#	.	.
.	.	.	.	.	.	16aaJJ	.	.
=167	=167	=167	=167	=167	=167	=167	=167	=167
!	!LO:DY:a	!	!LO:DY:a	!	!LO:DY:a	!	!	!
16DDLL	f f	16DKL	f	16AKL 16f#	f	16cccLL	.	V7/vii
16FF#	.	8D	.	8A 8f#	.	16D	.	.
16AA	.	.	.	.	.	16F#	.	.
16D	.	8D	.	8A 8f#	.	16A	.	.
16F#	.	.	.	.	.	16c	.	.
[16AJJ	.	16DJk	.	16AJk 16f#	.	16f#JJ	.	.
=168	=168	=168	=168	=168	=168	=168	=168	=168
16ALL]	.	16DLL	.	16ALL 16f#	.	16aLL	.	V7/vii
16F#	.	16D	.	16A 16f#	.	16cc	.	.
16D	.	16D	.	16A 16f#	.	16ff#	.	.
16AA	.	16D	.	16A 16f#	.	16aa	.	.
16FF#	.	16D	.	16A 16f#	.	16ccc	.	.
16DDJJ	.	16DJJ	.	16AJJ 16f#	.	16cccJJ	.	.
=169	=169	=169	=169	=169	=169	=169	=169	=169
16CC#XLL	ff	16C#XLL	ff	16c#XLL	ff	16cc#XLL 16ccc#X	ff	#I.V
16CC#JJ	.	16C#JJ	.	16c#JJ	.	16cc#JJ 16ccc#	.	.
8CC#	.	8C#	.	8c#	.	8cc# 8ccc#	.	.
8r	.	8r	.	8r	.	8r	.	.
=170	=170	=170	=170	=170	=170	=170	=170	=170
4.r	.	4.r	.	4.r	.	4.r	.	.
=171	=171	=171	=171	=171	=171	=171	=171	=171
(8F#L	p	(8F#L	p	(8c#XL	p	(8a#XL	p	I
!LO:TX:b:i:t=dol.	!	!LO:TX:b:i:t=dol.	!	!LO:TX:b:i:t=dol.	!	!LO:TX:b:i:t=dol.	!	!
8C#X	.	8E#X	.	8B	.	8g#X	.	.
8D#XJ	.	8F#J	.	8A#XJ	.	8f#J	.	.
=172	=172	=172	=172	=172	=172	=172	=172	=172
8BBL	.	8D#XL	.	8d#XL	.	16.bLL	.	IV
.	.	.	.	.	.	32g#XJK	.	.
8C#X	.	8A#X	.	8c#X	.	8f#	.	V(64)
8BBJ)	.	8G#XJ)	.	8c#J)	.	8e#XJ)	.	V2
=173	=173	=173	=173	=173	=173	=173	=173	=173
(8BB-L	.	(8F#L	.	(8c#XL	.	(8cc#XL	.	I6(9)
8C#X	.	8E#X	.	8g#X	.	8b	.	V7
8D#XJ	.	8F#J	.	8f#J	.	8a#XJ	.	vi
=174	=174	=174	=174	=174	=174	=174	=174	=174
8BBL	.	8D#XL	.	16.bLL	.	16.dd#XLL	.	IV
.	.	.	.	32g#XJK	.	32bJK	.	.
8C#X	.	8C#X	.	8f#	.	8a#X	.	V(64)
8BBJ)	.	8c#XJ)	.	8e#XJ)	.	8g#XJ)	.	V2
=175	=175	=175	=175	=175	=175	=175	=175	=175
(16.AA#XLL	.	(8c#XL	.	(8f#L	.	(16.cc#XLL	.	I6
32FF#JK)	.	.	.	.	.	32a#XJK)	.	.
8BBJ	.	8BJ)	.	8d#XJ)	.	8g#XJ	.	ii6
8r	.	8r	.	8r	.	8r	.	.
=176	=176	=176	=176	=176	=176	=176	=176	=176
8r	.	8r	.	8r	.	8r	.	.
8C#X	.	8G#X	.	8B	.	8e#X	.	V7
8r	.	8r	.	8r	.	8r	.	.
=177	=177	=177	=177	=177	=177	=177	=177	=177
(4.FF#	pp	16F#'LL	pp	4.r	.	16a#X'LL	pp	I\\
.	.	16C#X'	.	.	.	16a#'J	.	.
.	.	16F#'	.	.	.	8a#	.	.
.	.	16C#'	.	.	.	.	.	.
.	.	16F#'	.	.	.	8a#J	.	.
.	.	16C#'JJ	.	.	.	.	.	.
=178	=178	=178	=178	=178	=178	=178	=178	=178
4.EE#X	.	16G#X'LL	.	16c#XLL	pp	(4.b	.	V65
.	.	16C#X'	.	16c#J	.	.	.	.
.	.	16G#'	.	8c#	.	.	.	.
.	.	16C#'	.	.	.	.	.	.
.	.	16G#'	.	8c#J	.	.	.	.
.	.	16C#'JJ	.	.	.	.	.	.
=179	=179	=179	=179	=179	=179	=179	=179	=179
4.FF#	.	16F#LL	.	4.r	.	16a#XLL)	.	I
.	.	16C#X	.	.	.	16a#J	.	.
.	.	16F#	.	.	.	8a#	.	.
.	.	16C#	.	.	.	.	.	.
.	.	16F#	.	.	.	8a#J	.	.
.	.	16C#JJ	.	.	.	.	.	.
=180	=180	=180	=180	=180	=180	=180	=180	=180
4.CC#X	.	16E#XLL	.	16c#XLL	.	(4.g#X	.	V
.	.	16C#X	.	16c#J	.	.	.	.
.	.	16E#	.	8c#	.	.	.	.
.	.	16C#	.	.	.	.	.	.
.	.	16E#	.	8c#J	.	.	.	.
.	.	16C#JJ	.	.	.	.	.	.
=181	=181	=181	=181	=181	=181	=181	=181	=181
4.DD#X	.	16D#XLL	.	8r	.	16f#LL)	.	vi
.	.	16AA#X	.	.	.	16f#J	.	.
.	.	16D#	.	16B-XLL	.	8f#	.	.
.	.	16AA#	.	16B-J	.	.	.	.
.	.	16D#	.	8B-J	.	8f#J	.	.
.	.	16AA#JJ	.	.	.	.	.	.
=182	=182	=182	=182	=182	=182	=182	=182	=182
!LO:TX:b:i:t=dim.	!	!LO:TX:b:i:t=dim.	!	!LO:TX:b:i:t=dim.	!	!LO:TX:b:i:t=dim.	!	!
!LO:TX:a:i:t=poco rit.	!	!LO:TX:a:i:t=poco rit.	!	!LO:TX:a:i:t=poco rit.	!	!LO:TX:a:i:t=poco rit.	!	!
4.AAA#X)	.	16C#XLL	.	16B-LL	.	16e#XLL	.	iii
.	.	16AA#X	.	16B-	.	16e#	.	.
.	.	16C#	.	16B-	.	16e#	.	.
.	.	16AA#	.	16B-	.	16e#	.	.
.	.	16C#	.	16B-	.	16e#	.	.
.	.	16AA#JJ	.	16B-JJ	.	16e#JJ	.	.
=183	=183	=183	=183	=183	=183	=183	=183	=183
!LO:TX:b:i:t=cresc.	!	!LO:TX:b:i:t=cresc.	!	!LO:TX:b:i:t=cresc.	!	!LO:TX:b:i:t=cresc.	!	!
!LO:TX:a:i:t=a tempo	!	!LO:TX:a:i:t=a tempo	!	!LO:TX:a:i:t=a tempo	!	!LO:TX:a:i:t=a tempo	!	!
[4.FFX	.	[4.C	.	(4.A	.	[4.fX	.	V/iii
=184	=184	=184	=184	=184	=184	=184	=184	=184
(4.FF]	.	(4.C]	.	(4.A-X)	sf > ]]	(4.f]	.	.bVI.iii
=185	=185	=185	=185	=185	=185	=185	=185	=185
!	!	!	!LO:DY:a	!	!	!	!	!
16DD-X'LL)	p	16D-X'LL)	p p	16f'LL)	.	16ff'LL)	p	I
16F'	.	16A-X'	.	16f'J	.	16ff'J	.	.
16D-X'	.	16F'	.	8fJ	.	8ff	.	.
16F'	.	16A-'	.	.	.	.	.	.
16D-'	.	16F'	.	8f	.	8ffJ	.	.
16F'JJ	.	16A-'JJ	.	.	.	.	.	.
=186	=186	=186	=186	=186	=186	=186	=186	=186
16C'LL	.	16E-X'LL	.	(4.g-X	.	(4.gg-X	.	V65
16E-X'	.	16A-X'	.	.	.	.	.	.
16C'	.	16E-'	.	.	.	.	.	.
16E-'	.	16A-'	.	.	.	.	.	.
16C'	.	16E-'	.	.	.	.	.	.
16E-'JJ	.	16A-'JJ	.	.	.	.	.	.
=187	=187	=187	=187	=187	=187	=187	=187	=187
16D-XLL	.	16FLL	.	16fLL)	.	16ffLL)	.	I
16D-	.	16F	.	16fJ	.	16ffJ	.	.
16BB-	.	16D-X	.	8f	.	8ff	.	vi
16D-	.	16F	.	.	.	.	.	.
16BB-	.	16D-	.	8fJ	.	8ffJ	.	.
16D-JJ	.	16FJJ	.	.	.	.	.	.
=188	=188	=188	=188	=188	=188	=188	=188	=188
16AALL	.	16CLL	.	(4.e-X	.	(4.ee-X	.	V65/vi
16C	.	16F	.	.	.	.	.	.
16AA	.	16C	.	.	.	.	.	.
16C	.	16F	.	.	.	.	.	.
16AA	.	16C	.	.	.	.	.	.
16CJJ	.	16FJJ	.	.	.	.	.	.
=189	=189	=189	=189	=189	=189	=189	=189	=189
16BB-LL	.	16D-XLL	.	16d-XLL)	.	16dd-XLL)	.	vi
16BB-	.	16D-	.	16d-J	.	16dd-J	.	.
16FF	.	16BB-	.	8d-	.	8dd-	.	.
16BB-	.	16D-	.	.	.	.	.	.
16FF	.	16BB-	.	8d-J	.	8dd-J	.	.
16BB-JJ	.	16D-JJ	.	.	.	.	.	.
=190	=190	=190	=190	=190	=190	=190	=190	=190
!	!	!LO:TX:b:i:t=dim.	!	!	!	!	!	!
!LO:TX:b:i:t=dim.	!	!LO:TX:a:i:t=poco rit.	!	!LO:TX:a:i:t=poco rit.	!	!	!	!
!LO:TX:a:i:t=poco rit.	!	!LO:TX:a:i:t=dim.	!	!LO:TX:a:i:t=dim.	!	!LO:TX:a:i:t=poco rit.	!	!
16FFLL	.	16AA-XLL	.	16cLL	.	16ccLL	.	v.iv
16GG#X	.	16C	.	16c	.	16cc	.	.
16FF	.	16AA-	.	16c	.	16cc	.	.
16GG#	.	16C	.	16cJJ	.	16cc	.	.
16FF	.	16AA-	.	16cLL	.	16cc	.	.
16GG#JJ	.	16CJJ	.	16cJJ	.	16ccJJ	.	.
=191	=191	=191	=191	=191	=191	=191	=191	=191
!LO:TX:b:i:t=cresc.	!	!LO:TX:b:i:t=cresc.	!	!LO:TX:b:i:t=cresc.	!	!LO:TX:b:i:t=cresc.	!	!
!LO:TX:a:i:t=a tempo	!	!LO:TX:a:i:t=a tempo	!	!LO:TX:a:i:t=a tempo	!	!LO:TX:a:i:t=a tempo	!	!
[4.GG	.	[4.D	.	[4.B	.	[4.b	.	V
=192	=192	=192	=192	=192	=192	=192	=192	=192
4.GG]	.	4.D]	.	4.B]	.	4.b_	.	.
=193	=193	=193	=193	=193	=193	=193	=193	=193
16GGGLL 16GG	ff	[4.GG [4.D	ff	[4.D [4.B	ff	16bLL]	ff	.
16GGGJ 16GG	.	.	.	.	.	16b	.	.
8GGG' 8GG	.	.	.	.	.	16dd	.	.
.	.	.	.	.	.	16gg	.	.
8GGG'J 8GG	.	.	.	.	.	16bb	sf	.
.	.	.	.	.	.	16gJJ	.	.
=194	=194	=194	=194	=194	=194	=194	=194	=194
16GGGLL 16GG	.	4.GG_ 4.D_	.	4.D_ 4.B_	.	16bLL	.	.
16GGGJ 16GG	.	.	.	.	.	16dd	.	.
8GGG' 8GG	.	.	.	.	.	16gg	sf	.
.	.	.	.	.	.	16d	.	.
8GGG'J 8GG	.	.	.	.	.	16g	.	.
.	.	.	.	.	.	16bJJ	.	.
=195	=195	=195	=195	=195	=195	=195	=195	=195
16GGGLL 16GG	.	4GG] 4D]	.	4D] 4B]	.	16BLL	.	V
16GGG 16GG	.	.	.	.	.	16d	.	.
16GGG 16GG	.	.	.	.	.	16g	.	.
16GGG 16GG	.	.	.	.	.	16G	.	.
16GGG 16GG	.	8GG 8D	.	8D 8B-X	.	16B-X	.	v
16GGGJJ 16GG	.	.	.	.	.	16dJJ	.	.
=196	=196	=196	=196	=196	=196	=196	=196	=196
4.GGG 4.GG	sf	(4B-X	sf	(4d	sf	16gLL	.	.
.	.	.	.	.	.	16b-	.	.
.	.	.	.	.	.	16dd	.	.
.	.	.	.	.	.	16gg	.	.
.	.	8c#X)	.	8e)	.	16bb-X	.	#io43
.	.	.	.	.	.	16ggJJ	.	.
=197	=197	=197	=197	=197	=197	=197	=197	=197
16DDLL	.	16DLL 16d	ff	8A	.	[4.ff#	.	V/V
16D	.	16DJ 16d	.	.	.	.	.	.
16F#	.	8D 8d	.	8r	.	.	.	.
16A	.	.	.	.	.	.	.	.
16d	.	8DJ 8d	.	8r	.	.	.	.
16AAJJ	.	.	.	.	.	.	.	.
=198	=198	=198	=198	=198	=198	=198	=198	=198
16DLL	.	16DLL 16d	.	[4.d [4.f#	.	4.ff#_	.	V/V
16F#	.	16DJ 16d	.	.	.	.	.	.
16A	.	8D 8d	.	.	.	.	.	.
16FF#	.	.	.	.	.	.	.	.
16AA	.	8DJ 8d	.	.	.	.	.	.
16DJJ	.	.	.	.	.	.	.	.
=199	=199	=199	=199	=199	=199	=199	=199	=199
16DDLL	.	16DLL 16d	.	4d] 4f#]	.	4ff#]	.	.
16FF#	.	16D 16d	.	.	.	.	.	.
16AA	.	16D 16d	.	.	.	.	.	.
16D	.	16D 16d	.	.	.	.	.	.
16AA	.	16D 16d	.	8d 8fX	.	8ffX	.	iii.iv
16FFXJJ	.	16DJJ 16d	.	.	.	.	.	.
=200	=200	=200	=200	=200	=200	=200	=200	=200
!	!LO:DY:a	!	!	!	!LO:DY:a	!	!	!
16DDLL	sf	4.D 4.d	.	(4fX	sf sf	(4A	.	iv
16FFX	.	.	.	.	.	.	.	.
16DD	.	.	.	.	.	.	.	.
16CC	.	.	.	.	.	.	.	.
16BBB	.	.	.	8g#X)	.	8B)	.	V43
16EEJJ	.	.	.	.	.	.	.	.
=201	=201	=201	=201	=201	=201	=201	=201	=201
[4.AAA	.	16r	.	16ALL 16a	ff	[4.c	.	i
.	.	16cLL	.	16AJ 16a	.	.	.	.
.	.	16e	.	8A 8a	.	.	.	.
.	.	16a	.	.	.	.	.	.
.	.	16cc	.	8AJ 8a	.	.	.	.
.	.	16AJJ	.	.	.	.	.	.
=202	=202	=202	=202	=202	=202	=202	=202	=202
4.AAA_	.	16cLL	.	16ALL 16a	.	4.c_	.	.
.	.	16e	.	16AJ 16a	.	.	.	.
.	.	16E	.	8A 8a	.	.	.	.
.	.	16A	.	.	.	.	.	.
.	.	16c	.	8AJ 8a	.	.	.	.
.	.	16CJJ	.	.	.	.	.	.
=203	=203	=203	=203	=203	=203	=203	=203	=203
4AAA]	.	16D#XLL	.	16ALL 16a	.	4c]	.	#viio43/V
.	.	16F#	.	16A 16a	.	.	.	.
.	.	16A	.	16A 16a	.	.	.	.
.	.	16c	.	16A 16a	.	.	.	.
8AAA	.	16d#X	.	16A 16a	.	8c	.	.
.	.	16f#JJ	.	16AJJ 16a	.	.	.	.
=204	=204	=204	=204	=204	=204	=204	=204	=204
4AAA	.	16d#XLL	.	4.A 4.a	sf	(4cc	sf	.
.	.	16c	.	.	.	.	.	.
.	.	16A	.	.	.	.	.	.
.	.	16F#JJ	.	.	.	.	.	.
8AA	.	16D#XLL	.	.	.	8dd#X)	.	.
.	.	16CJJ	.	.	.	.	.	.
=205	=205	=205	=205	=205	=205	=205	=205	=205
8AA#X	.	8C#X	.	16g'LL	.	16eLL 16ee	ff	#viio2/iv
.	.	.	.	16e'	.	16eJJ 16ee	.	.
8r	.	8r	.	16g'	.	8eL 8ee	.	.
.	.	.	.	16b-'JJ	.	.	.	.
8r	.	16r	.	16cc#X'LL	.	8eJ 8ee	.	.
.	.	16C#	.	16c#X'JJ	.	.	.	.
=206	=206	=206	=206	=206	=206	=206	=206	=206
8r	.	16ELL	.	16eLL	.	16eLL 16ee	.	.
.	.	16G	.	16g	.	16eJJ 16ee	.	.
16r	.	16A#X	.	16b-	.	8eL 8ee	.	.
16AA#XLL	.	16AA#X	.	16B-	.	.	.	.
16C#X	.	16C#X	.	16c#X	.	8eJ 8ee	.	.
16EJJ	.	16EJJ	.	16eJJ	.	.	.	.
=207	=207	=207	=207	=207	=207	=207	=207	=207
16GLL	.	16GLL	.	16gLL	.	16eLL 16ee	.	#viio43/iv
16E	.	16G	.	16eJJ 16cc#X	.	16e 16ee	.	.
16C#X	.	16G	.	16eLL 16cc#	.	16e 16ee	.	.
16AA#XJJ	.	16G	.	16e 16cc#	.	16e 16ee	.	.
16GGLL	.	16G	.	16e 16cc#	.	16e 16ee	.	.
16EEJJ	.	16GJJ	.	16eJJ 16cc#	.	16eJJ 16ee	.	.
=208	=208	=208	=208	=208	=208	=208	=208	=208
16CC#XLL	.	16GLL	.	16eLL 16cc#X	.	16eLL 16ee	.	#viio7/iv
16AAA#XJJ	.	16GJJ 16c#X	.	16eJJ 16ee	.	16e 16gg	.	.
16AAA#LL	.	16GLL 16c#	.	16eLL 16ee	.	16e 16gg	.	.
16AAA#	.	16G 16c#	.	16eJJ 16ee	.	16e 16gg	.	.
16AAA#	.	16G 16c#	.	16eLL 16ee	.	16e 16gg	.	.
16AAA#JJ	.	16GJJ 16c#	.	16eJJ 16ee	.	16eJJ 16gg	.	.
=209	=209	=209	=209	=209	=209	=209	=209	=209
16AAA#XLL	.	16GLL 16c#X	.	16eLL 16ee	.	16eLL 16gg	.	#viio2/iv
16AAA#	.	16G 16c#	.	16e 16ee	.	16e 16gg	.	.
16AAA#	.	16G 16c#	.	16e 16ee	.	16e 16gg	.	.
16AAA#	.	16G 16c#	.	16eJJ 16ee	.	16e 16gg	.	.
16AAA#	.	16G 16c#	.	16eLL 16ee	.	16e 16gg	.	.
16AAA#JJ	.	16GJJ 16c#	.	16eJJ 16ee	.	16eJJ 16gg	.	.
=210	=210	=210	=210	=210	=210	=210	=210	=210
16AAA#XLL	>	16GLL 16c#X	>	16eLL 16ee	>	16eLL 16gg	>	vii.viio7/V
16AAA#	.	16G 16c#	.	16e 16ee	.	16e 16gg	.	.
16AAA#	.	16G 16c#	.	16e 16ee	.	16e 16gg	.	.
16AAA#	.	16G 16c#	.	16eJJ 16ee	.	16e 16gg	.	.
16AAA#	.	16G 16c#	.	16eLL 16ee	.	16e 16gg	.	.
16AAA#JJ	]]	16GJJ 16c#	]]	16eJJ 16ee	]]	16eJJ 16gg	]]	.
=211	=211	=211	=211	=211	=211	=211	=211	=211
8BBB	p	8G 8B	p	16eLL 16ee	p	16ggLL	p	i64
.	.	.	.	16eeJJ	.	16gg	.	.
!	!	!	!	!LO:TX:b:i:t=dim.	!	!LO:TX:b:i:t=dim.	!	!
8r	.	8r	.	16eeLL	.	16gg	.	.
.	.	.	.	16eeJJ	.	16gg	.	.
8r	.	8r	.	16eeLL	.	16gg	.	.
.	.	.	.	16eeJJ	.	16ggJJ	.	.
=212	=212	=212	=212	=212	=212	=212	=212	=212
4.r	.	16bLL	pp	16eeLL	pp	16ggLL	pp	i64
.	.	16b	.	16ee	.	16gg	.	.
.	.	16b	.	16ee	.	16gg	.	.
.	.	16b	.	16eeJJ	.	16gg	.	.
.	.	16b	.	16eeLL	.	16gg	.	.
.	.	16bJJ	.	16eeJJ	.	16ggJJ	.	.
=213	=213	=213	=213	=213	=213	=213	=213	=213
16e'LL	pp	16g'LL	.	16b'LL	.	16gg'LL	.	i6
16e'J	.	16g'J	.	16b'J	.	16bb'	.	.
8e'	.	8g'	.	8b'	.	16eee'	.	.
.	.	.	.	.	.	16bb'	.	.
8e'J	.	8a'J	.	8cc'J	.	16ccc'	.	iv
.	.	.	.	.	.	16aa'JJ	.	.
=214	=214	=214	=214	=214	=214	=214	=214	=214
16e'LL	.	16g'LL	.	16b'LL	.	8bb'	.	.
16e'J	.	16g'J	.	16b'J	.	.	.	.
8e'	.	8g'	.	8b'	.	4gg	.	.
8e'J	.	8g'J	.	8b'J	.	.	.	.
=215	=215	=215	=215	=215	=215	=215	=215	=215
16e'LL	.	16a'LL	.	16cc'LL	.	16ccc'LL	.	iv
16e'J	.	16a'J	.	16cc'J	.	16bb'	.	.
8e'	.	8a'	.	8cc'	.	16aa'	.	.
.	.	.	.	.	.	16gg'	.	.
8e'J	.	8a'J	.	8b'J	.	16ff#'	.	.
.	.	.	.	.	.	16bb'JJ	.	.
=216	=216	=216	=216	=216	=216	=216	=216	=216
16e'LL	.	16g'LL	.	16b'LL	.	8gg'	.	i6
16e'J	.	16g'	.	16b'	.	.	.	.
8e'J	.	16g'	.	16b'	.	4ee	.	.
.	.	16e'	.	16g'	.	.	.	.
8r	.	16f#'	.	16a'	.	.	.	.
.	.	16g'JJ	.	16b'JJ	.	.	.	.
=217	=217	=217	=217	=217	=217	=217	=217	=217
!	!	!LO:TX:b:i:t=sempre	!	!	!	!	!	!
4.r	.	16a'LL	p	16cc'LL	p	4.r	.	V65
!	!	!	!	!LO:TX:b:i:t=sempre	!	!	!	!
.	.	16g'	.	16b'	.	.	.	.
.	.	16f#'	.	16a'	.	.	.	.
.	.	16e'	.	16g'	.	.	.	.
.	.	16d#X'	.	16f#'	.	.	.	.
.	.	16B'JJ	.	16b'JJ	.	.	.	.
=218	=218	=218	=218	=218	=218	=218	=218	=218
!	!	!	!	!LO:TX:b:i:t=sempre	!	!LO:TX:b:i:t=sempre	!	!
4.r	.	4.r	.	16d'LL	.	16fX'LL	.	#viio7/iv
.	.	.	.	16c'	.	16e'	.	.
.	.	.	.	16B'	p	16d'	p	.
.	.	.	.	16A'	.	16c'	.	.
.	.	.	.	16G#X'	.	16B'	.	.
.	.	.	.	16B'JJ	.	16d'JJ	.	.
=219	=219	=219	=219	=219	=219	=219	=219	=219
!LO:TX:b:i:t=sempre	!	!	!	!	!	!	!	!
16F'LL	.	8r	.	4.r	.	4.r	.	.
16E'	p	.	.	.	.	.	.	.
16D'	.	16FX'LL	.	.	.	.	.	.
16C'	.	16E'	.	.	.	.	.	.
16BB'	.	16D'	.	.	.	.	.	.
16F'JJ	.	16G#X'JJ	.	.	.	.	.	.
=220	=220	=220	=220	=220	=220	=220	=220	=220
4r	.	16G'LL	.	4r	.	16ee'LL	.	vi.#viio7
.	.	16F'	.	.	.	16dd'	.	.
.	.	16E'	.	.	.	16cc#X'	.	.
.	.	16B-X'	.	.	.	16gg'JJ	.	.
16C'LL	.	16A'	.	16f#'LL	.	8ff#'	.	#viio7/iv
16BB-'JJ	.	16G'JJ	.	16g'JJ	.	.	.	.
=221	=221	=221	=221	=221	=221	=221	=221	=221
16AA'LL	.	16F#'LL	.	16a'LL	.	4.r	.	.
16E-X'	.	16c'	.	16f#'JJ	.	.	.	.
16D'	.	16B-'	.	8r	.	.	.	.
16C'JJ	.	16A'JJ	.	.	.	.	.	.
8r	.	8r	.	16g'LL	.	.	.	.
.	.	.	.	16a'JJ	.	.	.	.
=222	=222	=222	=222	=222	=222	=222	=222	=222
4r	.	4r	.	16b-'LL	.	16ddd'LL	.	iv
.	.	.	.	16a'	.	16ccc'	.	.
.	.	.	.	16g'	.	16bb-'	.	.
.	.	.	.	16b-'JJ	.	16ddd'JJ	.	.
16B-'LL	.	16d'LL	.	8ryy	.	8r	.	.
16A'JJ	.	16c'JJ	.	.	.	.	.	.
=223	=223	=223	=223	=223	=223	=223	=223	=223
16G'LL	.	16B-'LL	.	8r	.	8r	.	iv
16B-'JJ	.	16d'JJ	.	.	.	.	.	.
8r	.	8r	.	16g'LL	.	16bb-'LL	.	.
.	.	.	.	16fX'	.	16aa'	.	.
16G'LL	.	16B-'LL	.	16e'	.	16gg'	.	iio6
16F'JJ	.	16A'JJ	.	16g'JJ	.	16bb-'JJ	.	.
=224	=224	=224	=224	=224	=224	=224	=224	=224
16E'LL	.	16G'LL	.	8r	.	8r	.	.
16G'JJ	.	16B-'JJ	.	.	.	.	.	.
8r	.	8r	.	16e'LL	.	16gg'LL	.	V7
.	.	.	.	16d'JJ	.	16ff'	.	.
8r	.	8r	.	16c#X'LL	.	16ee'	.	.
.	.	.	.	16B'JJ	.	16gg'JJ	.	.
=225	=225	=225	=225	=225	=225	=225	=225	=225
!LO:TX:b:i:t=sempre stacc. e piano	!	!LO:TX:b:i:t=sempre stacc. e piano	!	!LO:TX:b:i:t=sempre stacc. e piano	!	!LO:TX:b:i:t=sempre stacc. e piano	!	!
16FLL	.	16aLL	.	16ALL	.	16cc#XLL	.	V43
16E	.	16g	.	16c#XJJ	.	16eeJJ	.	.
16D	.	16f	.	8f	.	8aa	.	i
16F	.	16a	.	.	.	.	.	.
16BB-	.	16d	.	16gLL	.	16bb-LL	.	iv6
16DJJ	.	16fJJ	.	16fJJ	.	16aaJJ	.	i
=226	=226	=226	=226	=226	=226	=226	=226	=226
16GLL	.	16b-LL	.	16eLL	.	16ggLL	.	I.viio6
16FJJ	.	16aJJ	.	16gJJ	.	16bb-JJ	.	.
16ELL	.	16gLL	.	8r	.	8r	.	.
16G	.	16b-	.	.	.	.	.	.
16C	.	16e	.	16aLL	.	16ccc'LL	.	V7
16EJJ	.	16gJJ	.	16gJJ	.	16bb-'JJ	.	.
=227	=227	=227	=227	=227	=227	=227	=227	=227
16FLL	.	16aLL	.	16fLL	.	16aa'LL	.	I
16E	.	16g	.	16a	.	16ccc'	.	ii64
16D	.	16f	.	16b-	.	16ddd'	.	IV6
16F	.	16a	.	16aJJ	.	16ccc'	.	I
16G	.	16b-	.	16gLL	.	16bb-'	.	ii
16FJJ	.	16aJJ	.	16b-JJ	.	16ddd'JJ	.	IV64
=228	=228	=228	=228	=228	=228	=228	=228	=228
16E-XLL	.	16gLL	.	16ccLL	.	16eee-XLL	.	V2/IV
16G	.	16b-	.	16b-	.	16ddd	.	.
16A	.	16cc	.	16a	.	16ccc	.	.
16G	.	16b-	.	16ccJJ	.	16eee-	.	.
16F	.	16a	.	16ddLL	.	16fff	.	.
16AJJ	.	16ccJJ	.	16ccJJ	.	16eee-JJ	.	.
=229	=229	=229	=229	=229	=229	=229	=229	=229
16B-LL	.	16ddLL	.	16b-LL	.	16dddLL	.	IV
16B-JJ	.	16dJJ	.	16dd	.	16fff	.	.
16ALL	.	16cLL	.	16ee-X	.	16ggg	.	.
16B-	.	16d	.	16ddJJ	.	16fff	.	.
16c	.	16e-X	.	16ccLL	.	16eee-X	.	.
16dJJ	.	16fJJ	.	16b-JJ	.	16dddJJ	.	.
=230	=230	=230	=230	=230	=230	=230	=230	=230
16e-XLL	.	16gLL	.	16aLL	.	16cccLL	.	V7/IV
16d	.	16f	.	16b-	.	16ddd	.	.
16c	.	16e-X	.	16ff#	.	16aa	.	.
16B-	.	16d	.	16gg	.	16bb-	.	.
16A	.	16c	.	16dd	.	16ff#	.	.
16GJJ	.	16B-JJ	.	16eeJJ	.	16ggJJ	.	.
=231	=231	=231	=231	=231	=231	=231	=231	=231
16F#LL	.	16ALL	.	16ff#LL	.	16aaLL	.	V7/ii
16E	.	16G	.	16gg	.	16bb-	.	.
16D	.	16F#	.	16aa	.	16ccc	.	.
!LO:TX:b:i:t=cresc.	!	!LO:TX:b:i:t=cresc.	!	!LO:TX:b:i:t=cresc.	!	!LO:TX:b:i:t=cresc.	!	!
16c	.	16e-X	.	16d	.	16f#	.	V2/ii
16B-	.	16d	.	16e	.	16g	.	ii6
16AJJ	.	16cJJ	.	16f#JJ	.	16aJJ	.	#viio6/ii
=232	=232	=232	=232	=232	=232	=232	=232	=232
16GLL	.	16B-LL	.	16gLL	.	16b-LL	.	ii
16FX	.	16A	.	16a	.	16cc	.	I
16E	.	16G	.	16b-	.	16dd	.	vii%7
16F	.	16A	.	16b	.	16dd	.	#vii%7/V
16E	.	16G	.	16cc	.	16ee	.	V6
16DJJ	.	16FXJJ	.	16ddJJ	.	16ffJJ	.	vio
=233	=233	=233	=233	=233	=233	=233	=233	=233
16CLL	.	16ELL	.	16eeLL	.	16ggLL	.	V
16BB-	.	16D	.	16ee	.	16gg	.	V2
16AA	.	16C	.	16ffX	.	16aa	.	I6
16GG	.	16BB-	.	16gg	.	16bb-	.	ii
16E	.	16G	.	16cc	.	16ee	.	V6
16DJJ	.	16FJJ	.	16ddJJ	.	16ffJJ	.	vi
=234	=234	=234	=234	=234	=234	=234	=234	=234
16CLL	.	16ELL	.	16eeLL	.	16ggLL	.	V
16BB	.	16D	.	16ff	.	16aa	.	vii%7/V
16F	.	16A-X	.	16b	.	16dd	.	viio43/V
16E	.	16G	.	16cc	.	16ee	.	V6
16D	.	16F	.	16dd	.	16ff	.	vi
16CJJ	.	16EJJ	.	16eeJJ	.	16ggJJ	.	V
=235	=235	=235	=235	=235	=235	=235	=235	=235
16BB-LL	.	16DLL	.	16eeLL	.	16ggLL	.	.
16AA	.	16C	.	16ff	.	16aa	.	I6
16GG	.	16BB-	.	16gg	.	16bb-	.	.
16FF	.	16AA	.	16aa	.	16ccc	.	I
16EE	.	16GG	.	16bb-	.	16ddd	.	vii%7/I
16FFJJ	.	16AAJJ	.	16aaJJ	.	16cccJJ	.	.
=236	=236	=236	=236	=236	=236	=236	=236	=236
16GGGLL	.	16BB-LL	.	16ggLL	.	16bb-LL	.	ii
16AAA	.	16C	.	16ff	.	16aa	.	I6
16BBB-	.	16D	.	16ff	.	16gg	.	ii6
16BBB	.	16D	.	16ff	.	16gg	.	V65/V
16CC	.	16C	.	16ee	.	16gg	.	V7
16CCJJ	.	16EJJ 16e	.	16ggJJ	.	16bb-JJ	.	.
=237	=237	=237	=237	=237	=237	=237	=237	=237
!	!LO:DY:a	!	!	!	!	!	!	!
16DD-XLL	ff ff	16ELL 16e	.	16b-LL 16gg	ff	16b-LL 16bb-	ff	#viio7/vi
16DD-J	.	16EJ 16e	.	16b-J 16gg	.	16b-J 16bb-	.	.
8DD-J	.	8EJ 8e	.	8b-J 8gg	.	8b-J 8bb-	.	.
8r	.	8r	.	8r	.	8r	.	.
=238	=238	=238	=238	=238	=238	=238	=238	=238
4.r	.	4.r	.	4.r	.	4.r	.	.
=239	=239	=239	=239	=239	=239	=239	=239	=239
4.r	.	(4.F	p	(4.d-X	p	16aa-XLL	p	.bVI.I[I6
.	.	.	.	.	.	16aa-J	.	.
.	.	.	.	.	.	8aa-	.	.
.	.	.	.	.	.	8aa-J	.	.
=240	=240	=240	=240	=240	=240	=240	=240	=240
4.r	.	4.A-X	.	4.fX	.	16aa-XLL	.	I64
.	.	.	.	.	.	16aa-J	.	.
.	.	.	.	.	.	8aa-	.	.
.	.	.	.	.	.	8aa-J	.	.
=241	=241	=241	=241	=241	=241	=241	=241	=241
4.r	.	8G-XL	<	8e-XL	<	16aa-XLL	<	ii
.	.	.	.	.	.	16aa-	.	.
.	.	8B-	[ >	8g-X	[	16aa-	[	.
.	.	.	.	.	.	16aa-	>	.
.	.	8E-XJ)	]]	8cJ)	>]	16aa-	.	V64
.	.	.	.	.	.	16aa-JJ	]	.
=242	=242	=242	=242	=242	=242	=242	=242	=242
16A-X'LL	p	8.F	.	8.d-X'L	.	8.aa-X	.	I]
16F'	.	.	.	.	.	.	.	.
16D-X'	.	.	.	.	.	.	.	.
16AA-X'	.	16r	.	16A-X'L	.	16r	.	.
16FF'	.	8r	.	16d-'	.	8r	.	.
16DD-X'JJ	.	.	.	16f'JJ	.	.	.	.
=243	=243	=243	=243	=243	=243	=243	=243	=243
8CC	.	4.r	.	16e-X'LL	.	4.r	.	V2
.	.	.	.	16d-X'	.	.	.	.
[4GG-X^	.	.	.	16c'	.	.	.	.
.	.	.	.	16B-'	.	.	.	.
.	.	.	.	16c'	.	.	.	.
.	.	.	.	16A-X'JJ	.	.	.	.
=244	=244	=244	=244	=244	=244	=244	=244	=244
(8GG-L]	.	8r	.	16d-XLL	.	4.r	.	I6
.	.	.	.	16fJJ	.	.	.	.
16FFL)	.	16r	.	8.a-X^	.	.	.	.
16AA-X'	.	16AA-X'LL	.	.	.	.	.	.
16FF'	.	16D-X'	.	.	.	.	.	.
16DD-X'JJ	.	16F'JJ	.	16r	.	.	.	.
=245	=245	=245	=245	=245	=245	=245	=245	=245
16CC'LL	.	16E-X'LL	.	4.r	.	4.r	.	V
16EE-X'	.	16C'	.	.	.	.	.	.
16BBB-'	.	16D-X'	.	.	.	.	.	.
16DD-X'	.	16BB-'	.	.	.	.	.	.
16EE-'	.	16E-'	.	.	.	.	.	.
16EE-'JJ	.	16GG'JJ	.	.	.	.	.	.
=246	=246	=246	=246	=246	=246	=246	=246	=246
(4.CC	.	(4.AA-X	.	16e-XLL	.	4.r	.	I[I6
.	.	.	.	16e-J	.	.	.	.
.	.	.	.	8e-	.	.	.	.
.	.	.	.	8e-J	.	.	.	.
=247	=247	=247	=247	=247	=247	=247	=247	=247
4.EE-X	.	4.C	.	16e-XLL	.	4.r	.	I64
.	.	.	.	16e-J	.	.	.	.
.	.	.	.	8e-	.	.	.	.
.	.	.	.	8e-J	.	.	.	.
=248	=248	=248	=248	=248	=248	=248	=248	=248
8DD-XL	<	8BB-L	<	16e-XLL	.	4.r	.	V64]
.	.	.	.	16e-	.	.	.	.
8FF	[	8D-X	[	16e-	.	.	.	.
.	.	.	.	16e-	.	.	.	.
8BBB-J)	>]	8GGJ)	>]	16e-	.	.	.	.
.	.	.	.	16e-JJ	.	.	.	.
=249	=249	=249	=249	=249	=249	=249	=249	=249
4.CC	.	8.AA-X	.	8.e-X	.	16ee-X'LL	p	I6
.	.	.	.	.	.	16cc'	.	.
.	.	.	.	.	.	16a-X'	.	.
.	.	16E-X'LL	.	16r	.	16e-X'	.	.
.	.	16A-X'	.	8r	.	16c'	.	.
.	.	16c'JJ	.	.	.	16A-X'JJ	.	.
=250	=250	=250	=250	=250	=250	=250	=250	=250
4.r	.	16B-'LL	.	4.r	.	8G'	.	V7
.	.	16A-X'	.	.	.	.	.	.
.	.	16G'	.	.	.	[4d-X^	.	.
.	.	16F'	.	.	.	.	.	.
.	.	16G'	.	.	.	.	.	.
.	.	16E-X'JJ	.	.	.	.	.	.
=251	=251	=251	=251	=251	=251	=251	=251	=251
8r	.	16A-X'LL	.	8r	.	(8d-L]	.	I
.	.	16c'	.	.	.	.	.	.
16r	.	16e-X'JJ	.	16r	.	16cJk)	.	.
16E-X'LL	.	8.r	.	16cc'LL	.	16ee-X'LL	.	.
16C-X'	.	.	.	16ee-X'	.	16aa-X'	.	.
16AA-X'JJ	.	.	.	16ee-'JJ	.	16ccc'JJ	.	.
=252	=252	=252	=252	=252	=252	=252	=252	=252
16GGLL	.	8r	.	16ee-XLL	.	16bb-LL	.	.bVII.I6
16BB-	.	.	.	16e-XJJ	.	16gg	.	.
16FF	.	16r	.	16ccLL	.	16aa-X	.	ii
16AA-X	.	16cLL	.	16a-X	.	16ff	.	.
16BB-	.	16d	.	16f	.	16bb-	.	V7
16A-XJJ	.	16BB-'JJ	.	16dJJ	.	16ddJJ	.	.
=253	=253	=253	=253	=253	=253	=253	=253	=253
!LO:TX:b:i:t=cresc.	!	!LO:TX:b:i:t=cresc.	!	!LO:TX:b:i:t=cresc.	!	!LO:TX:b:i:t=cresc.	!	!
(4.G	.	16E-XLL	.	(4.e-X	.	(4.ee-X	.	I[I
.	.	16E-J	.	.	.	.	.	.
.	.	8E-	.	.	.	.	.	.
.	.	8E-J	.	.	.	.	.	.
=254	=254	=254	=254	=254	=254	=254	=254	=254
4.B-)	.	16E-XLL	.	4.g)	.	4.gg)	.	.
.	.	16E-J	.	.	.	.	.	.
.	.	8E-	.	.	.	.	.	.
.	.	8E-J	.	.	.	.	.	.
=255	=255	=255	=255	=255	=255	=255	=255	=255
(8A-XTL	.	16E-XLL	.	(8fTL	.	(8ffTL	.	ii
.	.	16E-	.	.	.	.	.	.
8c	.	16E-	.	8a-X	.	8aa-X	.	.
.	.	16E-	.	.	.	.	.	.
8FJ)	.	16E-	.	8dJ)	.	8ddJ)	.	V
.	.	16E-JJ	.	.	.	.	.	.
=256	=256	=256	=256	=256	=256	=256	=256	=256
(8GL	.	8E-XL	.	(4e-X	.	(4ee-X	.	I
8E-X)	.	8G 8B-	.	.	.	.	.	.
8E-J	.	8GJ 8B-	.	8d-X)	.	8dd-X)	.	V7/IV
=257	=257	=257	=257	=257	=257	=257	=257	=257
[4.E	f >	[4.G [4.B-	f >	[4.c	f >	[4.cc	f >	V65/ii
=258	=258	=258	=258	=258	=258	=258	=258	=258
4.E]	]]	4.G] 4.B-]	]]	4.c]	]]	4.cc]	]]	.
=259	=259	=259	=259	=259	=259	=259	=259	=259
(8FL	p	(8cL	p	(8aL	p	[4.ccT	p	vi
8C	.	8B-	.	8g	.	.	.	.
8DJ	.	8AJ	.	8fJ	.	.	.	.
=260	=260	=260	=260	=260	=260	=260	=260	=260
8BB-L	.	16.dLL	.	16.b-LL	.	4.cc_	.	V2
.	.	32B-JK	.	32gJK	.	.	.	.
8C	.	8A	.	8f	.	.	.	.
8BB-J)	.	8GJ)	.	8eJ)	.	.	.	.
=261	=261	=261	=261	=261	=261	=261	=261	=261
!LO:TX:b:i:t=cresc.	!	!LO:TX:a:i:t=cresc.	!	!LO:TX:b:i:t=cresc.	!	!LO:TX:b:i:t=cresc.	!	!
(8AAL	.	(8FL	.	(8ccL	.	4.cc_	.	I
8GG	.	8E	.	8b-	.	.	.	.
8FFJ	.	8FJ	.	8aJ	.	.	.	.
=262	=262	=262	=262	=262	=262	=262	=262	=262
8BBB-L	.	16.B-LL	.	16.ddLL	.	4.cc_	.	V2
.	.	32GJK	.	32b-JK	.	.	.	.
8CC	.	8F	.	8a	.	.	.	.
8BBB-J)	.	8EJ)	.	8gJ)	.	.	.	.
=263	=263	=263	=263	=263	=263	=263	=263	=263
(8AAAL	f	(16.ALL	f	(16.ccLL	f	8cc]	f	I6
.	.	32FJJk)	.	32aJJk)	.	.	.	.
8BBB-J)	.	8E' 8B-	.	8g'	.	[4ddT	.	viio64
8r	.	8r	.	8r	.	.	.	.
=264	=264	=264	=264	=264	=264	=264	=264	=264
8r	.	8r	.	8r	.	8dd]	.	.
8CC	f	8C 8G	f	8B- 8e	f	4eet	sf	V7
8r	.	8r	.	8r	.	.	.	.
.	.	.	.	.	.	16qqdd/LL	.	.
.	.	.	.	.	.	16qqee/JJ	.	.
=265	=265	=265	=265	=265	=265	=265	=265	=265
16FFLL	ff	16CLL	ff	16ALL 16f	ff	16ffLL	ff	I
16FFJ	.	16CJ	.	16FJ 16A	.	16AJJ 16f	.	.
8FF	.	8C	.	8F 8A	.	8AL 8f	.	.
8FFJ	.	8CJ	.	8FJ 8A	.	8AJ 8f	.	.
=266	=266	=266	=266	=266	=266	=266	=266	=266
16FFLL	.	16CLL	.	16FLL 16A	.	16ALL 16f	.	.
16FFJ	.	16CJ	.	16FJ 16A	.	16AJ 16f	.	.
8FF	.	8C	.	8F 8A	.	8A 8f	.	.
8FFJ	.	8CJ	.	8FJ 8A	.	8AJ 8f	.	.
=267	=267	=267	=267	=267	=267	=267	=267	=267
16FFLL	.	16CLL	.	16FLL 16A	.	16ALL 16f	.	.
16FF	.	16C	.	16F 16A	.	16A 16f	.	.
16FF	.	16C	.	16F 16A	.	16A 16f	.	.
16FF	.	16C	.	16F 16A	.	16A 16f	.	.
16FF	.	16C	.	16F 16A	.	16A 16f	.	.
16FFJJ	.	16CJJ	.	16FJJ 16A	.	16AJJ 16f	.	.
=268	=268	=268	=268	=268	=268	=268	=268	=268
4.F	sf	4.c	sf	4.a	sf	4.aa	sf	.
=269	=269	=269	=269	=269	=269	=269	=269	=269
16EELL	.	16C#XLL	.	16GLL 16A	.	16ALL 16g	.	V43/vi
16EE	.	16C#	.	16G 16A	.	16A 16g	.	.
16EE	.	16C#	.	16G 16A	.	16A 16g	.	.
16EE	.	16C#	.	16G 16A	.	16A 16g	.	.
16EE	.	16C#	.	16G 16A	.	16A 16g	.	.
16EEJJ	.	16C#JJ	.	16GJJ 16A	.	16AJJ 16g	.	.
=270	=270	=270	=270	=270	=270	=270	=270	=270
4.E	sf	4.c#X	sf	4.g	sf	4.aa	sf	V43/vi
=271	=271	=271	=271	=271	=271	=271	=271	=271
4.r	.	16dLL 16f	p	4.r	.	4.r	.	vi
.	.	16d 16f	.	.	.	.	.	.
.	.	16d 16f	.	.	.	.	.	.
.	.	16d 16f	.	.	.	.	.	.
.	.	16d 16f	.	.	.	.	.	.
.	.	16dJJ 16f	.	.	.	.	.	.
=272	=272	=272	=272	=272	=272	=272	=272	=272
4.r	.	4.r	.	16ggLL	p	16bb-LL	p	ii
.	.	.	.	16gg	.	16bb-	.	.
.	.	.	.	16gg	.	16bb-	.	.
.	.	.	.	16gg	.	16bb-	.	.
.	.	.	.	16gg	.	16bb-	.	.
.	.	.	.	16ggJJ	.	16bb-JJ	.	.
=273	=273	=273	=273	=273	=273	=273	=273	=273
4.r	.	4.r	.	4.r	.	16c#XLL 16e	.	V/vi
.	.	.	.	.	.	16c# 16e	.	.
.	.	.	.	.	.	16c# 16e	.	.
.	.	.	.	.	.	16c# 16e	.	.
.	.	.	.	.	.	16c# 16e	.	.
.	.	.	.	.	.	16c#JJ 16e	.	.
=274	=274	=274	=274	=274	=274	=274	=274	=274
16AALL	p	4.r	.	4.r	.	4.r	.	.
16AA	.	.	.	.	.	.	.	.
16AA	.	.	.	.	.	.	.	.
16AA	.	.	.	.	.	.	.	.
16AA	.	.	.	.	.	.	.	.
16AAJJ	.	.	.	.	.	.	.	.
=275	=275	=275	=275	=275	=275	=275	=275	=275
!	!	!	!LO:DY:a	!	!LO:DY:a	!	!	!
8DD	f	16dLL	fp fp	16fLL	fp	8D	.	vi
.	.	16d	.	16f	.	.	.	.
8r	.	16d	.	16f	.	16r	.	.
.	.	16d	.	16f	.	16a'LL	.	.
8r	.	16d	.	16f	.	16dd'	.	.
.	.	16dJJ	.	16fJJ	.	16ff'JJ	.	.
=276	=276	=276	=276	=276	=276	=276	=276	=276
4.r	.	16eLL	.	16gLL	.	(16ffLL	.	V43/vi
.	.	16e	.	16g	.	16eeJJ)	.	.
.	.	16e	.	16g	.	16.ee'LL	.	.
.	.	16e	.	16g	.	.	.	.
.	.	.	.	.	.	32dd'K	.	.
.	.	16e	.	16g	.	16.cc#X'	.	.
.	.	16eJJ	.	16gJJ	.	.	.	.
.	.	.	.	.	.	32a'JJk	.	.
=277	=277	=277	=277	=277	=277	=277	=277	=277
16A'LL	p	16fLL	.	16aLL	.	(8ddL	.	vi
16F'	.	16f	.	16a	.	.	.	.
16D'	.	16f	.	16a	.	8ff	.	.
16AA'	.	16f	.	16a	.	.	.	.
16FF'	.	16f	.	16a	.	[8aaJ)	.	.
16DD'JJ	.	16fJJ	.	16aJJ	.	.	.	.
=278	=278	=278	=278	=278	=278	=278	=278	=278
8BB-	.	16dLL	.	16gLL	.	(16aaLL]	.	ii6
.	.	16d	.	16g	.	16ggJJ)	.	.
8r	.	16d	.	16g	.	16.gg'LL	.	.
.	.	16d	.	16g	.	.	.	.
.	.	.	.	.	.	32ff'K	.	.
8BB-	.	16d	.	16g#X	.	16.ee'	.	IV7(4)
.	.	16dJJ	.	16g#JJ	.	.	.	.
.	.	.	.	.	.	32dd'JJk	.	IV7
=279	=279	=279	=279	=279	=279	=279	=279	=279
8AA	.	8e	.	8a	.	(16ddLL	.	V/vi
.	.	.	.	.	.	16cc#XJJ)	.	.
8r	.	8r	.	8r	.	16cc#'LL	.	.
.	.	.	.	.	.	16dd'	.	.
8r	.	16r	.	16r	.	16ee'	.	.
.	.	16d	.	16f	.	16b-'JJ	.	IV6
=280	=280	=280	=280	=280	=280	=280	=280	=280
8r	.	8c#X	.	8e	.	(16b-LL	.	V6/vi
.	.	.	.	.	.	16aJJ)	.	.
8r	.	8r	.	8r	.	16a'LL	.	.
.	.	.	.	.	.	16g#X'	.	.
16r	.	16r	.	8r	.	16a'	.	.
16BB-	p	16D	.	.	.	16g#'JJ	.	IV7
=281	=281	=281	=281	=281	=281	=281	=281	=281
8AA	.	8C#X	.	4.r	.	16a'LL	.	V/vi
.	.	.	.	.	.	16b-'	.	.
8r	.	8r	.	.	.	16a'	.	.
.	.	.	.	.	.	16b-'	.	.
8r	.	8r	.	.	.	16a'	.	.
.	.	.	.	.	.	16b-'JJ	.	.
=282	=282	=282	=282	=282	=282	=282	=282	=282
!LO:TX:b:i:t=cresc.	!	!LO:TX:a:i:t=cresc.	!	!LO:TX:a:i:t=cresc.	!	!	!	!
4.d	.	4.r	.	4.f	.	8aL	.	vi
.	.	.	.	.	.	(8a	.	.
.	.	.	.	.	.	8qqcc\	.	#viio6/V
.	.	.	.	.	.	8btJ)	.	.
=283	=283	=283	=283	=283	=283	=283	=283	=283
!	!	!LO:TX:a:i:t=cresc.	!	!	!	!	!	!
(8.cL	.	(8.cL	.	(8.eL	.	(8cc'L	.	V7
.	.	.	.	.	.	8cc'	.	.
16B-L	.	16eL	.	16gL	.	.	.	.
16A	.	16d	.	16f	.	8cc'J)	.	.
16GJJ)	.	16eJJ)	.	16b-JJ)	.	.	.	.
=284	=284	=284	=284	=284	=284	=284	=284	=284
4F	f	4f	f	4a	f	(8.ccL	f	I
.	.	.	.	.	.	16cc#XL	>	.
(16FLL	>	(16fLL	>	(16aLL	>	16dd	.	vi6
16GJJ)	]]	16dJJ)	]]	16gJJ)	]]	16b-JJ)	]]	ii
=285	=285	=285	=285	=285	=285	=285	=285	=285
(8.AL	p	(8c#X'L	p	(8e'L	p	(8a'L	p	V/vi
.	.	8c#'	.	8e'	.	8a'	.	.
16GL	.	.	.	.	.	.	.	.
16F	.	8c#'J)	.	8e'J)	.	8a'J)	.	.
16EJJ)	.	.	.	.	.	.	.	.
=286	=286	=286	=286	=286	=286	=286	=286	=286
!LO:TX:b:i:t=cresc.	!	!LO:TX:b:i:t=cresc.	!	!LO:TX:b:i:t=cresc.	!	!LO:TX:b:i:t=cresc.	!	!
4.D	.	8dL	.	4f	.	4a	.	vi
.	.	(8A	.	.	.	.	.	.
.	.	8BtJ)	.	[8f	.	[8ff	.	#viio6/V
=287	=287	=287	=287	=287	=287	=287	=287	=287
(8.CL	.	(8c'L	.	(16fLL]	.	(16ffLL]	.	V7
.	.	.	.	16d	.	16dd	.	.
.	.	8c'	.	16e	.	16ee	.	.
16BB-L	.	.	.	16g	.	16gg	.	.
16AA	.	8c'J)	.	16f	.	16ff	.	.
16GGJJ)	.	.	.	16b-JJ	.	16bb-JJ	.	.
=288	=288	=288	=288	=288	=288	=288	=288	=288
4FF	f >	(8.c	f >	16aLL	f >	16aaLL	f >	I
.	.	.	.	16e	.	16ee	.	.
.	.	.	.	16f	.	16ff	.	.
.	.	8AL	.	16c#X	.	16cc#X	.	.
(16FFLL	.	.	.	16d	.	16dd	.	vi6
16GGJJ)	]]	16DJk)	]]	16B-JJ)	]]	16b-JJ)	]]	ii
=289	=289	=289	=289	=289	=289	=289	=289	=289
(8.AAL	p	8.C#XL	p	8.AL	p	(8a'L	p	V7/vi
.	.	.	.	.	.	8a'	.	.
16GGL	.	(16EL	.	(16c#XL	.	.	.	.
16FF	.	16F	.	16d	.	8a'J)	.	.
16EEJJ)	.	16c#XJJ)	.	16gJJ)	.	.	.	.
=290	=290	=290	=290	=290	=290	=290	=290	=290
!	!	!	!LO:DY:a	!	!	!	!	!
8.DDL	pp	16d'LL	pp pp	16A'LL 16f	.	16a'LL	pp	vi.i
.	.	16c#X'JJ	.	16A'JJ 16e	.	16a'JJ	.	.
.	.	[4d	.	[4A [4f	.	[4a	.	.
16AA'K	.	.	.	.	.	.	.	.
[8D'J	.	.	.	.	.	.	.	.
=291	=291	=291	=291	=291	=291	=291	=291	=291
8DL]	.	8dL]	.	8AL] 8f]	.	8aL]	.	i
16AA'L	.	16c#X'L	.	16A'L 16e	.	16a'L	.	V
16D'J	.	16d'J	.	16A'J 16f	.	16a'J	.	i
[8AAJ	.	[8c#J	.	[8AJ [8e	.	[8aJ	.	V
=292	=292	=292	=292	=292	=292	=292	=292	=292
8AAL]	.	8c#L]	.	8AL] 8e]	.	8aL]	.	.
16DD'L	.	16d'L	.	16A'L 16f	.	16a'L	.	i
16AA'J	.	16c#X'J	.	16A'J 16e	.	16a'J	.	V
[8DJ	.	[8dJ	.	[8AJ [8f	.	[8aJ	.	i
=293	=293	=293	=293	=293	=293	=293	=293	=293
8DL]	.	8dL]	.	8AL] 8f]	.	8aL]	.	.
16AA'L	.	16c#X'L	.	16A'L 16e	.	16a'L	.	V
16D'J	.	16d'J	.	16A'J 16f	.	16a'J	.	i
8AAJ	.	8c#J	.	8AJ 8e	.	[8aJ	.	V
=294	=294	=294	=294	=294	=294	=294	=294	=294
!	!	!LO:TX:b:i:t=cresc.	!	!	!	!	!	!
!LO:TX:b:i:t=cresc.	!	!LO:TX:a:i:t=cresc.	!	!LO:TX:a:i:t=cresc.	!	!	!	!
(8DD	.	(8d	.	(8f	.	(8a]	.	i
[4EE-X)	sf > ]]	[4G)	sf > ]]	[4B-)	sf > ]]	[4g)	sf > ]]	.bII
=295	=295	=295	=295	=295	=295	=295	=295	=295
(8EE-L]	p	(8GL]	p	(8B-L]	p	(8gL]	p	.
8AAA	.	8G	.	8c#X	.	8e	.	V7
8DDJ)	.	8FJ)	.	8dJ)	.	8fJ)	.	i
=296	=296	=296	=296	=296	=296	=296	=296	=296
!LO:TX:b:i:t=cresc.	!	!LO:TX:b:i:t=cresc.	!	!LO:TX:b:i:t=cresc.	!	!LO:TX:b:i:t=cresc.	!	!
(16.DDLL	.	(16.FLL	.	(16.dLL	.	(16.dLL	.	.
32EE-XJJk)	.	32BB-JJk)	.	32GJJk)	.	32gJJk)	.	.bII
[4EE-	sf > ]]	[4BB-	sf > ]]	[4G	sf > ]]	[4g	sf > ]]	.
=297	=297	=297	=297	=297	=297	=297	=297	=297
!	!	!	!LO:DY:a	!	!LO:DY:a	!	!	!
(8EE-L]	p	(8BB-L]	p p	8GL]	p	(8gL]	.	.
8AAA	.	8C#X	.	8G 8A	.	8e	.	V7
8DDJ)	.	8DJ)	.	8FJ 8A	.	8fJ)	.	i
=298	=298	=298	=298	=298	=298	=298	=298	=298
!	!	!	!LO:DY:a	!	!	!	!	!
16DDLL	pp	16DLL	pp pp	16DLL	.	16dLL	pp	.
16DDJ	.	16DJ	.	16DJ	.	16dJ	.	.
8DD	.	8D	.	8D	.	8d	.	.
8DDJ	.	8DJ	.	8DJ	.	8dJ	.	.
=299	=299	=299	=299	=299	=299	=299	=299	=299
16DDLL	.	16DLL	.	16DLL	.	16dLL	.	.
16DD	.	16D	.	16D	.	16d	.	.
16DD	.	16D	.	16D	.	16d	.	.
16DD	.	16D	.	16D	.	16d	.	.
16DD	.	16D	.	16D	.	16d	.	.
16DDJJ	.	16DJJ	.	16DJJ	.	16dJJ	.	.
=300	=300	=300	=300	=300	=300	=300	=300	=300
(4.DD	.	(4.D	.	(4.D	.	(4.d	.	.
=301	=301	=301	=301	=301	=301	=301	=301	=301
4.EE	.	4.E	.	4.E	.	4.e	.	@none
=302	=302	=302	=302	=302	=302	=302	=302	=302
4.FF	.	4.F	.	4.F	.	4.f	.	.
=303	=303	=303	=303	=303	=303	=303	=303	=303
4AAA-X	.	4AA-X	>	4A-X	>	4A-X	>	.
8GGG)	.	8GG)	]]	8G)	]]	8G)	]]	V.I
=304	=304	=304	=304	=304	=304	=304	=304	=304
16CCLL	pp	(4.C	pp	4.r	.	(4.c	pp	I[I
16CCJ	.	.	.	.	.	.	.	.
8CC	.	.	.	.	.	.	.	.
8CCJ	.	.	.	.	.	.	.	.
=305	=305	=305	=305	=305	=305	=305	=305	=305
16CCLL	.	4.AA	.	4.r	.	4.A	.	IV
16CCJ	.	.	.	.	.	.	.	.
8CC	.	.	.	.	.	.	.	.
8CCJ	.	.	.	.	.	.	.	.
=306	=306	=306	=306	=306	=306	=306	=306	=306
16CCLL	<	[4.GG)	<	(4.g	pp < [[	8GL	.	V
16CC	.	.	.	.	.	.	.	.
16CC	.	.	.	.	.	8A	<	.
16CC	.	.	.	.	.	.	.	.
16CC	.	.	.	.	.	8BJ	[[	.
16CCJJ	[ >	.	.	.	.	.	.	.
=307	=307	=307	=307	=307	=307	=307	=307	=307
4.CC	]]	(8GGL]	.	4G 4e	>	4.c)	>]	V7
.	.	8AA	[ >	.	.	.	.	.
.	.	8BBJ	.	8F 8d	]]	.	.	.
=308	=308	=308	=308	=308	=308	=308	=308	=308
4.r	.	4C)	.	4E) 4c	.	16g'LL	.	I]
.	.	.	.	.	.	16cc'	.	.
.	.	.	.	.	.	16ee'	.	.
.	.	.	.	.	.	16cc'	.	.
.	.	8r	]	8r	.	16dd'	.	V
.	.	.	.	.	.	16b'JJ	.	.
=309	=309	=309	=309	=309	=309	=309	=309	=309
4.r	.	4.r	.	4.r	.	8cc'	.	I
.	.	.	.	.	.	4g	.	IV
=310	=310	=310	=310	=310	=310	=310	=310	=310
4.r	.	4.r	.	16a'LL	.	4.r	.	V
.	.	.	.	16g'	.	.	.	.
.	.	.	.	16f'	.	.	.	.
.	.	.	.	16e'	.	.	.	.
.	.	.	.	16d'	.	.	.	.
.	.	.	.	16g'JJ	.	.	.	.
=311	=311	=311	=311	=311	=311	=311	=311	=311
4.r	.	4.r	.	8e'	.	4.r	.	I
.	.	.	.	4c	.	.	.	.
=312	=312	=312	=312	=312	=312	=312	=312	=312
4.r	.	4.r	.	4.r	.	16e'LL	.	.
.	.	.	.	.	.	16g'	.	.
.	.	.	.	.	.	16cc'	.	.
.	.	.	.	.	.	16ee'	.	.
.	.	.	.	.	.	16dd'	.	V
.	.	.	.	.	.	16b'JJ	.	.
=313	=313	=313	=313	=313	=313	=313	=313	=313
4.r	.	4.r	.	4.r	.	16ccLL	.	I
.	.	.	.	.	.	16eeJ	.	.
.	.	.	.	.	.	8.gg	.	.
.	.	.	.	.	.	16aaJk	.	.
=314	=314	=314	=314	=314	=314	=314	=314	=314
!	!	!	!	!	!	!LO:TX:a:i:t=cresc.	!	!
16r	.	4.r	.	16r	.	16ggLL	.	vii.iv7
!LO:TX:b:i:t=cresc.	!	!	!	!LO:TX:b:i:t=cresc.	!	!	!	!
16ALL	.	.	.	16eLL 16g	.	16ee	.	.
16A	.	.	.	16e 16g	.	16cc	.	.
16AJJ	.	.	.	16eJ 16g	.	16ddJJ	.	.
8A	.	.	.	8eJ 8g	.	8ccT	.	.
.	.	.	.	.	.	32qqb/LLL	.	.
.	.	.	.	.	.	32qqcc/JJJ	.	.
=315	=315	=315	=315	=315	=315	=315	=315	=315
(4.B	pp	(4.b	pp	16d#XLL 16f#	pp	8b	pp	V
.	.	.	.	16BJJ	.	.	.	.
.	.	.	.	8BL	.	8r	.	.
.	.	.	.	8BJ	.	8r	.	.
=316	=316	=316	=316	=316	=316	=316	=316	=316
4.G	.	4.g	.	16BLL	.	4.r	.	III
.	.	.	.	16BJJ	.	.	.	.
.	.	.	.	8BL	.	.	.	.
.	.	.	.	8BJ	.	.	.	.
=317	=317	=317	=317	=317	=317	=317	=317	=317
4.F#	<[	8f#L	<	16BLL	<	[4.f#	<[	V43
.	.	.	.	16B	.	.	.	.
.	.	8g#X	.	16B	.	.	.	.
.	.	.	.	16B	.	.	.	.
.	.	8a#XJ	[[	16B	.	.	.	.
.	.	.	.	16BJJ	[[	.	.	.
=318	=318	=318	=318	=318	=318	=318	=318	=318
(8F#L)	>	4.b)	>]	4.B	>]	(8f#L]	>	.
8D#X	.	.	.	.	.	8d#X	.	.
8EJ)	]]	.	.	.	.	8eJ)	]]	.
=319	=319	=319	=319	=319	=319	=319	=319	=319
!	!LO:DY:a	!	!	!	!	!	!	!
4.BB	pp pp	16F#'LL	.	4.r	.	4.B	pp	#IV.I
.	.	16B'	.	.	.	.	.	.
.	.	16d#X'	.	.	.	.	.	.
.	.	16B'	.	.	.	.	.	.
.	.	16c#X'	.	.	.	.	.	.
.	.	16A#X'JJ	.	.	.	.	.	.
=320	=320	=320	=320	=320	=320	=320	=320	=320
4.r	.	8B'	.	4.r	.	4.r	.	I
.	.	4F#	.	.	.	.	.	.
=321	=321	=321	=321	=321	=321	=321	=321	=321
16G#X'LL	.	4.r	.	4.r	.	4.r	.	V
16F#'	.	.	.	.	.	.	.	.
16E'	.	.	.	.	.	.	.	.
16D#X'	.	.	.	.	.	.	.	.
16C#X'	.	.	.	.	.	.	.	.
16F#'JJ	.	.	.	.	.	.	.	.
=322	=322	=322	=322	=322	=322	=322	=322	=322
8D#X'	.	4.r	.	4.r	.	4.r	.	I
4BB	.	.	.	.	.	.	.	.
=323	=323	=323	=323	=323	=323	=323	=323	=323
!	!	!LO:TX:b:i:t=cresc.	!	!	!	!	!	!
4.r	.	16g'LL	.	4.r	.	4.r	.	V7
.	.	16f#'	.	.	.	.	.	.
.	.	16e'	.	.	.	.	.	.
.	.	16d'	.	.	.	.	.	.
.	.	16c#X'	.	.	.	.	.	.
.	.	16e'JJ	.	.	.	.	.	.
=324	=324	=324	=324	=324	=324	=324	=324	=324
4.r	.	16A#X'LL	.	4r	.	4r	.	.
.	.	16c#X'	.	.	.	.	.	.
.	.	16G'	.	.	.	.	.	.
.	.	16F#'JJ	.	.	.	.	.	.
.	.	8r	.	16cc'LL	f	16ccc'LL	f	.
.	.	.	.	16b'JJ	.	16bb'JJ	.	.
=325	=325	=325	=325	=325	=325	=325	=325	=325
4.r	.	4r	.	16a'LL	.	16aa'LL	.	V7/v
.	.	.	.	16g'	.	16gg'	.	.
.	.	.	.	16f#'	.	16ff#'	.	.
.	.	.	.	16e'	.	16ee'	.	.
.	.	16D#X'LL	f	16d#X'	.	16dd#X'	.	.
.	.	16F#'JJ	.	16f#'JJ	.	16ff#'JJ	.	.
=326	=326	=326	=326	=326	=326	=326	=326	=326
.	.	32qqD/	sf	32qqd/	sf	32qqdd/	sf	V/v
8r	.	(16CLL	.	(16cLL	.	(16ccLL	.	.
.	.	16BBJJ)	.	16BJJ)	.	16bJJ)	.	.
!	!	!	!	!	!LO:DY:a	!	!	!
8qqDD/	sf	16qqD/	sf	16qqd/	sf sf	16qqd/	.	.
(16CCLL	.	(16CLL	.	(16cLL	.	(16cLL	.	.
16BBBJJ)	.	16BBJJ)	.	16BJJ)	.	16BJJ)	.	.
8qqDD/	sf	16qqD/	sf	16qqd/	sf	16qqd/	sf	.
(16CCLL	.	(16CLL	.	(16cLL	.	(16cLL	.	.
16BBBJJ)	.	16BBJJ)	.	16BJJ)	.	16BJJ)	.	.
=327	=327	=327	=327	=327	=327	=327	=327	=327
16EELL	ff	16G#XLL 16B	ff	8E 8e	ff	16ELL 16e	ff	VII.I
16EEJJ	.	16G#JJ 16B	.	.	.	16EJJ 16e	.	.
8r	.	8r	.	16g#XLL 16b	.	8EL 8e	.	.
.	.	.	.	16g#JJ 16b	.	.	.	.
16EELL	.	16G#LL 16B	.	8r	.	8EJ 8e	.	.
16EEJJ	.	16G#JJ 16B	.	.	.	.	.	.
=328	=328	=328	=328	=328	=328	=328	=328	=328
8r	.	8r	.	16g#XLL 16b	.	16ELL 16e	.	.
.	.	.	.	16g#JJ 16b	.	16EJJ 16e	.	.
16DDLL	.	16G#XLL 16B	.	16r	.	8EL 8e	.	V2/iv
16DDJJ	.	16G#JJ 16B	.	16g#LL 16b	.	.	.	.
8r	.	8r	.	16g#JJ 16b	.	8EJ 8e	.	.
.	.	.	.	16r	.	.	.	.
=329	=329	=329	=329	=329	=329	=329	=329	=329
16CCLL	.	16ALL 16c	.	8r	.	16ELL 16e	.	iv6
16CCJJ	.	16AJJ 16c	.	.	.	16EJJ 16e	.	.
8r	.	8r	.	16aLL 16cc	.	8EL 8e	.	.
.	.	.	.	16aJJ 16cc	.	.	.	.
16CCLL	.	16ALL 16c	.	8r	.	8EJ 8e	.	.
16CCJJ	.	16AJJ 16c	.	.	.	.	.	.
=330	=330	=330	=330	=330	=330	=330	=330	=330
16AAALL 16EE	sf	16F#LL	sf	16aLL 16cc	sf	16ELL 16d#X	sf	#viio43(+2)
16AAA 16EE	.	16F#	.	16a 16cc	.	16E 16d#	.	.
16AAA 16EE	.	16F#	.	16a 16cc	.	16E 16d#	.	.
16AAA 16EE	.	16F#	.	16a 16cc	.	16E 16d#	.	.
16AAA 16EE	.	16F#	.	16a 16cc	.	16E 16d#	.	.
16AAAJJ 16EE	.	16F#JJ	.	16aJJ 16cc	.	16EJJ 16d#	.	.
=331	=331	=331	=331	=331	=331	=331	=331	=331
8EE	ff	8G#XL	ff	16g#XLL 16b	ff	16ELL 16e	ff	I
.	.	.	.	16g#JJ 16b	.	16eJJ 16ee	.	.
16EELL	.	16G#L 16B	.	8r	.	8eL 8ee	.	.
16EEJJ	.	16G#JJ 16B	.	.	.	.	.	.
8r	.	8r	.	16g#LL 16b	.	8eJ 8ee	.	.
.	.	.	.	16g#JJ 16b	.	.	.	.
=332	=332	=332	=332	=332	=332	=332	=332	=332
16DDLL	.	16G#XLL 16B	.	8r	.	16eLL 16ee	.	V2/iv
16DDJJ	.	16G#JJ 16B	.	.	.	16eJJ 16ee	.	.
8r	.	8r	.	16g#XLL 16b	.	8eL 8ee	.	.
.	.	.	.	16g#JJ 16b	.	.	.	.
16DDLL	.	16G#LL 16B	.	8r	.	8eJ 8ee	.	.
16DDJJ	.	16G#JJ 16B	.	.	.	.	.	.
=333	=333	=333	=333	=333	=333	=333	=333	=333
8r	.	8r	.	16aLL 16cc	.	16eLL 16ee	.	iv6
.	.	.	.	16aJJ 16cc	.	16eJJ 16ee	.	.
16CCLL	.	16ALL 16c	.	8r	.	8eL 8ee	.	.
16CCJJ	.	16AJJ 16c	.	.	.	.	.	.
8r	.	8r	.	16aLL 16cc	.	8eJ 8ee	.	.
.	.	.	.	16aJJ 16cc	.	.	.	.
=334	=334	=334	=334	=334	=334	=334	=334	=334
16AAALL 16EE	sf	16d#XLL	sf	16ccLL 16aa	sf	16eLL 16ff#	sf	#viio43(+2)
16AAA 16EE	.	16d#	.	16cc 16aa	.	16e 16ff#	.	.
16AAA 16EE	.	16d#	.	16cc 16aa	.	16e 16ff#	.	.
16AAA 16EE	.	16d#	.	16cc 16aa	.	16e 16ff#	.	.
16AAA 16EE	.	16d#	.	16cc 16aa	.	16e 16ff#	.	.
16AAAJJ 16EE	.	16d#JJ	.	16ccJJ 16aa	.	16eJJ 16ff#	.	.
=335	=335	=335	=335	=335	=335	=335	=335	=335
16EELL	pp	16eLL	pp	16bLL 16gg#X	pp	8e 8ee	pp	I
16EE	.	16EJJ	.	16e	.	.	.	.
16EE	.	16ELL	.	16e	.	8r	.	.
16EE	.	16E	.	16e	.	.	.	.
16EE	.	16E	.	16e	.	8r	.	.
16EEJJ	.	16EJJ	.	16eJJ	.	.	.	.
=336	=336	=336	=336	=336	=336	=336	=336	=336
16GGLL	.	16GLL	.	16gLL	.	4r	.	I.V/V
16GG	.	16G	.	16g	.	.	.	.
16GG	.	16G	.	16g	.	.	.	.
16GGJJ	.	16GJJ	.	16gJJ	.	.	.	.
16CCLL	.	16CLL	.	16cLL	.	16b-XLL 16cc	.	V7
16CCJJ	.	16CJJ	.	16cJJ	.	16b-JJ 16cc	.	.
=337	=337	=337	=337	=337	=337	=337	=337	=337
16FFLL 16AA	ff	16C'LL	ff	16c'LL	ff	16cc'LL	ff	I[I
16FFJJ 16AA	.	16F'	.	16f'	.	16ff'	.	.
8FFL 8AA	.	16A'	.	16a'	.	16aa'	.	.
.	.	16F'	.	16f'	.	16ff'	.	.
8FF'J 8BB-	.	16G'	.	16g'	.	16gg'	.	.
.	.	16E'JJ	.	16e'JJ	.	16ee'JJ	.	.
=338	=338	=338	=338	=338	=338	=338	=338	=338
16FFLL 16AA	.	8F'	.	8f'	.	8ff'	.	I
16FFJJ 16AA	.	.	.	.	.	.	.	.
8FFL 8AA	sf	4C	sf	4c	sf	4cc	sf	.
8FFJ 8AA	.	.	.	.	.	.	.	.
=339	=339	=339	=339	=339	=339	=339	=339	=339
16FFLL 16BB-	.	16DLL	.	16dLL	.	16ddLL	.	IV
16FF 16C	.	16C	.	16c	.	16cc	.	.
16FF 16D	.	16BB-	.	16B-X	.	16b-X	.	.
16FF 16C	.	16AA	.	16A	.	16a	.	.
16FF 16BB-	.	16GG	.	16G	.	16g	.	V
16FFJJ 16BB-	.	16EJJ	.	16cJJ	.	16ccJJ	.	.
=340	=340	=340	=340	=340	=340	=340	=340	=340
16FFLL	.	16AALL	.	8F' 8A	sf	8a'	sf	I\\
16AA	.	16C	.	.	.	.	.	.
16C	.	16F	.	4F	.	4f	.	.
16F	.	16A	.	.	.	.	.	.
16A	.	16c	.	.	.	.	.	.
16GJJ	.	16B-JJ	.	.	.	.	.	.
=341	=341	=341	=341	=341	=341	=341	=341	=341
16FLL	.	16ALL	.	16A'LL	.	16a'LL	.	.
16CJJ	.	16F	.	16c'	.	16cc'	.	.
16AALL	.	16C	.	16f'	.	16ff'	.	.
16FF	.	16C	.	16a'	.	16aa'	.	.
16C	.	16C	.	16g'	.	16gg'	.	.
16CCJJ	.	16BB-JJ	.	16e'JJ	.	16ee'JJ	.	.
=342	=342	=342	=342	=342	=342	=342	=342	=342
16FFLL	.	16AALL	.	16fLL	.	16ffLL	.	.
16FFJJ	.	16AAJJ	.	16aJ	.	16aaJJ	.	.
16FLL	sf	16ALL	sf	8.cc	sf	8.cccL	sf	.
16F	.	16A	.	.	.	.	.	.
16F	.	16A	.	.	.	.	.	.
16FJJ	.	16AJJ	.	16ddJk	.	16dddJk	.	.
=343	=343	=343	=343	=343	=343	=343	=343	=343
16FLL	p	16ALL	p	8cc	p	16ccc'LL	p	I]
16FFJJ	.	16AAJJ	.	.	.	16aa'	.	.
16FLL	.	16ALL	.	8r	.	16ff'	.	.
16F	.	16A	.	.	.	16gg'JJ	.	.
16F	sfp	16A	sfp	16r	.	8ffT	sfp	.
16FJJ	.	16AJJ	.	(16cc	.	.	.	.
.	.	.	.	.	.	16qqee/LL	.	.
.	.	.	.	.	.	16qqff/JJ	.	.
=344	=344	=344	=344	=344	=344	=344	=344	=344
16GLL	.	16B-LL	.	16b-'LL)	.	8ee	.	viio6
16GG	.	16BB-	.	16g'	.	.	.	.
16G	.	16B-	.	16e'	.	8r	.	.
16GJJ	.	16B-JJ	.	16f'JJ	.	.	.	.
16GLL	sfp	16B-LL	sfp	8et	sfp	8r	.	.
16GJJ	.	16B-JJ	.	.	.	.	.	.
.	.	.	.	16qqd/LL	.	.	.	.
.	.	.	.	16qqe/JJ	.	.	.	.
=345	=345	=345	=345	=345	=345	=345	=345	=345
16GLL	.	16B-LL	.	4.r	.	16bb-'LL	.	.
16GG	.	16BB-JJ	.	.	.	16gg'	.	.
16G	.	16B-LL	.	.	.	16ee'	.	.
16GJJ	.	16B-	.	.	.	16ff'JJ	.	.
16GLL	sfp	16B-	sfp	.	.	8eet	sfp	.
16GJJ	.	16B-JJ	.	.	.	.	.	.
.	.	.	.	.	.	16qqdd/LL	.	.
.	.	.	.	.	.	16qqee/JJ	.	.
=346	=346	=346	=346	=346	=346	=346	=346	=346
16ALL	.	16cLL	.	16cc'LL	.	4.r	.	I6
16AA	.	16C	.	16a'	.	.	.	.
16A	.	16c	.	16f'	.	.	.	.
16AJJ	.	16cJJ	.	16g'JJ	.	.	.	.
16ALL	sfp	16cLL	sfp	8fT	sfp	.	.	.
16AJJ	.	16cJJ	.	.	.	.	.	.
.	.	.	.	16qqe/LL	.	.	.	.
.	.	.	.	16qqf/JJ	.	.	.	.
=347	=347	=347	=347	=347	=347	=347	=347	=347
16B-LL	.	16dLL	.	8r	.	16ff'LL	.	ii65
16BB-	.	16D	.	.	.	16dd'	.	.
16B-	.	16d	.	8r	.	16g'	.	.
16B-JJ	.	16dJJ	.	.	.	16a'JJ	.	.
16BLL	sfp	16dLL	sfp	16f'LL	sfp	8gT	sfp	V65/V
16BJJ	.	16dJJ	.	16g'JJ	.	.	.	.
.	.	.	.	.	.	16qqf#/LL	.	.
.	.	.	.	.	.	16qqg/JJ	.	.
=348	=348	=348	=348	=348	=348	=348	=348	=348
16cLL	.	16eLL	.	16e'LL	.	4r	.	V
16C	.	16E	.	16c'	.	.	.	.
16c	.	16e	.	16G'	.	.	.	.
16cJJ	.	16eJJ	.	16A'JJ	.	.	.	.
16BLL	sfp	16dLL	sfp	8G	sfp	16ff'LL	sfp	V65/V
16BJJ	.	16dJJ	.	.	.	16gg'JJ	.	.
.	.	.	.	16qqF#/LL	.	.	.	.
.	.	.	.	16qqG/JJ	.	.	.	.
=349	=349	=349	=349	=349	=349	=349	=349	=349
16cLL	.	16eLL	.	8r	.	16ee'LL	.	V
16C	.	16E	.	.	.	16cc'	.	.
16C	.	16E	.	8r	.	16g'	.	.
16CJJ	.	16EJJ	.	.	.	16a'JJ	.	.
16BBLL	sfp	16DLL	sfp	16f'LL	sfp	8gT	sfp	V65/V
16BBJJ	.	16DJJ	.	16g'JJ	.	.	.	.
.	.	.	.	.	.	16qqf/LL	.	.
.	.	.	.	.	.	16qqg/JJ	.	.
=350	=350	=350	=350	=350	=350	=350	=350	=350
16CLL	.	16ELL	.	16e'LL	.	4r	.	V
16c	.	16e	.	16c'	.	.	.	.
16c	.	16e	.	16G'	.	.	.	.
16cJJ	.	16eJJ	.	16A'JJ	.	.	.	.
16BLL	sfp	16dLL	sfp	8G	sfp	16ff'LL	sfp	V65/V
16BJJ	.	16dJJ	.	.	.	16gg'JJ	.	.
.	.	.	.	16qqF#/LL	.	.	.	.
.	.	.	.	16qqG/JJ	.	.	.	.
=351	=351	=351	=351	=351	=351	=351	=351	=351
8c	f	8e	f	8r	.	16ee'LL	f	V
.	.	.	.	.	.	16cc'	.	.
8r	.	8r	.	8r	.	16a'	.	.
.	.	.	.	.	.	16g'JJ	.	.
8r	.	8r	.	16e'LL	f	8r	.	.
.	.	.	.	16c'JJ	.	.	.	.
=352	=352	=352	=352	=352	=352	=352	=352	=352
!	!	!	!	!	!LO:DY:a	!	!	!
4r	.	8r	.	4.r	f	16A'LL	.	.
.	.	.	.	.	.	16G'JJ	.	.
.	.	16E'LL	.	.	.	8r	.	.
.	.	16C'JJ	.	.	.	.	.	.
!	!LO:DY:a	!	!	!	!	!	!	!
16AA'LL	f f	8r	.	.	.	8r	.	.
16GG'JJ	.	.	.	.	.	.	.	.
=353	=353	=353	=353	=353	=353	=353	=353	=353
4.CC	.	4.r	.	4.r	.	4.r	.	.
=354	=354	=354	=354	=354	=354	=354	=354	=354
!	!	!	!	!LO:TX:a:i:t=cresc.	!LO:DY:a	!	!	!
4.r	.	4.r	.	4.r	p	(16.fLL	.	i.i
.	.	.	.	.	.	32gJJk	.	.
.	.	.	.	.	.	8a-XL	.	.
.	.	.	.	.	.	8b-J	.	.
=355	=355	=355	=355	=355	=355	=355	=355	=355
8r	.	8r	.	8r	.	4cc	.	i[i
4F	f	(4G-X	f	(4c	f	.	.	.
.	.	.	.	.	.	8dd-X	f	.
=356	=356	=356	=356	=356	=356	=356	=356	=356
4F	.	4B-	.	4d-X	.	16ee-X'LL)	.	iv
.	.	.	.	.	.	16dd-X'	.	.
.	.	.	.	.	.	16cc'	>	.
.	.	.	.	.	.	16b-'	.	.
8F	>]	[8c)	>]	8e)	>]	16a-X'	.	V
.	.	.	.	.	.	16g'JJ	]]	.
=357	=357	=357	=357	=357	=357	=357	=357	=357
8F	p	8c]	p	8f	p	16a-X'LL	p	i]
.	.	.	.	.	.	16g'	.	.
8r	.	16r	.	8r	.	16f'JJ	.	.
.	.	16d-X'LL	.	.	.	16r	.	.
8r	.	16c'	.	8r	.	8r	.	.
.	.	16B-'JJ	.	.	.	.	.	.
=358	=358	=358	=358	=358	=358	=358	=358	=358
!	!	!LO:TX:b:i:t=cresc.	!	!	!	!	!	!
!	!	!LO:TX:a:i:t=cresc.	!	!	!	!LO:TX:b:i:t=cresc.	!	!
8r	.	16A-X'LL	.	(16.fLL	.	[4.ff	.	i
.	.	16G'	.	.	.	.	.	.
.	.	.	.	32gJJk	.	.	.	.
16r	.	16F'JJ	.	8a-XL	.	.	.	.
!LO:TX:b:i:t=cresc.	!	!	!	!	!	!	!	!
16D-X'LL	.	16r	.	.	.	.	.	.
16C'	.	8r	.	8b-J)	.	.	.	.
16BB-'JJ	.	.	.	.	.	.	.	.
=359	=359	=359	=359	=359	=359	=359	=359	=359
16AA-X'LL	.	4.r	.	(4cc	.	4ff]	.	.
16GG'	.	.	.	.	.	.	.	.
16FF'	.	.	.	.	.	.	.	.
16DD-X'	.	.	.	.	.	.	.	.
16CC'	.	.	.	8dd-X	sf	[8ff	sf	.
16BBB-'JJ	.	.	.	.	.	.	.	.
=360	=360	=360	=360	=360	=360	=360	=360	=360
16AAA-X'LL	>	4.r	.	16ee-X'LL)	.	8ffL]	.	i6
16BBB-'JJ	.	.	.	16dd-X'	.	.	.	.
4CC	]]	.	.	16cc'	>	16aa-X'L	>	V7
.	.	.	.	16b-'	.	16gg'	.	.
.	.	.	.	16a-X'	.	16ff'	.	.
.	.	.	.	16g'JJ	]]	16ee'JJ	]]	.
=361	=361	=361	=361	=361	=361	=361	=361	=361
8FF	p	8r	.	8fL	p	8ff	p	i
8r	.	8A-XL	p	8F 8c	.	8r	.	.
8r	.	8A-J	.	8FJ 8c	.	(8a-X	.	.
=362	=362	=362	=362	=362	=362	=362	=362	=362
8CCL	.	(8B-L	.	8EL 8c	.	16.gLL	.	V7
.	.	.	.	.	.	32fJJk	.	.
8C	.	8G	.	8B-	.	8eL	.	.
8CJ	.	8EJ)	.	8B-J	.	8gJ)	.	.
=363	=363	=363	=363	=363	=363	=363	=363	=363
8FL	<	8FL	<	8A-XL	<	(4f	<	i
8FF	[	8A-X	[	8c	[	.	.	.
(8DDJ	>]	8A-J	>]	8cJ	>]	8cc)	[ > ]]	III(4)
=364	=364	=364	=364	=364	=364	=364	=364	=364
8EE-XL)	.	(8GL	.	(8B-L	.	(16.b-LL	.	VII7
.	.	.	.	.	.	32a-XJK	.	.
8E-X	.	8B-	.	8d-X)	.	8g	.	.
8E-J	.	8GJ)	.	8d-J	.	8b-J)	.	.
=365	=365	=365	=365	=365	=365	=365	=365	=365
8A-XL	.	8A-XL	.	8cL	.	(4a-X	.	III
8AA-X	.	8c	.	8e-X	.	.	.	.
(8FF#J	.	8cJ	.	8e-J	.	8ee-X)	.	v.bVI2
=366	=366	=366	=366	=366	=366	=366	=366	=366
8GGL)	.	(8BL	.	(8dL	.	(16.ddLL	.	V7
.	.	.	.	.	.	32ccJK	.	.
8G	.	8d	.	8f)	.	8b	.	.
8GGJ	.	8BBJ)	.	8fJ	.	8ddJ)	.	.
=367	=367	=367	=367	=367	=367	=367	=367	=367
!LO:TX:b:i:t=cresc.	!	!LO:TX:b:i:t=cresc.	!	!LO:TX:b:i:t=cresc.	!	!LO:TX:b:i:t=cresc.	!	!
(16.CCLL	.	(16.CLL	.	(8e-XL	.	(4cc	.	i
32DDJK	.	32DJK	.	.	.	.	.	.
8EE-X	.	8E-X	.	8c	.	.	.	.
8FFJ	.	8FJ	.	8dJ	.	8dd	.	ii6
=368	=368	=368	=368	=368	=368	=368	=368	=368
4GG	.	4G	.	4e	.	4ee	.	iii6
8AA-X	f	8A-X	f	8f	f	8ff	f	iv6
=369	=369	=369	=369	=369	=369	=369	=369	=369
16BB-X'LL)	.	16B-X'LL)	.	16gLL)	.	16ggLL)	.	V7
16AA-X'	.	16A-X'	.	16b	.	16bb'	.	.
16GG'	.	16G'	.	16b'	.	16bb'	.	.
16FF'	.	16F'	.	16b'	.	16bb'	.	.
16EE-X'	.	16E-X'	.	16b'JJ	.	16bb'	.	.
16DD'JJ	.	16D'JJ	.	16b'	.	16bb'JJ	.	.
=370	=370	=370	=370	=370	=370	=370	=370	=370
16EE-X'LL	.	16E-X'LL	.	16ccLL	.	16cccLL	.	i\\
16DD'JJ	.	16D'	.	16f	.	16ccc	.	.
4CC	.	16C'	.	16e-X	.	16ccc	.	.
.	.	16d-X'	.	16e	.	16bb-X	.	.
.	.	16c'	.	16f	.	16aa-X	.	.
.	.	16B-'JJ	.	16cJJ	.	16ggJJ	.	.
=371	=371	=371	=371	=371	=371	=371	=371	=371
8r	.	16A-X'LL	.	(16.fLL	.	(16.ffLL	.	i.i
.	.	16G'	.	.	.	.	.	.
.	.	.	.	32gJK	.	32ggJK	.	.
16r	.	16FX'	.	8a-X	.	8aa-X	.	.
16D-X'LL	.	16F'	.	.	.	.	.	.
16C'	.	16F'	.	8b-J)	.	8bb-J)	.	.
16BB-'JJ	.	16F'JJ	.	.	.	.	.	.
=372	=372	=372	=372	=372	=372	=372	=372	=372
16AA-X'LL	.	16FLL	.	4cc	.	4ccc	.	i
16GG'	.	16F	.	.	.	.	.	.
16FF'	.	16F	.	.	.	.	.	.
16DD-X'	.	16f	.	.	.	.	.	.
16CC'	sf	16F	sf	(8dd-X	sf	(8ddd-X	sf	.
16BBB-'JJ	.	16FJJ	.	.	.	.	.	.
=373	=373	=373	=373	=373	=373	=373	=373	=373
16AAA'LL	.	16F'LL	.	16ee-X'LL)	.	16eee-XLL)	.	i6
16BBB-X'JJ	.	16F'	.	16dd-X'	.	16ddd-X'	.	.
4CC	.	16E'	.	16cc'	.	16ccc'	.	V7
.	.	16G'	.	16b-'	.	16bb-'	.	.
.	.	16C'	.	16a-X'	.	16aa-X'	.	.
.	.	16c'JJ	.	16g'JJ	.	16gg'JJ	.	.
=374	=374	=374	=374	=374	=374	=374	=374	=374
8FF	.	8F	.	8f	.	16ffLL	.	i
.	.	.	.	.	.	16c	p	.
8r	.	8r	.	8r	.	16c	.	.
.	.	.	.	.	.	16c	.	.
!LO:TX:b:i:t=dol.	!	!	!	!	!	!	!	!
(8A-X	p	8r	.	8r	.	16c	.	.
.	.	.	.	.	.	16cJJ	.	.
=375	=375	=375	=375	=375	=375	=375	=375	=375
16.GLL	.	4r	.	4r	.	16B-LL	.	V43
.	.	.	.	.	.	16c	.	.
32FJK	.	.	.	.	.	.	.	.
8E	.	.	.	.	.	16G	.	.
.	.	.	.	.	.	16cJJ	.	.
8GJ	.	(8B-	p <	(8e	p <	16ccLL	<	.
.	.	.	.	.	.	16ccJJ	.	.
=376	=376	=376	=376	=376	=376	=376	=376	=376
4F)	.	16.A-XLL	.	16.fLL	.	16ccLL	.	i
.	.	.	.	.	.	16cc	[ >	.
.	.	32GJJk	[ >	32gJK	[ >	.	.	.
.	.	4F)	]	8a-XJ)	]	16cc	.	.
.	.	.	.	.	.	16ccJJ	]	.
(8c	.	.	.	8r	.	16e-XLL	.	.
.	.	.	.	.	.	16e-JJ	.	.
=377	=377	=377	=377	=377	=377	=377	=377	=377
16.B-LL	.	4r	.	4r	.	16e-XLL	.	V65/III
.	.	.	.	.	.	16e-	.	.
32A-XJK	.	.	.	.	.	.	.	.
8G	.	.	.	.	.	16e-	.	.
.	.	.	.	.	.	16e-JJ	.	.
8B-J	.	(8d-X	<	(8g	<	16ee-XLL	<	.
.	.	.	.	.	.	16ee-JJ	.	.
=378	=378	=378	=378	=378	=378	=378	=378	=378
4A-X)	.	16.cLL	.	16.a-XLL	.	16ee-XLL	.	III
.	.	.	.	.	.	16ee-	.	.
.	.	32B-JJk	[ >	32b-JK	[ >	.	.	.
.	.	8A-X)	.	8ccJ)	.	16ee-	[ >	.
.	.	.	.	.	.	16ee-JJ	.	.
(8e-X	.	8r	]	8r	]	16gLL	]	.
.	.	.	.	.	.	16gJJ	.	.
=379	=379	=379	=379	=379	=379	=379	=379	=379
16.dLL	.	4r	.	4r	.	16fLL	.	V43/v
.	.	.	.	.	.	16g	.	.
32cJK	.	.	.	.	.	.	.	.
8B	.	.	.	.	.	16d	.	.
.	.	.	.	.	.	16g	.	.
8dJ)	.	8f	.	8b	.	16g	.	.
.	.	.	.	.	.	16gJJ	.	.
=380	=380	=380	=380	=380	=380	=380	=380	=380
!LO:TX:b:i:t=cresc.	!	!	!	!	!	!	!	!
!LO:TX:a:i:t=cresc.	!	!LO:TX:a:i:t=cresc.	!	!LO:TX:a:i:t=cresc.	!	!	!	!
(16.cLL	.	(16.e-XLL	.	(16.ccLL	.	16gLL	.	v
.	.	.	.	.	.	16cc	.	.
32dJK	.	32fJK	.	32bJK	.	.	.	.
8e-X	.	8g	.	8cc	.	16cc	.	.
.	.	.	.	.	.	16ccc	.	.
8fJ	.	8a-XJ	.	8ddJ	.	16ccc	.	.
.	.	.	.	.	.	16cccJJ	.	.
=381	=381	=381	=381	=381	=381	=381	=381	=381
4g)	.	4b-)	.	4ee)	.	16cccLL	.	V43
.	.	.	.	.	.	16ccc	.	.
.	.	.	.	.	.	16ccc	.	.
.	.	.	.	.	.	16ccc	.	.
(8a-X	f	(8cc	f	(8ff	f	16ccc	f	i6
.	.	.	.	.	.	16cccJJ	.	.
=382	=382	=382	=382	=382	=382	=382	=382	=382
16b-LL)	.	16dd-XLL)	.	16ggLL)	.	16cccLL	.	V7
16a-X'	.	16cc'	.	16ff'	.	16ccc	.	.
16g'	.	16b-'	.	16ee-X'	.	16ccc	.	.
16f'	.	16a-X'	.	16dd'	.	16ccc	.	.
16e-X'	.	16g'	.	16cc'	.	16ccc	.	.
16d'JJ	.	16f'JJ	.	16b'JJ	.	16cccJJ	.	.
=383	=383	=383	=383	=383	=383	=383	=383	=383
16e-XLL	.	16gLL	.	16ccLL	.	16cccLL	.	.
16d-X	.	16f	.	16b-	.	16ccc	.	.
16c	.	16e-X	.	16a-X	.	16ccc	.	.
16B-	.	16d-X	.	16g	.	16cc	.	.
16A-X	.	16c	.	16f	.	16dd	.	.
16GJJ	.	16B-JJ	.	16eJJ	.	16eeJJ	.	.
=384	=384	=384	=384	=384	=384	=384	=384	=384
8F	.	16A-X'LL	.	(16.fLL	.	(16.ffLL	.	i
.	.	16G'	.	.	.	.	.	.
.	.	.	.	32gJK	.	32ggJK	.	.
16r	.	16F'	.	8a-X	.	8aa-X	.	.
16D-X'LL	.	16F	.	.	.	.	.	.
16C'	.	16F	.	8b-J)	.	8bb-J)	.	.
16BB-'JJ	.	16FJJ	.	.	.	.	.	.
=385	=385	=385	=385	=385	=385	=385	=385	=385
16AA-XLL	.	16FLL	.	4cc	.	4ccc	.	.
16GG	.	16F	.	.	.	.	.	.
16FF	.	16F	.	.	.	.	.	.
16DD-X	.	16f	.	.	.	.	.	.
16CC	.	16f	.	(8dd-X	sf	(8ddd-X	sf	.
16BBB-JJ	.	16fJJ	.	.	.	.	.	.
=386	=386	=386	=386	=386	=386	=386	=386	=386
16AAA-XLL	.	16fLL	.	16ee-X'LL)	.	16eee-X'LL)	.	i6
16BBB-JJ	.	16F	.	16dd-X'	.	16ddd-X'	.	.
8.CCL	sf >	16E	>	16cc'	>	16ccc'	>	V7
.	.	16G	.	16b-'	.	16bb-'	.	.
.	.	16C	.	16a-X'	.	16aa-X'	.	.
16CCJk	]]	16cJJ	]]	16g'JJ	]]	16gg'JJ	]]	.
=387	=387	=387	=387	=387	=387	=387	=387	=387
8FF	p	8c	p	8a-X	p	16aa-X'LL	p	i
.	.	.	.	.	.	16gg'	.	.
8r	.	8r	.	16r	.	16ff'JJ	.	.
.	.	.	.	16dd-X'LL	.	16r	.	.
8r	.	16r	.	16cc'	.	8r	.	.
.	.	16c	.	16b-'JJ	.	.	.	.
=388	=388	=388	=388	=388	=388	=388	=388	=388
4r	.	8f	.	16a-X'LL	.	4.r	.	.
.	.	.	.	16g'	.	.	.	.
.	.	16r	.	16f'JJ	.	.	.	.
.	.	16d-X'LL	.	16r	.	.	.	.
16r	.	16c'	.	8r	.	.	.	.
16C	.	16B-'JJ	.	.	.	.	.	.
=389	=389	=389	=389	=389	=389	=389	=389	=389
8F	.	16A-X'LL	.	4.r	.	4r	.	.
.	.	16G'	.	.	.	.	.	.
16r	.	16F'JJ	.	.	.	.	.	.
16D-X'LL	.	8.r	.	.	.	.	.	.
16C'	.	.	.	.	.	16r	.	.
16BB-'JJ	.	.	.	.	.	16c	pp	.
=390	=390	=390	=390	=390	=390	=390	=390	=390
16AA-XLL	pp	16r	.	16r	.	16fLL	.	i
16GGJJ	.	16F	pp	16c	pp	16a-XJ	.	.
8FFL	.	8FL	.	8cL	.	8a-	.	.
8DD-XJ	.	8FJ	.	8d-XJ	.	8a-J	.	VI
=391	=391	=391	=391	=391	=391	=391	=391	=391
16BBB-LL	.	16FLL	.	16d-XLL	.	16gLL	.	ii%65
16BBB-JJ	.	16FJJ	.	16d-J	.	16gJ	.	.
8GGGL	.	8FL	.	8d-	.	8g	.	ii%
8CCJ	.	8EJ	.	8cJ	.	8gJ	.	V
=392	=392	=392	=392	=392	=392	=392	=392	=392
!LO:TX:b:i:t=cresc.	!	!LO:TX:b:i:t=cresc.	!	!LO:TX:b:i:t=cresc.	!	!LO:TX:b:i:t=cresc.	!	!
16FFLL	.	16FLL	.	16cLL	.	16a-XLL	.	i\\
16FJJ	.	16fJJ	.	16ccJJ	.	16aa-XJJ	.	.
16D-XLL	.	16fLL	.	16dd-XLL	.	16aa-LL	.	.bVI.I
16D-	.	16f	.	16dd-	.	16aa-	.	.
16BB-	.	16f	.	16dd-	.	16bb-	.	vi
16BB-JJ	.	16fJJ	.	16dd-JJ	.	16bb-JJ	.	.
=393	=393	=393	=393	=393	=393	=393	=393	=393
16GG-XLL	.	16e-XLL	.	16dd-XLL	.	16bb-LL	.	IV
16GG-	.	16e-	.	16dd-	.	16bb-	.	.
16EE-X	.	16g	.	16dd-	.	16bb-	.	ii7
16EE-	.	16g	.	16dd-	.	16bb-	.	.
16AA-X	.	16g	.	16cc	.	16aa-X	.	V7
16AA-JJ	.	16gJJ	.	16ccJJ	.	16aa-JJ	.	.
=394	=394	=394	=394	=394	=394	=394	=394	=394
16DD-XLL	fp	16fLL	fp	8.dd-XL	fp	[4.aa-X	fp	I\\
16D-X	.	16FJJ	.	.	.	.	.	.
16D-	.	16FLL	.	.	.	.	.	.
16D-	.	16F	.	16a-X'L	.	.	.	.
16D-	.	16F	.	16dd-'	.	.	.	.
16D-JJ	.	16FJJ	.	16ff'JJ	.	.	.	.
=395	=395	=395	=395	=395	=395	=395	=395	=395
16E-XLL	.	16G-XLL	.	16ee-X'LL	.	4.aa-_	.	V43
16E-	.	16G-	.	16dd-X'	.	.	.	.
16E-	.	16G-	.	16cc'	.	.	.	.
16E-	.	16A-X'	.	16b-'	.	.	.	.
16E-	.	16e-X'	.	16cc'	.	.	.	.
16E-JJ	.	16g-X'JJ	.	16a-X'JJ	.	.	.	.
=396	=396	=396	=396	=396	=396	=396	=396	=396
8F	.	16f'LL	.	16dd-X'LL	.	8.aa-]	.	I6
.	.	16A-X'	.	16ff'	.	.	.	.
16r	.	16d-X'	.	16aa-X'	.	.	.	.
16AAA-X'LL	.	16f'JJ	.	16a-X'	.	8aa-XL	.	.
16DD-X'	.	8r	.	16f'	.	.	.	.
16FF'JJ	.	.	.	16d-X'JJ	.	[16aa-Jk	.	.
=397	=397	=397	=397	=397	=397	=397	=397	=397
16EE-X'LL	.	16r	.	8c	.	16aa-KL]	.	V43
16DD-X'	.	16AA-X'LL	.	.	.	8gg-X	.	.
16CC'	.	16E-X'	.	16r	.	.	.	.
16BBB-'	.	16G-X'JJ	.	16e-X'LL	.	8gg-	.	.
16CC'	.	16r	.	16A-X'	.	.	.	.
16AAA-X'JJ	.	16c	.	16a-X'JJ	.	[16gg-Jk	.	.
=398	=398	=398	=398	=398	=398	=398	=398	=398
16DD-X'LL	.	8d-X	.	16a-XKL	.	16gg-KL]	.	I
16FF'	.	.	.	8a-	.	8ff	.	.
16AA-X'JJ	.	16r	.	.	.	.	.	.
8.ryy	.	16D-X'LL	.	8a-	.	8ff	.	.
.	.	16F'	.	.	.	.	.	.
.	.	16A-X'JJ	.	16a-Jk	.	[16ffJk	.	.
=399	=399	=399	=399	=399	=399	=399	=399	=399
4.r	.	4.r	.	16d-X'LL	.	16ffKL]	.	i.VI
.	.	.	.	16f'	.	8ff	.	.
.	.	.	.	16a-X'JJ	.	.	.	.
.	.	.	.	16r	.	16dd-X'L	.	.
.	.	.	.	8r	.	16ff'	.	.
.	.	.	.	.	.	16aa-X'JJ	.	.
=400	=400	=400	=400	=400	=400	=400	=400	=400
16CCLL	.	8r	.	16r	.	16r	.	i64
16FF	.	.	.	8a-XL	.	8ffL	.	.
16AA-XJJ	.	16r	.	.	.	.	.	.
16r	.	16CLL	.	8a-	.	8ff	.	.
8r	.	16F	.	.	.	.	.	.
.	.	16A-XJJ	.	16a-Jk	.	[16ffJk	.	.
=401	=401	=401	=401	=401	=401	=401	=401	=401
4.r	.	4.r	.	16cLL	.	16ffKL]	.	.
.	.	.	.	16f	.	8ffJ	.	.
.	.	.	.	16a-XJJ	.	.	.	.
.	.	.	.	16r	.	16ccLL	.	.
.	.	.	.	8r	.	16ff	.	.
.	.	.	.	.	.	16aa-XJJ	.	.
=402	=402	=402	=402	=402	=402	=402	=402	=402
!LO:TX:b:i:t=cresc.	!	!	!	!	!	!	!	!
16BBBLL	.	16r	.	8r	.	16r	.	#viio/V
!	!	!LO:TX:b:i:t=cresc.	!	!	!	!	!	!
16DD	.	16BBLL	.	.	.	8f 8ff	.	.
!	!	!	!	!LO:TX:b:i:t=cresc.	!	!	!	!
16FFJJ	.	16D	.	16BLL	.	.	.	.
!	!	!	!	!	!	!LO:TX:b:i:t=cresc.	!	!
16r	.	16FJJ	.	16d	.	16bLL	.	.
8r	.	8r	.	16fJJ	.	16dd	.	.
.	.	.	.	16r	.	16ffJJ	.	.
=403	=403	=403	=403	=403	=403	=403	=403	=403
16AAA-XLL	.	16r	.	8r	.	16r	.	v.iv6
16CC	.	16AA-XLL	.	.	.	8f 8ff	.	.
16FFJJ	.	16C	.	16A-XLL	.	.	.	.
16r	.	16FJJ	.	16c	.	16a-XLL	.	.
8r	.	8r	.	16fJJ	.	16cc	.	.
.	.	.	.	16r	.	16ffJJ	.	.
=404	=404	=404	=404	=404	=404	=404	=404	=404
16GGG'LL	p	8BB	p	8d 8f	p	8f 8ff	p	V7
16BBB'	.	.	.	.	.	.	.	.
16DD'	.	8r	.	8r	.	8r	.	.
16BBB'	.	.	.	.	.	.	.	.
16CC'	.	8r	.	8r	.	8r	.	.
16AAA'JJ	.	.	.	.	.	.	.	.
=405	=405	=405	=405	=405	=405	=405	=405	=405
16EELL	.	4.r	.	4.r	.	4.r	.	V
16CC	.	.	.	.	.	.	.	.
16DD	.	.	.	.	.	.	.	.
16BBB	.	.	.	.	.	.	.	.
16FF	.	.	.	.	.	.	.	.
16DDJJ	.	.	.	.	.	.	.	.
=406	=406	=406	=406	=406	=406	=406	=406	=406
16EELL	.	4.r	.	4.r	.	4.r	.	V
16CC	.	.	.	.	.	.	.	.
16GG	.	.	.	.	.	.	.	.
16EE	.	.	.	.	.	.	.	.
16FF	.	.	.	.	.	.	.	.
16DDJJ	.	.	.	.	.	.	.	.
=407	=407	=407	=407	=407	=407	=407	=407	=407
16AALL	.	8r	.	4.r	.	4.r	.	V
16FF	.	.	.	.	.	.	.	.
16DD	.	16F'LL	.	.	.	.	.	.
16FF	.	16D'	.	.	.	.	.	.
16BBB	.	16G'	.	.	.	.	.	.
16GGJJ	.	16BB'JJ	.	.	.	.	.	.
=408	=408	=408	=408	=408	=408	=408	=408	=408
16EELL	.	16C'LL	.	4.r	.	4.r	.	vi
16GG	.	16E'	.	.	.	.	.	.
16CC	.	16G'	.	.	.	.	.	.
16EE	.	16E'	.	.	.	.	.	.
16DD	.	16F'	.	.	.	.	.	.
16FFJJ	.	16D'JJ	.	.	.	.	.	.
=409	=409	=409	=409	=409	=409	=409	=409	=409
16FFLL	.	16ALL	.	4.r	.	4.r	.	viio
16AA	.	16F	.	.	.	.	.	.
16EE	.	16G	.	.	.	.	.	.
16GG	.	16E	.	.	.	.	.	.
16GG	.	16B-	.	.	.	.	.	.
16BB-JJ	.	16GJJ	.	.	.	.	.	.
=410	=410	=410	=410	=410	=410	=410	=410	=410
16FFLL	.	16ALL	.	4.r	.	4.r	.	ii
16AA	.	16F	.	.	.	.	.	.
16AA	.	16c	.	.	.	.	.	.
16C	.	16A	.	.	.	.	.	.
16GG	.	16B-	.	.	.	.	.	.
16BB-JJ	.	16GJJ	.	.	.	.	.	.
=411	=411	=411	=411	=411	=411	=411	=411	=411
16BB-LL	.	16dLL	.	4r	.	8r	.	.
16D	.	16B-	.	.	.	.	.	.
16BB-	.	16G	.	.	.	16b-'LL	.	ii6
16D	.	16B-	.	.	.	16g'	.	.
16BB- 16C	.	16E	.	16G'LL	p	16cc'	.	V2
16BB-JJ	.	16cJJ	.	16g'JJ	.	16e'JJ	.	.
=412	=412	=412	=412	=412	=412	=412	=412	=412
!LO:TX:b:i:t=cresc.	!	!LO:TX:b:i:t=cresc.	!	!LO:TX:b:i:t=cresc.	!	!LO:TX:b:i:t=cresc.	!	!
16AALL	.	16cLL	.	16f'LL	.	16f'LL	.	I6
16FF	.	16AAJJ	.	16c'	.	16a'	.	.
16FF#	.	16AALL	.	16d'	.	16cc'	.	V65/ii
16AA	.	16D	.	16c'	.	16a'	.	.
16GG	.	16BB-	.	16d'	.	16b-'	.	ii
16BB-JJ	.	16DJJ	.	16B-'JJ	.	16g'JJ	.	.
=413	=413	=413	=413	=413	=413	=413	=413	=413
16GG#XLL	.	16BBLL	.	16eLL	.	16ddLL	.	V65/iii
16BB	.	16E	.	16d	.	16b	.	.
16AA	.	16C	.	16e	.	16cc	.	iii
16C	.	16E	.	16c	.	16a	.	.
16AA	.	16C	.	16f	.	16ee-X	.	V65/IV
16CJJ	.	16FJJ	.	16e-XJJ	.	16ccJJ	.	.
=414	=414	=414	=414	=414	=414	=414	=414	=414
16BB-XLL	.	16DLL	.	16fLL	.	16ddLL	.	IV
16D	.	16F	.	16d	.	16b-	.	.
16BB	.	16D	.	16g	.	16ff	.	V65/V
16D	.	16G	.	16f	.	16dd	.	.
16C	.	16E	.	16g	.	16ee	.	V
16EJJ	.	16GJJ	.	16eJJ	.	16ccJJ	.	.
=415	=415	=415	=415	=415	=415	=415	=415	=415
16C#XLL	.	16ELL	.	16aLL	.	16ggLL	.	V65/vi
16E	.	16A	.	16g	.	16ee	.	.
16D	.	16F	.	16a	.	16ff	.	vi
16F	.	16A	.	16f	.	16dd	.	.
16D	.	16F	.	16b-	.	16bb-	.	IV6
16FJJ	.	16B-JJ	.	16fJJ	.	16bb-JJ	.	.
=416	=416	=416	=416	=416	=416	=416	=416	=416
16E'LL	f	16B-LL	f	16gLL	f	16bb-LL	f	viio
16G'	.	16g	.	16b-	.	16bb-	.	.
16B-'	.	16g	.	16b-	.	16bb-	.	.
16A'	.	16g	.	16b-	.	16bb-	.	.
16G'	.	16g	.	16b-	.	16bb-	.	.
16F'JJ	.	16gJJ	.	16b-JJ	.	16bb-JJ	.	.
=417	=417	=417	=417	=417	=417	=417	=417	=417
!LO:TX:b:Bi:t=pi 	!	!	!	!	!	!	!	!
!LO:TX:a:Bi:t=pi 	!	!	!	!LO:TX:b:Bi:t=pi 	!	!LO:TX:b:Bi:t=pi 	!	!
16E'LL	.	16gLL	.	16b-LL	.	16bb-LL	.	V7
16D'	.	16g	.	16b-	.	16bb-	.	.
16C'	.	16g	.	16b-	.	16bb-	.	.
16BB-'	.	16g	.	16b-	.	16bb-	.	.
16AA'	.	16g	.	16b-	.	16bb-	.	.
16GG'JJ	.	16gJJ	.	16b-JJ	.	16bb-JJ	.	.
=418	=418	=418	=418	=418	=418	=418	=418	=418
16FFLL	.	16dLL 16f	.	16gLL 16b	.	16bbLL	.	V2/V
16EE	.	16d 16f	.	16g 16b	.	16bb	.	.
16DD	.	16d 16f	.	16g 16b	.	16bb	.	.
16AA	.	16d 16f	.	16g 16b	.	16bb	.	.
16GG	.	16d 16f	.	16g 16b	.	16bb	.	.
16FFJJ	.	16dJJ 16f	.	16gJJ 16b	.	16bbJJ	.	.
=419	=419	=419	=419	=419	=419	=419	=419	=419
16EELL	ff	16c 16e	ff	16gLL 16cc	ff	16cccLL	ff	V7
16DD	.	16FLL	.	16cJJ	.	16ccc	.	.
16CC	.	16E	.	16cLL	.	16ccc	.	.
16BBB-	.	16D	.	16c	.	16ccc	.	.
16AAA	.	16C	.	16d	.	16ccc	.	.
16GGGJJ	.	16BB-JJ	.	16eJJ	.	16cccJJ	.	.
=420	=420	=420	=420	=420	=420	=420	=420	=420
!	!LO:DY:a	!	!	!	!	!	!	!
16FFLL	p p	(4.AA	.	(4.A 4.f	.	(4.f	p	I
16FFJ	.	.	.	.	.	.	.	.
8FF	.	.	.	.	.	.	.	.
8FFJ	.	.	.	.	.	.	.	.
=421	=421	=421	=421	=421	=421	=421	=421	=421
16FFLL	.	4.C)	.	4.c)	.	4.a)	.	I[I
16FFJ	.	.	.	.	.	.	.	.
8FF	.	.	.	.	.	.	.	.
8FFJ	.	.	.	.	.	.	.	.
=422	=422	=422	=422	=422	=422	=422	=422	=422
16FFLL	<	(8D-XL	<	(8B-L	<	(8gL	<	iio
16FF	.	.	.	.	.	.	.	.
16FF	.	8E	[	8d-X	[	8b-	[	.
16FF	[ >	.	.	.	.	.	.	.
16FF	.	8GJ) 8B-	>]	8cJ)	>]	8eJ)	>]	V7]
16FFJJ	]]	.	.	.	.	.	.	.
=423	=423	=423	=423	=423	=423	=423	=423	=423
8.FF	.	8.F 8.A	.	8.c	.	8.f	.	I
16r	.	16r	.	16r	.	16cc'LL	pp	.
8r	.	8r	.	8r	.	16ff'	.	.
.	.	.	.	.	.	16aa'JJ	.	.
=424	=424	=424	=424	=424	=424	=424	=424	=424
4.r	.	4.r	.	8r	.	16gg'LL	.	V
.	.	.	.	.	.	16ff'	.	.
.	.	.	.	16r	.	16ee'JJ	.	.
.	.	.	.	16d'LL	pp	8.r	.	.
.	.	.	.	16e'	.	.	.	.
.	.	.	.	16c'JJ	.	.	.	.
=425	=425	=425	=425	=425	=425	=425	=425	=425
4.r	.	8r	.	16f'LL	.	4.r	.	I
.	.	.	.	16a'	.	.	.	.
.	.	16r	.	16cc'JJ	.	.	.	.
.	.	16C'LL	pp	8.r	.	.	.	.
.	.	16F'	.	.	.	.	.	.
.	.	16A'JJ	.	.	.	.	.	.
=426	=426	=426	=426	=426	=426	=426	=426	=426
8r	.	16G'LL	.	4.r	.	4.r	.	V/V
.	.	16E'	.	.	.	.	.	.
16r	.	16F'JJ	.	.	.	.	.	.
16DD'LL	pp	16r	.	.	.	.	.	.
16GG'	.	8r	.	.	.	.	.	.
16BBB'JJ	.	.	.	.	.	.	.	.
=427	=427	=427	=427	=427	=427	=427	=427	=427
8CC	.	8r	.	4r	.	8r	.	V
8r	.	(8CL	p	.	.	(8ccL	p	.
8r	.	8DJ)	.	(8f	p	8b-J)	.	IV6
=428	=428	=428	=428	=428	=428	=428	=428	=428
(4.G	p	16E-XLL	.	(4.e-X)	.	[4.b-T	.	.bVII.I[I
.	.	16E-J	.	.	.	.	.	.
.	.	8E-	.	.	.	.	.	.
.	.	8E-J	.	.	.	.	.	.
=429	=429	=429	=429	=429	=429	=429	=429	=429
4.B-)	.	16E-XLL	.	4.g)	.	4.b-_	.	I6
.	.	16E-J	.	.	.	.	.	.
.	.	8E-	.	.	.	.	.	.
.	.	8E-J	.	.	.	.	.	.
=430	=430	=430	=430	=430	=430	=430	=430	=430
(8A-XL	<	16E-XLL	<	(8fL	<	4.b-]	.	V65
.	.	16E-	.	.	.	.	.	.
8c	[	16E-	.	8a-X	[	.	.	.
.	.	16E-	[ >	.	.	.	.	.
8FJ)	>]	16E-	.	8dJ)	>]	.	.	.
.	.	16E-JJ	]]	.	.	.	.	.
=431	=431	=431	=431	=431	=431	=431	=431	=431
8.G	.	8.E-X	.	8.e-X	.	16.b-LL	.	I]
.	.	.	.	.	.	32aJJk	.	.
.	.	.	.	.	.	8b-	.	.
*clefF4	*	*	*	*	*	*	*	*
16BBB-'LL	pp	16r	.	16r	.	.	.	.
16EE-X'	.	8r	.	8r	.	8r	.	.
16GG'JJ	.	.	.	.	.	.	.	.
=432	=432	=432	=432	=432	=432	=432	=432	=432
16FF'LL	.	8r	.	4.r	.	4.r	.	V
16EE-X'	.	.	.	.	.	.	.	.
16DD'JJ	.	16r	.	.	.	.	.	.
16r	.	16C'LL	pp	.	.	.	.	.
8r	.	16D'	.	.	.	.	.	.
.	.	16BB-'JJ	.	.	.	.	.	.
=433	=433	=433	=433	=433	=433	=433	=433	=433
4.r	.	16E-X'LL	.	8r	.	4.r	.	IV.IV
.	.	16G'	.	.	.	.	.	.
.	.	16B-'JJ	.	16r	.	.	.	.
.	.	8.r	.	16b-'LL	pp	.	.	.
.	.	.	.	16ee-X'	.	.	.	.
.	.	.	.	16gg'JJ	.	.	.	.
=434	=434	=434	=434	=434	=434	=434	=434	=434
4.r	.	8r	.	16ff'LL	.	8r	.	I
.	.	.	.	16dd'	.	.	.	.
.	.	16r	.	16ee-X'	.	16r	.	.
.	.	16e-X'LL	.	16g'	.	16ccc'LL	pp	ii6
.	.	16f'	.	16d'	.	16ddd'	.	IV6
.	.	16F'JJ	.	16e-X'JJ	.	16aa'JJ	.	V7
=435	=435	=435	=435	=435	=435	=435	=435	=435
4.r	.	8B-	.	(8dL	.	(4bb-	.	I\\
.	.	8r	.	8b-	.	.	.	.
.	.	8r	.	8a-XJ)	.	8aa-X)	.	V7/IV
=436	=436	=436	=436	=436	=436	=436	=436	=436
!	!	!LO:TX:a:i:t=cresc.	!	!	!	!	!	!
!LO:TX:b:i:t=cresc.	!	!LO:TX:b:i:t=cresc.	!	!	!	!LO:TX:b:i:t=cresc.	!	!
16G-XLL	.	16A#XLL 16c#X	.	(4.g-X	.	(4.gg-X	.	.bII.I[I6
16G-J	.	16A#J 16c#	.	.	.	.	.	.
8G-	.	8A# 8c#	.	.	.	.	.	.
8G-J	.	8A#J 8c#	.	.	.	.	.	.
=437	=437	=437	=437	=437	=437	=437	=437	=437
16G-XLL	.	16A#XLL 16c#X	.	4.b-)	.	4.bb-)	.	.
16G-J	.	16A#J 16c#	.	.	.	.	.	.
8G-	.	8A# 8c#	.	.	.	.	.	.
8G-J	.	8A#J 8c#	.	.	.	.	.	.
=438	=438	=438	=438	=438	=438	=438	=438	=438
16G-XLL	.	16BLL 16c#X	.	(8a-XTL	.	(8aa-XTL	.	V2
16G-	.	16B 16c#	.	.	.	.	.	.
16G-	.	16B 16c#	.	8cc-X	.	8ccc-X	.	.
16G-	.	16B 16c#	.	.	.	.	.	.
16G-	.	16B 16c#	.	8fJ)	.	8ffJ)	.	.
16G-JJ	.	16BJJ 16c#	.	.	.	.	.	.
=439	=439	=439	=439	=439	=439	=439	=439	=439
8G-X	.	8A#X 8c#X	.	(4g-X	.	(4gg-X	.	I6]
8GG-XL	.	8BB-XL	.	.	.	.	.	.
8GG-J	.	8BB-J	.	8f)	.	8ff)	.	V7/IV
=440	=440	=440	=440	=440	=440	=440	=440	=440
!	!LO:DY:a	!	!	!	!	!	!	!
[4.GG	f f >	[4.BB-	>	[4.c [4.e	f >	[4.ee	f >	I.V43
=441	=441	=441	=441	=441	=441	=441	=441	=441
4.GG]	]]	4.BB-]	]]	4.c] 4.e]	]]	4.ee]	]]	.
=442	=442	=442	=442	=442	=442	=442	=442	=442
!	!	!	!LO:DY:a	!	!	!	!	!
!	!	!	!LO:DY:a	!	!	!	!	!
(8FFL	p	(8AAL	p p p	(8fL 4.c	.	(8ffL	.	I
!LO:TX:b:i:t=dol.	!	!LO:TX:b:i:t=dol.	!	!LO:TX:b:i:t=dol.	!	!LO:TX:b:i:t=dol.	!	!
8GG	.	8BB-	.	8e	.	8ee	.	viio6
8FFJ	.	8AAJ	.	8fJ	.	8ffJ	.	I
=443	=443	=443	=443	=443	=443	=443	=443	=443
8BBB-L	.	8DL	.	16.b-LL	.	16.bb-LL	.	ii6
.	.	.	.	32gJJk	.	32ggJK	.	.
8CC	.	8AA	.	8fL	.	8ff	.	V(64)
8BBB-J)	.	8GGJ)	.	8eJ)	.	8eeJ)	.	V2
=444	=444	=444	=444	=444	=444	=444	=444	=444
!LO:TX:b:i:t=cresc.	!	!	!	!	!	!	!	!
!LO:TX:a:i:t=cresc.	!	!	!	!	!LO:TX:a:i:t=cresc.	!	!	!
(8AAAL	.	(8CL	.	(8ccL	.	(8cccL	.	I6
8EE	.	8G 4C	.	8b-	.	8bb-	.	V65
8FFJ	.	8FJ	.	8aJ	.	8aaJ	.	I
=445	=445	=445	=445	=445	=445	=445	=445	=445
8BB-L	.	16.B-LL	.	16.ddLL	.	16.dddLL	.	ii6
.	.	32GJK	.	32b-JJk	.	32bb-JJk	.	.
8C	.	8F	.	8aL	.	8aaL	.	V(64)
8CCJ)	.	8EJ)	.	8gJ)	.	8ggJ)	.	V
=446	=446	=446	=446	=446	=446	=446	=446	=446
!	!	!	!LO:DY:a	!	!LO:DY:a	!	!	!
16CC#XLL	ff	16B-LL	ff ff	16eLL 16g	ff	16eLL 16gg	.	#viio7/vi
16CC#J	.	16B-J	.	16eJ 16g	.	16eJ 16gg	.	.
8CC#J	.	8B-J	.	8eJ 8g	.	8eJ 8gg	.	.
8r	.	8r	.	8r	.	8r	.	.
=447	=447	=447	=447	=447	=447	=447	=447	=447
4.r	.	4.r	.	4.r	.	4.r	.	.
=448	=448	=448	=448	=448	=448	=448	=448	=448
!LO:TX:a:i:t=poco rit.	!	!LO:TX:a:i:t=poco rit.	!	!LO:TX:a:i:t=poco rit.	!	!LO:TX:a:i:t=poco rit.	!	!
16BB-LL	p	16c#XLL	p	16GLL	p	16eLL	p	#viio2/vi
16BB-J	.	16c#J	.	16GJ	.	16eJ	.	.
8BB-J	.	8c#J	.	8F#J	.	8eJ	.	V65/#iv
8r	.	8r	.	8r	.	8r	.	.
=449	=449	=449	=449	=449	=449	=449	=449	=449
4.r	.	4.r	.	4.r	.	4.r	.	.
=450	=450	=450	=450	=450	=450	=450	=450	=450
!	!	!LO:TX:a:i:t=a tempo	!	!	!	!	!	!
!	!	!LO:TX:b:i:t=a tempo	!	!LO:TX:a:i:t=a tempo	!	!LO:TX:a:i:t=a tempo	!	!
(8BBL	.	(8F#L	.	(8F#L	.	(8dL	.	#iv.i
8FF#	.	8E	.	8A#X	.	8c#X	.	V7
8GGJ	.	8DJ	.	8BJ	.	8BJ	.	VI
=451	=451	=451	=451	=451	=451	=451	=451	=451
8EEL	.	8GL	.	8GL	.	16.eLL	.	iv
.	.	.	.	.	.	32cJJk	.	.
8FF#	.	8D	.	8F#)	.	8BL	.	V(64)
8EEJ)	.	8C#XJ)	.	8F#J	.	8A#XJ)	.	V2
=452	=452	=452	=452	=452	=452	=452	=452	=452
(8DDL	.	(8BBL	.	8F#L	.	(8f#L	.	i6
8CC#X	.	8AA#X	.	8F#	.	8e	.	V43
8BBBJ	.	[8BBJ	.	(8F#J	.	8dJ	.	i
=453	=453	=453	=453	=453	=453	=453	=453	=453
8EEL	.	16.BBLL]	.	16.GLL	.	16.gLL	.	iv
.	.	32GJJk	.	32c#XJJk	.	32eJJk	.	.
8FF#)	.	8F#L	.	8BL	.	8dL	.	V(64)
8FF#J	.	8EJ)	.	8A#XJ)	.	8c#XJ)	.	V7
=454	=454	=454	=454	=454	=454	=454	=454	=454
16GGLL	pp	16ELL	pp	16B-XLL	pp	16d-XLL	pp	ivo65
16GG	.	16E	.	16B-	.	16d-	.	.
16GG	.	16E	.	16B-	.	16d-	.	.
16GG	.	16E	.	16B-	.	16d-	.	.
16GG	.	16E	.	16B-	.	16d-	.	.
16GGJJ	.	16EJJ	.	16B-JJ	.	16d-JJ	.	.
=455	=455	=455	=455	=455	=455	=455	=455	=455
!LO:TX:a:i:t=sempre	!	!LO:TX:b:i:t=sempre	!	!LO:TX:b:i:t=sempre	!	!LO:TX:b:i:t=sempre	!	!
16GG-XLL	pp	16ELL	pp	16B-LL	pp	16d-XLL	pp	V7
16GG-	.	16E	.	16B-	.	16d-	.	.
16GG-	.	16E	.	16B-	.	16d-	.	.
16GG-	.	16E	.	16B-	.	16d-	.	.
16GG-	.	16E	.	16B-	.	16d-	.	.
16GG-JJ	.	16EJJ	.	16B-JJ	.	16d-JJ	.	.
=456	=456	=456	=456	=456	=456	=456	=456	=456
16GG-XLL	.	16FLL	.	16B-LL	.	16d-XLL	.	V2
16FF	.	16F	.	16B-	.	16d-	.	.
16EE	.	16G	.	16B-	.	16d-	.	ivo7
16EE	.	16G	.	16B-	.	16d-	.	.
16EE-X	.	16G	.	16B-	.	16d-	.	.bIV7
16EE-JJ	.	16GJJ	.	16B-JJ	.	16d-JJ	.	.
=457	=457	=457	=457	=457	=457	=457	=457	=457
16DDLL	.	16GLL	.	16B-LL	.	16dLL	.	vi
16DD	.	16G	.	16B-	.	16d	.	.
16DD-X	.	16G	.	16B-	.	16e-X	.	.bIV2
16DD-	.	16G	.	16B-	.	16e-	.	.
16CC	.	16G	.	16B-	.	16e	.	I.V7
16CCJJ	.	16GJJ	.	16B-JJ	.	16eJJ	.	.
=458	=458	=458	=458	=458	=458	=458	=458	=458
16CLL	.	16GLL	.	16eLL	.	16b-LL	.	.
16C	.	16G	.	16e	.	16b-	.	.
16C	.	16G	.	16e	.	16b-	.	.
16C	.	16G	.	16e	.	16b-	.	.
16C	.	16G	.	16e	.	16b-	.	.
16CJJ	.	16GJJ	.	16eJJ	.	16b-JJ	.	.
=459	=459	=459	=459	=459	=459	=459	=459	=459
16CCLL	.	16GLL 16B-	.	16cLL 16b-	.	16gLL 16ee	.	.
16CC	.	16G 16B-	.	16c 16b-	.	16g 16ee	.	.
16CC	.	16G 16B-	.	16c 16b-	.	16g 16ee	.	.
16CC	.	16G 16B-	.	16c 16b-	.	16g 16ee	.	.
16CC	.	16G 16B-	.	16c 16b-	.	16g 16ee	.	.
16CCJJ	.	16GJJ 16B-	.	16cJJ 16b-	.	16gJJ 16ee	.	.
=460	=460	=460	=460	=460	=460	=460	=460	=460
16FFLL	.	16FLL 16A	.	8c 8a	.	16aLL 16ff	.	I
16FF	.	16AA	.	.	.	16ff	.	.
16FF	.	16AA	.	8r	.	16ff	.	.
16FF	.	16AA	.	.	.	16cc	.	.
16FF	.	16AA	.	8r	.	16ff	.	.
16FFJJ	.	16AAJJ	.	.	.	16aaJJ	.	.
=461	=461	=461	=461	=461	=461	=461	=461	=461
16BB-LL	.	16CLL	.	16gLL	.	16ggLL	.	V2
16BB-	.	16C	.	16g	.	16ff	.	.
16BB-	.	16C	.	16gJJ	.	16ee	.	.
16BB-	.	16C	.	16r	.	16dd	.	.
16BB-	.	16C	.	8r	.	16ee	.	.
16BB-JJ	.	16CJJ	.	.	.	16ccJJ	.	.
=462	=462	=462	=462	=462	=462	=462	=462	=462
16AALL	.	16CLL	.	16fLL	.	16ffLL	.	I6
16AA	.	16C	.	16f	.	16aa	.	.
16AA	.	16C	.	16f	.	16ccc	.	.
16AA	.	16C	.	16c	.	16ccc	.	.
16AA	.	16C	.	16f	.	16ccc	.	.
16AAJJ	.	16CJJ	.	16aJJ	.	16cccJJ	.	.
=463	=463	=463	=463	=463	=463	=463	=463	=463
16GGLL	.	16BB-LL	.	16b-LL	.	16cccLL	.	V43
16GG	.	16BB-	.	16a	.	16ccc	.	.
16GG	.	16BB-	.	16g	.	16ccc	.	.
16GG	.	16BB-	.	16f	.	16ccc	.	.
16GG	.	16BB-	.	16g	.	16ccc	.	.
16GGJJ	.	16BB-JJ	.	16eJJ	.	16cccJJ	.	.
=464	=464	=464	=464	=464	=464	=464	=464	=464
16FFLL	.	16AALL	.	16aLL 16cc	.	16cccLL	.	I
16FF	.	16F	.	16a 16cc	.	16ccc	.	.
16FF	.	16F	.	16a 16cc	.	16ccc	.	.
16CC	.	16C	.	16a 16cc	.	16ccc	.	.
16FF	.	16F	.	16a 16cc	.	16ccc	.	.
16AAJJ	.	16AJJ	.	16aJJ 16cc	.	16cccJJ	.	.
=465	=465	=465	=465	=465	=465	=465	=465	=465
16GGLL	.	16GLL	.	16b-LL 16cc	.	[4.cccT	.	V7
16FF	.	16F	.	16b- 16cc	.	.	.	.
16EE	.	16E	.	16b- 16cc	.	.	.	.
16DD	.	16D	.	16b- 16cc	.	.	.	.
16EE	.	16E	.	16b- 16cc	.	.	.	.
16CCJJ	.	16CJJ	.	16b-JJ 16cc	.	.	.	.
=466	=466	=466	=466	=466	=466	=466	=466	=466
16FFLL	.	16FLL	.	16aLL 16cc	.	4.ccc_	.	I
16AA	.	16F	.	16a 16cc	.	.	.	.
16CJJ	.	16F	.	16a 16cc	.	.	.	.
16r	.	16F	.	16a 16cc	.	.	.	.
8r	.	16A	.	16a 16cc	.	.	.	.
.	.	16cJJ	.	16aJJ 16cc	.	.	.	.
=467	=467	=467	=467	=467	=467	=467	=467	=467
4.r	.	4.r	.	16fLL	.	8.ccc]	.	.
.	.	.	.	16a	.	.	.	.
.	.	.	.	16ccJJ	.	.	.	.
.	.	.	.	16r	.	16ffLL	.	.
.	.	.	.	8r	.	16aa	.	.
.	.	.	.	.	.	16cccJJ	.	.
=468	=468	=468	=468	=468	=468	=468	=468	=468
4.r	.	4.r	.	4.r	.	8fff	.	.
.	.	.	.	.	.	8r	.	.
.	.	.	.	.	.	8r	.	.
=469	=469	=469	=469	=469	=469	=469	=469	=469
!	!	!	!	!	!	!LO:TX:a:t=arco	!	!
!LO:TX:a:t=pizz.	!	!LO:TX:a:t=pizz.	!	!LO:TX:a:t=pizz.	!	!LO:TX:a:t=pizz.	!	!
8C	.	8C 8G	.	8G 8B-	.	8B- 8e	.	V7
8r	.	8r	.	8r	.	8r	.	.
8r	.	8r	.	8r	.	8r	.	.
=470	=470	=470	=470	=470	=470	=470	=470	=470
!	!	!	!	!LO:TX:a:t=arco	!	!	!	!
4.r	.	4.r	.	4.r	.	16dd-XLL	.	.bVI
.	.	.	.	.	.	16dd-J	.	.
.	.	.	.	.	.	8dd-J	.	.
.	.	.	.	.	.	8r	.	.
=471	=471	=471	=471	=471	=471	=471	=471	=471
4.r	.	4.r	.	16BLL	.	4.r	.	V/V
.	.	.	.	16BJ	.	.	.	.
.	.	.	.	8BJ	.	.	.	.
.	.	.	.	8r	.	.	.	.
=472	=472	=472	=472	=472	=472	=472	=472	=472
!	!	!LO:TX:a:t=arco	!	!	!	!	!	!
4.r	.	16CLL	.	4.r	.	4.r	.	V7
.	.	16CJ	.	.	.	.	.	.
.	.	8CJ	.	.	.	.	.	.
.	.	8r	.	.	.	.	.	.
=473	=473	=473	=473	=473	=473	=473	=473	=473
!	!	!	!LO:DY:a	!	!LO:DY:a	!	!	!
16FFLL	ff	16CLL	ff ff	16FLL	ff	16FLL 16A	.	I
16FF	.	16C	.	16F	.	16F 16A	.	.
16FF	.	16C	.	16F	.	16F 16A	.	.
16FF	.	16C	.	16F	.	16F 16A	.	.
16FF	.	16C	.	16F	.	16F 16A	.	.
16FFJJ	.	16CJJ	.	16FJJ	.	16FJJ 16A	.	.
=474	=474	=474	=474	=474	=474	=474	=474	=474
!	!	!	!LO:DY:a	!	!LO:DY:a	!	!	!
4.F	sf	4.A 4.c	sf sf	4.A 4.f	sf	4.A 4.a	.	.
=475	=475	=475	=475	=475	=475	=475	=475	=475
4.FF	sf	4.C 4.F	sf	4.a 4.ff	sf	4.aa	sf	.
=476	=476	=476	=476	=476	=476	=476	=476	=476
!	!	!	!LO:DY:a	!	!LO:DY:a	!	!	!
4FF	f	4C	f f	4F	f	4A	.	I\\
8r	.	8r	.	8r	.	8r	.	.
==	==	==	==	==	==	==	==	==
*-	*-	*-	*-	*-	*-	*-	*-	*-
!!!system-decoration: [(s1,s2,s3,s4)]
